res/LUTs/Bluedabadee.cube
LUT_3D_SIZE 6
-0.042286 -0.031101 -0.032632
0.185158 -0.008322 0.079525
0.338438 0.060136 0.167390
0.432460 0.098113 0.249778
0.496903 0.136002 0.328770
0.551403 0.179024 0.411641
0.062067 0.151692 0.135078
0.191434 0.153529 0.150439
0.339913 0.161863 0.202560
0.433011 0.177489 0.270513
0.497190 0.199683 0.342563
0.551504 0.230308 0.420688
0.139419 0.347304 0.273645
0.216379 0.348036 0.279190
0.346687 0.351604 0.303146
0.435419 0.358646 0.344417
0.498579 0.369779 0.396613
0.552253 0.386804 0.458333
0.207172 0.566907 0.401821
0.254310 0.567368 0.404700
0.359170 0.569660 0.417609
0.440203 0.574131 0.441589
0.501279 0.581303 0.474661
0.554290 0.592678 0.517903
0.266799 0.808656 0.512657
0.296519 0.808857 0.514257
0.376275 0.810527 0.521667
0.447342 0.813801 0.535866
0.505576 0.819061 0.556424
0.560610 0.827320 0.585094
0.359446 1.122776 0.680024
0.370894 1.122731 0.680444
0.413868 1.122485 0.682859
0.465015 1.122161 0.687527
0.516278 1.121577 0.694551
0.612590 1.120672 0.705950
-0.194904 -0.608611 0.200634
0.053991 -0.608372 0.210906
0.317792 -0.607120 0.246799
0.424530 -0.604348 0.301172
0.492486 -0.599531 0.363550
0.541343 -0.591400 0.432350
0.065892 0.152327 0.377460
0.192184 0.153951 0.381039
0.340449 0.161410 0.393593
0.433199 0.175986 0.418592
0.497307 0.197306 0.453809
0.551513 0.227135 0.499698
0.140610 0.347522 0.423598
0.215054 0.349308 0.422983
0.347505 0.352971 0.435372
0.435621 0.358517 0.457172
0.498630 0.368979 0.486586
0.552270 0.385394 0.526084
0.207793 0.567029 0.493073
0.253044 0.568107 0.491977
0.359142 0.570322 0.500724
0.440470 0.575004 0.516774
0.501358 0.581216 0.539033
0.554285 0.591884 0.569290
0.267144 0.808616 0.568545
0.295228 0.809387 0.567031
0.375930 0.810915 0.573010
0.447318 0.814270 0.583672
0.505700 0.819648 0.599712
0.560646 0.827164 0.621163
0.359454 1.122733 0.684202
0.369414 1.122677 0.682015
0.413179 1.122462 0.684734
0.464780 1.122126 0.689562
0.516236 1.121483 0.696768
0.612450 1.120674 0.708125
-0.190726 -0.608219 0.614367
0.072650 -0.607938 0.615636
0.319396 -0.606672 0.620659
0.425052 -0.603883 0.628567
0.492700 -0.598981 0.640482
0.541048 -0.590811 0.657244
0.079128 0.155339 0.637355
0.192129 0.154264 0.639033
0.341353 0.163370 0.642489
0.433443 0.178676 0.648216
0.497423 0.200049 0.658017
0.551586 0.229760 0.672550
0.145260 0.348726 0.648919
0.217821 0.350525 0.650590
0.347685 0.352718 0.652828
0.435933 0.359452 0.658660
0.498889 0.367927 0.666093
0.552257 0.381458 0.677340
0.210198 0.567778 0.669802
0.254988 0.568758 0.670133
0.357959 0.572263 0.670191
0.441269 0.577319 0.676109
0.501573 0.581369 0.684823
0.554376 0.590168 0.694490
0.268556 0.809285 0.697133
0.296636 0.809747 0.697031
0.374351 0.812087 0.695999
0.447153 0.815352 0.700820
0.506050 0.821120 0.707739
0.560925 0.826334 0.716954
0.359852 1.122686 0.739677
0.369980 1.122557 0.738890
0.410473 1.122405 0.735962
0.463782 1.122057 0.739208
0.515889 1.121358 0.743718
0.616309 1.120601 0.750739
-0.182298 -0.607355 0.770664
0.094254 -0.607054 0.771061
0.321521 -0.605754 0.772437
0.426024 -0.602862 0.774794
0.493202 -0.597915 0.777908
0.540229 -0.589598 0.782549
0.098816 0.161170 0.773655
0.197068 0.159441 0.774142
0.341983 0.168421 0.775007
0.433996 0.183504 0.776988
0.497685 0.204395 0.779659
0.551743 0.233511 0.783986
0.154042 0.351219 0.776838
0.221593 0.351507 0.777277
0.346236 0.350787 0.778567
0.436860 0.358600 0.780535
0.499143 0.369345 0.782231
0.552443 0.383628 0.785695
0.214933 0.569394 0.783103
0.258231 0.570487 0.783492
0.359509 0.574169 0.784958
0.441092 0.576340 0.785828
0.501858 0.583451 0.788486
0.554702 0.591064 0.791417
0.271391 0.810293 0.792255
0.298832 0.810999 0.792367
0.375587 0.813196 0.792682
0.446710 0.816986 0.793261
0.506588 0.823035 0.795975
0.561517 0.827345 0.800357
0.360725 1.122489 0.806650
0.370880 1.122424 0.806385
0.411224 1.122240 0.805568
0.462349 1.121865 0.804837
0.515481 1.121191 0.807441
0.625999 1.120376 0.811540
-0.168253 -0.605888 0.867218
0.118108 -0.605571 0.867505
0.324316 -0.604177 0.868512
0.427034 -0.601225 0.870532
0.493750 -0.596128 0.873296
0.537584 -0.587661 0.877574
0.121551 0.169934 0.865977
0.204535 0.167309 0.866286
0.343815 0.176082 0.867102
0.434513 0.190412 0.868680
0.498135 0.211168 0.871326
0.551967 0.239377 0.875234
0.166617 0.355180 0.868712
0.227691 0.354691 0.868882
0.346913 0.352124 0.869964
0.436404 0.360342 0.871669
0.499711 0.371568 0.874485
0.552667 0.386604 0.877222
0.222170 0.571890 0.874216
0.262504 0.572056 0.874450
0.359967 0.572614 0.875628
0.440067 0.573583 0.877370
0.502644 0.581332 0.880490
0.555111 0.591172 0.882277
0.275725 0.812145 0.883259
0.302276 0.812937 0.883659
0.377250 0.815416 0.884949
0.447629 0.819440 0.887025
0.506517 0.822641 0.888826
0.562713 0.830410 0.892921
0.362261 1.122319 0.894640
0.372301 1.122250 0.894502
0.412196 1.122048 0.894283
0.462985 1.121655 0.894410
0.515619 1.120942 0.896782
0.873059 1.120008 0.901431
-0.145935 -0.603678 0.991208
0.142772 -0.603340 0.991246
0.328054 -0.601885 0.991355
0.428283 -0.598784 0.991649
0.494406 -0.593505 0.991785
0.324262 -0.584791 0.992105
0.145502 0.181593 0.989393
0.214219 0.177745 0.989414
0.346565 0.186391 0.989571
0.435465 0.199867 0.989901
0.498637 0.219541 0.990266
0.552330 0.247520 0.990799
0.182185 0.360606 0.989935
0.235843 0.359618 0.989998
0.348127 0.354468 0.990010
0.436665 0.362901 0.990263
0.499588 0.374040 0.990569
0.553242 0.390984 0.991064
0.231627 0.575404 0.990673
0.268515 0.574983 0.990693
0.361156 0.573502 0.990793
0.439529 0.572035 0.990964
0.501711 0.579997 0.991214
0.555821 0.591517 0.991439
0.281645 0.814680 0.991422
0.306439 0.814595 0.991446
0.378093 0.814619 0.991507
0.447037 0.815630 0.991614
0.505827 0.820197 0.991681
0.564114 0.828658 0.991767
0.331842 1.006672 0.991963
0.347776 1.006664 0.991971
0.399894 1.006650 0.992000
0.457615 1.006575 0.992024
0.512437 1.006289 0.992248
1.147310 1.005649 1.003767
