res/LUTs/Bluedabadee.cube
LUT_3D_SIZE 16
-0.042286 -0.031101 -0.032632
0.020987 -0.030875 -0.028897
0.118128 -0.026693 0.045532
0.185158 -0.008322 0.079525
0.244094 0.031747 0.109897
0.294992 0.046763 0.138998
0.338438 0.060136 0.167390
0.375137 0.072945 0.195266
0.406154 0.085550 0.222698
0.432460 0.098113 0.249778
0.455505 0.110664 0.276440
0.476720 0.123311 0.302804
0.496903 0.136002 0.328770
0.516602 0.148843 0.354530
0.534918 0.161765 0.379778
0.551403 0.179024 0.411641
-0.040451 -0.022917 -0.014513
0.024615 -0.022464 0.012267
0.118423 -0.013367 0.051871
0.185352 0.024654 0.082501
0.244179 0.039038 0.111769
0.295047 0.051804 0.140343
0.338453 0.064071 0.168409
0.375164 0.076201 0.196038
0.406145 0.088357 0.223349
0.432486 0.100554 0.250280
0.455511 0.112820 0.276913
0.476704 0.125265 0.303219
0.496925 0.137803 0.329166
0.516621 0.150499 0.354934
0.534934 0.163273 0.380055
0.551416 0.180398 0.411844
0.022173 0.089334 0.084220
0.047661 0.089441 0.085039
0.122368 0.090510 0.094475
0.187349 0.092799 0.111094
0.245302 0.096338 0.132169
0.295745 0.101145 0.155624
0.338976 0.107087 0.180340
0.375477 0.114084 0.205659
0.406370 0.121975 0.231299
0.432671 0.130647 0.257008
0.455657 0.140014 0.282619
0.476829 0.149946 0.308194
0.496993 0.160312 0.333508
0.516710 0.171187 0.358714
0.535015 0.182368 0.383417
0.551428 0.197741 0.414740
0.062067 0.151692 0.135078
0.071883 0.151718 0.135472
0.130253 0.152291 0.140483
0.191434 0.153529 0.150439
0.247697 0.155523 0.164792
0.297253 0.158264 0.182466
0.339913 0.161863 0.202560
0.376190 0.166268 0.224284
0.406849 0.171528 0.247062
0.433011 0.177489 0.270513
0.455902 0.184219 0.294371
0.477075 0.191653 0.318431
0.497190 0.199683 0.342563
0.516869 0.208320 0.366867
0.535142 0.217484 0.390494
0.551504 0.230308 0.420688
0.089941 0.214676 0.182766
0.095816 0.214705 0.182983
0.141684 0.215102 0.186282
0.197729 0.215912 0.192915
0.251477 0.217286 0.203088
0.299641 0.219193 0.216378
0.341557 0.221713 0.232270
0.377276 0.224871 0.250181
0.407624 0.228620 0.269722
0.433556 0.233048 0.290397
0.456357 0.238055 0.311866
0.477424 0.243709 0.333947
0.497553 0.249934 0.356406
0.517157 0.256863 0.379147
0.535315 0.264152 0.401346
0.551631 0.274711 0.430132
0.115290 0.279807 0.228792
0.119332 0.279865 0.228988
0.155898 0.280094 0.231279
0.206153 0.280770 0.236148
0.256663 0.281809 0.243695
0.303031 0.283238 0.253848
0.343788 0.285151 0.266447
0.378792 0.287529 0.281135
0.408701 0.290420 0.297572
0.434365 0.293873 0.315477
0.456999 0.297851 0.334406
0.477951 0.302301 0.354399
0.497970 0.307366 0.374768
0.517539 0.312937 0.395481
0.535594 0.318859 0.415981
0.551866 0.327658 0.442734
0.139419 0.347304 0.273645
0.142361 0.347291 0.273765
0.172082 0.347539 0.275512
0.216379 0.348036 0.279190
0.263181 0.348842 0.285040
0.307357 0.349917 0.293031
0.346687 0.351604 0.303146
0.380847 0.353483 0.315252
0.410186 0.355933 0.329085
0.435419 0.358646 0.344417
0.457848 0.361880 0.361103
0.478571 0.365567 0.378642
0.498579 0.369779 0.396613
0.517995 0.374386 0.415170
0.535994 0.379467 0.433761
0.552253 0.386804 0.458333
0.162646 0.417609 0.317363
0.164987 0.417619 0.317495
0.189491 0.417817 0.318874
0.228045 0.418224 0.321839
0.270936 0.418941 0.326478
0.312530 0.419953 0.332973
0.350236 0.421191 0.341334
0.383311 0.422826 0.351353
0.411933 0.424838 0.363063
0.436759 0.427228 0.376093
0.458869 0.429971 0.390281
0.479463 0.433078 0.405342
0.499313 0.436608 0.421138
0.518644 0.440566 0.437559
0.536375 0.444946 0.454208
0.552651 0.451308 0.476398
0.185337 0.490939 0.360465
0.187269 0.490864 0.360589
0.207353 0.491050 0.361643
0.240799 0.491513 0.364025
0.279711 0.491992 0.367895
0.318591 0.492838 0.373201
0.354413 0.494049 0.379966
0.386240 0.495467 0.388213
0.414018 0.497066 0.397872
0.438345 0.499187 0.408784
0.460087 0.501572 0.420749
0.480567 0.504376 0.433707
0.500252 0.507413 0.447402
0.519478 0.510882 0.461805
0.536895 0.514580 0.476553
0.553418 0.520144 0.496481
0.207172 0.566907 0.401821
0.208694 0.566917 0.401912
0.225365 0.567025 0.402822
0.254310 0.567368 0.404700
0.289388 0.567923 0.407769
0.325378 0.568634 0.412078
0.359170 0.569660 0.417609
0.389655 0.570840 0.424460
0.416508 0.572404 0.432414
0.440203 0.574131 0.441589
0.461567 0.576288 0.451752
0.481815 0.578601 0.462833
0.501279 0.581303 0.474661
0.520343 0.584440 0.487251
0.537451 0.587783 0.500210
0.554290 0.592678 0.517903
0.227957 0.645224 0.440894
0.229212 0.645231 0.440917
0.243180 0.645470 0.441675
0.268252 0.645608 0.443242
0.299681 0.646084 0.445747
0.332710 0.646707 0.449279
0.364414 0.647638 0.453893
0.393473 0.648763 0.459549
0.419317 0.650066 0.466240
0.442321 0.651680 0.473954
0.463298 0.653575 0.482589
0.483215 0.655689 0.492059
0.502542 0.658144 0.502252
0.521403 0.660727 0.513142
0.537999 0.663828 0.524507
0.555629 0.668306 0.540047
0.247877 0.725985 0.477915
0.248922 0.726074 0.477948
0.260717 0.726190 0.478538
0.282437 0.726272 0.479867
0.310470 0.726943 0.481926
0.340585 0.727444 0.484847
0.370212 0.728259 0.488694
0.397642 0.729099 0.493415
0.422389 0.730506 0.499057
0.444723 0.731826 0.505560
0.465242 0.733571 0.512901
0.484894 0.735614 0.520995
0.503964 0.737685 0.529780
0.522636 0.740218 0.539164
0.538450 0.742771 0.549078
0.557682 0.746743 0.562656
0.266799 0.808656 0.512657
0.267672 0.808690 0.512632
0.277663 0.808625 0.513179
0.296519 0.808857 0.514257
0.321434 0.809382 0.515989
0.348826 0.809773 0.518430
0.376275 0.810527 0.521667
0.402165 0.811438 0.525621
0.425780 0.812583 0.530345
0.447342 0.813801 0.535866
0.467405 0.815234 0.542058
0.486704 0.817000 0.549034
0.505576 0.819061 0.556424
0.524010 0.821148 0.564653
0.538789 0.823688 0.573228
0.560610 0.827320 0.585094
0.284862 0.896791 0.545348
0.285621 0.896781 0.545382
0.294153 0.896938 0.545779
0.310541 0.897188 0.546727
0.332513 0.897473 0.548162
0.357355 0.898160 0.550239
0.382743 0.898782 0.552902
0.406981 0.899625 0.556255
0.429463 0.900723 0.560195
0.450232 0.902068 0.564930
0.469773 0.903779 0.570237
0.488735 0.905494 0.576126
0.507304 0.907594 0.582547
0.525512 0.909931 0.589485
0.538559 0.912522 0.596937
0.565204 0.915947 0.607221
0.301864 0.984536 0.575664
0.302544 0.984549 0.575764
0.309862 0.984576 0.576099
0.324033 0.984724 0.576812
0.343586 0.984798 0.578036
0.366049 0.985207 0.579763
0.389345 0.985563 0.582044
0.412035 0.985951 0.584835
0.433374 0.986399 0.588252
0.453335 0.987045 0.592215
0.472349 0.987691 0.596689
0.490936 0.988445 0.601748
0.509271 0.989373 0.607274
0.527109 0.990275 0.613202
0.536788 0.991173 0.619556
0.572417 0.992601 0.628543
0.359446 1.122776 0.680024
0.359238 1.122770 0.679999
0.362918 1.122736 0.680115
0.370894 1.122731 0.680444
0.382687 1.122691 0.681044
0.397424 1.122568 0.681823
0.413868 1.122485 0.682859
0.430952 1.122394 0.684082
0.448075 1.122333 0.685604
0.465015 1.122161 0.687527
0.482035 1.122036 0.689557
0.499160 1.121808 0.691957
0.516278 1.121577 0.694551
0.532933 1.121250 0.697326
0.540125 1.120921 0.700438
0.612590 1.120672 0.705950
-0.195884 -0.608712 -0.351978
-0.192072 -0.608701 -0.351765
-0.160340 -0.608617 -0.350114
0.046975 -0.608452 -0.346632
0.191978 -0.608192 -0.340961
0.263493 -0.607795 -0.332787
0.317526 -0.607229 -0.321632
0.360531 -0.606506 -0.306877
0.395518 -0.605592 -0.287734
0.424411 -0.604481 -0.262756
0.449103 -0.603118 -0.229163
0.471410 -0.601538 -0.180089
0.492421 -0.599679 -0.076512
0.512935 -0.597474 0.167696
0.529378 -0.594988 0.234131
0.541180 -0.591530 0.294295
-0.039888 -0.022411 0.127623
0.025595 -0.021952 0.128131
0.118582 -0.012784 0.133435
0.185517 0.024210 0.143579
0.244326 0.038375 0.158281
0.295144 0.051217 0.176761
0.338508 0.063588 0.197660
0.375222 0.075784 0.220040
0.406144 0.087954 0.243365
0.432507 0.100185 0.267257
0.455534 0.112477 0.291394
0.476714 0.124911 0.315784
0.496934 0.137459 0.340177
0.516627 0.150150 0.364632
0.534937 0.162896 0.388415
0.551415 0.180060 0.418965
0.023527 0.089422 0.144995
0.047679 0.089614 0.145024
0.122590 0.090695 0.149761
0.187462 0.092861 0.158659
0.245444 0.096273 0.171564
0.295851 0.101008 0.188150
0.338982 0.106943 0.207419
0.375546 0.113926 0.228413
0.406428 0.121806 0.250546
0.432678 0.130484 0.273475
0.455648 0.139801 0.296899
0.476838 0.149718 0.320641
0.497001 0.160096 0.344400
0.516716 0.170928 0.368418
0.535018 0.182154 0.391899
0.551428 0.197478 0.421796
0.062459 0.151672 0.174392
0.071629 0.151909 0.173991
0.130336 0.152451 0.177623
0.191619 0.153706 0.184883
0.247826 0.155532 0.195362
0.297330 0.158250 0.209235
0.339993 0.161807 0.225833
0.376185 0.166207 0.244464
0.406901 0.171398 0.264597
0.433018 0.177393 0.285817
0.455914 0.184112 0.307739
0.477084 0.191495 0.330270
0.497198 0.199512 0.353012
0.516874 0.208156 0.376053
0.535144 0.217289 0.398626
0.551504 0.230095 0.427583
0.090221 0.214677 0.210224
0.095444 0.214888 0.209542
0.141631 0.215259 0.212364
0.197843 0.216080 0.217899
0.251649 0.217490 0.226482
0.299782 0.219256 0.237687
0.341583 0.221720 0.251517
0.377302 0.224839 0.267464
0.407674 0.228583 0.285136
0.433585 0.232954 0.304117
0.456367 0.237952 0.324148
0.477442 0.243619 0.345029
0.497559 0.249848 0.366377
0.517163 0.256740 0.387771
0.535318 0.264012 0.409145
0.551632 0.274569 0.436678
0.115497 0.279812 0.249165
0.119016 0.279979 0.248503
0.155810 0.280241 0.250684
0.206144 0.280900 0.254966
0.256723 0.281944 0.261706
0.303139 0.283390 0.270874
0.343857 0.285193 0.282256
0.378856 0.287517 0.295710
0.408772 0.290410 0.310900
0.434380 0.293890 0.327575
0.457012 0.297727 0.345453
0.477970 0.302260 0.364362
0.497977 0.307253 0.383752
0.517545 0.312788 0.403417
0.535599 0.318715 0.423117
0.551867 0.327469 0.448884
0.139558 0.347249 0.289321
0.142131 0.347460 0.288800
0.171948 0.347567 0.290550
0.216377 0.348177 0.293962
0.263172 0.348867 0.299346
0.307417 0.350057 0.306767
0.346771 0.351760 0.316202
0.380850 0.353500 0.327498
0.410163 0.355878 0.340436
0.435437 0.358625 0.355018
0.457831 0.361804 0.370767
0.478591 0.365524 0.387423
0.498585 0.369614 0.404629
0.518003 0.374329 0.422380
0.535972 0.379342 0.440308
0.552256 0.386708 0.464037
0.162783 0.417609 0.329982
0.164772 0.417767 0.329446
0.189370 0.417863 0.330931
0.227993 0.418311 0.333685
0.270916 0.419058 0.338101
0.312546 0.420008 0.344209
0.350232 0.421313 0.352124
0.383345 0.422937 0.361736
0.411946 0.424894 0.372825
0.436782 0.427241 0.385179
0.458882 0.429958 0.398616
0.479484 0.433041 0.413037
0.499320 0.436616 0.428165
0.518651 0.440556 0.443995
0.536380 0.444881 0.460065
0.552653 0.451236 0.481611
0.185411 0.490950 0.370717
0.187067 0.490969 0.370201
0.207257 0.491181 0.371415
0.240747 0.491524 0.373700
0.279708 0.492104 0.377362
0.318584 0.492950 0.382380
0.354377 0.494077 0.388849
0.386277 0.495493 0.396762
0.414039 0.497187 0.405994
0.438379 0.499254 0.416412
0.460098 0.501591 0.427869
0.480586 0.504355 0.440357
0.500258 0.507364 0.453563
0.519447 0.510772 0.467509
0.536898 0.514490 0.481793
0.553419 0.520132 0.501140
0.207255 0.566907 0.410069
0.208581 0.566950 0.409742
0.225266 0.567081 0.410611
0.254236 0.567397 0.412493
0.289310 0.567947 0.415417
0.325352 0.568650 0.419513
0.359164 0.569681 0.424921
0.389639 0.570870 0.431498
0.416478 0.572417 0.439161
0.440226 0.574195 0.448057
0.461581 0.576317 0.457861
0.481806 0.578608 0.468583
0.501286 0.581280 0.480025
0.520349 0.584344 0.492240
0.537454 0.587760 0.504860
0.554291 0.592627 0.522064
0.228024 0.645225 0.447644
0.229057 0.645294 0.447285
0.243082 0.645410 0.448076
0.268198 0.645661 0.449601
0.299620 0.646130 0.452032
0.332706 0.646754 0.455478
0.364392 0.647685 0.459912
0.393470 0.648772 0.465409
0.419298 0.650113 0.471912
0.442334 0.651743 0.479389
0.463291 0.653574 0.487791
0.483240 0.655723 0.497017
0.502549 0.658143 0.506902
0.521409 0.660742 0.517524
0.538001 0.663829 0.528583
0.555631 0.668218 0.543775
0.247939 0.726021 0.483540
0.248780 0.726162 0.483196
0.260602 0.726328 0.483837
0.282350 0.726390 0.485112
0.310395 0.726974 0.487142
0.340565 0.727571 0.489972
0.370220 0.728290 0.493753
0.397623 0.729135 0.498323
0.422386 0.730547 0.503847
0.444727 0.731973 0.510173
0.465253 0.733446 0.517322
0.484894 0.735692 0.525265
0.503976 0.737734 0.533779
0.522607 0.740208 0.542927
0.538454 0.742713 0.552599
0.557686 0.746714 0.565931
0.266855 0.808682 0.517307
0.267522 0.808479 0.517009
0.277601 0.808651 0.517536
0.296441 0.808851 0.518632
0.321363 0.809418 0.520344
0.348761 0.809749 0.522689
0.376252 0.810564 0.525871
0.402127 0.811469 0.529726
0.425765 0.812615 0.534326
0.447340 0.813801 0.539692
0.467411 0.815284 0.545874
0.486677 0.816966 0.552673
0.505599 0.819110 0.559947
0.523976 0.821162 0.567945
0.538794 0.823680 0.576288
0.560616 0.827288 0.587999
0.284877 0.896771 0.549302
0.285493 0.896840 0.549068
0.294087 0.896982 0.549480
0.310441 0.897222 0.550350
0.332503 0.897510 0.551752
0.357357 0.898199 0.553826
0.382706 0.898818 0.556401
0.407002 0.899660 0.559723
0.429452 0.900758 0.563689
0.450224 0.902103 0.568180
0.469771 0.903815 0.573392
0.488739 0.905530 0.579150
0.507312 0.907632 0.585513
0.525525 0.909981 0.592389
0.538561 0.912531 0.599598
0.565209 0.915920 0.609698
0.301977 0.984544 0.579003
0.302389 0.984562 0.578711
0.309776 0.984592 0.579113
0.323992 0.984737 0.579914
0.343492 0.984813 0.581071
0.366017 0.985224 0.582742
0.389305 0.985574 0.584956
0.412028 0.985962 0.587775
0.433357 0.986411 0.591064
0.453325 0.987056 0.594982
0.472346 0.987702 0.599398
0.490934 0.988455 0.604364
0.509269 0.989272 0.609782
0.527111 0.990292 0.615553
0.536882 0.991193 0.621902
0.572637 0.992602 0.630686
0.359450 1.122772 0.676765
0.359074 1.122766 0.676408
0.362887 1.122731 0.676600
0.370833 1.122728 0.676911
0.382586 1.122661 0.677533
0.397352 1.122565 0.678378
0.413781 1.122480 0.679408
0.430883 1.122389 0.680730
0.448021 1.122327 0.682350
0.464991 1.122156 0.684180
0.481944 1.122031 0.686454
0.499147 1.121803 0.688796
0.516263 1.121571 0.691465
0.532967 1.121243 0.694610
0.540273 1.120916 0.697744
0.611286 1.120691 0.703290
-0.195542 -0.608683 -0.274693
-0.191696 -0.608672 -0.274390
-0.159910 -0.608587 -0.272227
0.049294 -0.608437 -0.267649
0.192229 -0.608157 -0.260041
0.263638 -0.607761 -0.248768
0.317618 -0.607214 -0.232739
0.360628 -0.606472 -0.210148
0.395568 -0.605575 -0.177159
0.424459 -0.604444 -0.121396
0.449134 -0.603098 0.104793
0.471437 -0.601500 0.182060
0.492442 -0.599592 0.232824
0.512954 -0.597430 0.274776
0.529444 -0.594962 0.311459
0.541391 -0.591485 0.352447
-0.037391 -0.019626 0.250044
0.028331 -0.019964 0.250421
0.119078 -0.004091 0.252454
0.185702 0.026501 0.256530
0.244399 0.039905 0.263020
0.295166 0.052467 0.272096
0.338556 0.064669 0.283490
0.375214 0.076728 0.296899
0.406177 0.088795 0.312057
0.432503 0.100945 0.328672
0.455543 0.113180 0.346578
0.476728 0.125555 0.365400
0.496944 0.138083 0.384637
0.516638 0.150742 0.404314
0.534948 0.163497 0.423958
0.551426 0.180591 0.449700
0.027781 0.089841 0.256761
0.049585 0.090010 0.257256
0.122907 0.090859 0.259066
0.187676 0.093055 0.263060
0.245789 0.096037 0.268292
0.296146 0.100412 0.276185
0.339167 0.106214 0.286854
0.375659 0.113075 0.299583
0.406484 0.120892 0.314234
0.432752 0.129482 0.330347
0.455698 0.138742 0.347705
0.476858 0.148613 0.366176
0.497017 0.158926 0.385065
0.516744 0.169746 0.404424
0.535030 0.180852 0.423689
0.551427 0.196114 0.449120
0.063617 0.151889 0.270316
0.072883 0.152020 0.270694
0.129853 0.152951 0.271095
0.192273 0.154196 0.275328
0.248128 0.155670 0.281575
0.297613 0.158205 0.288791
0.340180 0.161632 0.298734
0.376339 0.165918 0.310770
0.406975 0.171047 0.324688
0.433093 0.176955 0.340067
0.455955 0.183591 0.356826
0.477100 0.190931 0.374410
0.497243 0.198878 0.392574
0.516870 0.207439 0.411318
0.535172 0.216503 0.430046
0.551505 0.229265 0.454714
0.090868 0.214828 0.290295
0.096453 0.214936 0.290478
0.140678 0.215927 0.289814
0.197913 0.216668 0.293644
0.252267 0.218148 0.299179
0.300055 0.219383 0.307020
0.341758 0.221711 0.316036
0.377453 0.224750 0.326984
0.407752 0.228363 0.339828
0.433641 0.232673 0.354159
0.456416 0.237645 0.369771
0.477472 0.243183 0.386293
0.497521 0.249399 0.403434
0.517160 0.256105 0.421109
0.535332 0.263456 0.438990
0.551635 0.273875 0.462605
0.115959 0.279935 0.315401
0.119796 0.279992 0.315458
0.154885 0.280865 0.314638
0.206017 0.281361 0.318067
0.256875 0.282411 0.322858
0.303599 0.284027 0.329510
0.344035 0.285325 0.338055
0.378965 0.287573 0.348100
0.408830 0.290371 0.359729
0.434455 0.293737 0.372798
0.457047 0.297548 0.386946
0.477972 0.301954 0.402072
0.497990 0.306886 0.417889
0.517538 0.312280 0.434354
0.535584 0.318312 0.451053
0.551871 0.326900 0.473352
0.139902 0.347339 0.344399
0.142764 0.347440 0.344484
0.171200 0.348059 0.343649
0.216184 0.348576 0.346601
0.263186 0.349263 0.350792
0.307537 0.350582 0.356653
0.347061 0.352212 0.364094
0.380991 0.353703 0.372925
0.410252 0.356024 0.383350
0.435499 0.358608 0.394850
0.457886 0.361696 0.407492
0.478678 0.365365 0.421110
0.498609 0.369405 0.435564
0.518028 0.373977 0.450621
0.535985 0.378968 0.466058
0.552259 0.386224 0.486710
0.163057 0.417688 0.376057
0.165254 0.417713 0.376102
0.188693 0.418263 0.375273
0.227743 0.418661 0.377851
0.270819 0.419330 0.381432
0.312618 0.420359 0.386343
0.350324 0.421641 0.392750
0.383546 0.423333 0.400497
0.412043 0.425042 0.409321
0.436841 0.427247 0.419618
0.458915 0.429911 0.430814
0.479522 0.432951 0.442915
0.499320 0.436460 0.455807
0.518679 0.440302 0.469417
0.536393 0.444567 0.483471
0.552655 0.450867 0.502382
0.185656 0.490918 0.408760
0.187497 0.491011 0.408733
0.206661 0.491494 0.407940
0.240471 0.491749 0.410188
0.279584 0.492369 0.413094
0.318544 0.493215 0.417372
0.354398 0.494319 0.422686
0.386372 0.495732 0.429416
0.414203 0.497560 0.437261
0.438409 0.499369 0.445963
0.460147 0.501631 0.455837
0.480523 0.504256 0.466577
0.500281 0.507148 0.478015
0.519463 0.510610 0.490192
0.536918 0.514327 0.502785
0.553383 0.519770 0.520049
0.207427 0.566961 0.441556
0.208923 0.566953 0.441592
0.224684 0.567363 0.440746
0.253955 0.567635 0.442616
0.289163 0.568185 0.445139
0.325270 0.568910 0.448716
0.359158 0.569946 0.453318
0.389661 0.571146 0.458997
0.416569 0.572651 0.465740
0.440303 0.574486 0.473540
0.461672 0.576380 0.481978
0.481840 0.578684 0.491432
0.501332 0.581248 0.501524
0.520344 0.584249 0.512267
0.537477 0.587515 0.523508
0.554268 0.592386 0.538990
0.228202 0.645273 0.473932
0.229372 0.645309 0.473951
0.242520 0.645665 0.473100
0.267897 0.645924 0.474705
0.299439 0.646334 0.476865
0.332609 0.646902 0.479882
0.364341 0.647889 0.483790
0.393454 0.648918 0.488665
0.419314 0.650270 0.494466
0.442356 0.651810 0.501144
0.463378 0.653901 0.508704
0.483335 0.655685 0.516789
0.502567 0.658153 0.525613
0.521439 0.660770 0.535139
0.538017 0.663626 0.545149
0.555652 0.667990 0.558816
0.248058 0.726141 0.505570
0.249068 0.726304 0.505554
0.260056 0.726306 0.504696
0.282077 0.726465 0.506113
0.310174 0.726999 0.507904
0.340436 0.727589 0.510496
0.370112 0.728512 0.513816
0.397591 0.729272 0.518003
0.422415 0.730681 0.522947
0.444738 0.732084 0.528682
0.465243 0.733814 0.535146
0.484974 0.735900 0.542403
0.503987 0.737617 0.549980
0.522636 0.740156 0.558322
0.538464 0.742805 0.567118
0.557702 0.746554 0.579285
0.266932 0.808505 0.535860
0.267779 0.808546 0.535848
0.277043 0.808792 0.535026
0.296112 0.809058 0.536161
0.321091 0.809315 0.537731
0.348620 0.809963 0.539982
0.376186 0.810693 0.542763
0.402063 0.811567 0.546312
0.425783 0.812745 0.550580
0.447324 0.813972 0.555483
0.467415 0.815422 0.561074
0.486727 0.817119 0.567341
0.505583 0.819228 0.574162
0.524013 0.821172 0.581321
0.538804 0.823630 0.589010
0.560642 0.827153 0.599686
0.285006 0.896791 0.564947
0.285682 0.896839 0.564896
0.293553 0.896975 0.564088
0.310140 0.897317 0.565092
0.332262 0.897601 0.566448
0.357184 0.898206 0.568276
0.382581 0.898885 0.570720
0.406888 0.899744 0.573720
0.429431 0.900822 0.577387
0.450208 0.902269 0.581530
0.469748 0.903771 0.586370
0.488735 0.905645 0.591781
0.507333 0.907772 0.597619
0.525487 0.910021 0.604034
0.538571 0.912607 0.610670
0.565237 0.915880 0.620002
0.302023 0.984595 0.592215
0.302602 0.984610 0.592185
0.309273 0.984669 0.591319
0.323669 0.984730 0.592283
0.343223 0.984886 0.593360
0.365808 0.985166 0.594974
0.389241 0.985443 0.597038
0.411932 0.986034 0.599670
0.433283 0.986462 0.602697
0.453290 0.987111 0.606213
0.472329 0.987765 0.610463
0.490899 0.988508 0.615002
0.509254 0.989342 0.620007
0.527123 0.990171 0.625554
0.536829 0.991172 0.631494
0.572671 0.992607 0.639615
0.359432 1.122744 0.677261
0.359208 1.122735 0.677233
0.362308 1.122726 0.676265
0.370418 1.122693 0.676762
0.382240 1.122656 0.677329
0.397092 1.122564 0.678092
0.413604 1.122482 0.679112
0.430727 1.122359 0.680460
0.447924 1.122293 0.682109
0.464925 1.122145 0.684125
0.481907 1.122017 0.686282
0.499156 1.121789 0.688729
0.516265 1.121562 0.691563
0.532932 1.121242 0.694592
0.540234 1.120915 0.697831
0.611655 1.120686 0.703373
-0.194904 -0.608611 0.200634
-0.191027 -0.608600 0.201264
-0.158913 -0.608522 0.204768
0.053991 -0.608372 0.210906
0.192894 -0.608092 0.220052
0.263967 -0.607671 0.232186
0.317792 -0.607120 0.246799
0.360751 -0.606398 0.263380
0.395655 -0.605499 0.281660
0.424530 -0.604348 0.301172
0.449182 -0.603024 0.321470
0.471451 -0.601415 0.342427
0.492486 -0.599531 0.363550
0.512993 -0.597356 0.384938
0.529452 -0.594860 0.406114
0.541343 -0.591400 0.432350
-0.031443 -0.010625 0.366303
0.033786 -0.013316 0.366672
0.119851 0.017092 0.367618
0.186164 0.030693 0.369947
0.244649 0.042309 0.373530
0.295296 0.054109 0.378595
0.338667 0.065887 0.385130
0.375290 0.077703 0.393188
0.406255 0.089612 0.402652
0.432534 0.101641 0.413278
0.455582 0.113791 0.424993
0.476728 0.126110 0.437681
0.496979 0.138540 0.451120
0.516634 0.151174 0.465252
0.534980 0.163903 0.479775
0.551405 0.180948 0.499344
0.034429 0.090666 0.369901
0.052439 0.090721 0.370227
0.122516 0.090612 0.371850
0.188548 0.093146 0.374250
0.246131 0.096588 0.376894
0.296310 0.101133 0.381475
0.339311 0.107051 0.387728
0.375684 0.114004 0.395441
0.406522 0.121855 0.404596
0.432746 0.130477 0.414952
0.455717 0.139745 0.426467
0.476882 0.149601 0.438972
0.497042 0.159929 0.452152
0.516738 0.170736 0.466096
0.535018 0.181886 0.480389
0.551409 0.197099 0.499728
0.065892 0.152327 0.377460
0.074864 0.152521 0.377825
0.130929 0.153479 0.379753
0.192184 0.153951 0.381039
0.248213 0.155911 0.384564
0.297852 0.158284 0.388333
0.340449 0.161410 0.393593
0.376552 0.165405 0.400513
0.407164 0.170274 0.408874
0.433199 0.175986 0.418592
0.456041 0.182409 0.429390
0.477169 0.189535 0.441177
0.497307 0.197306 0.453809
0.516891 0.205686 0.467148
0.535142 0.214565 0.480957
0.551513 0.227135 0.499698
0.092201 0.215096 0.389186
0.097677 0.215239 0.389309
0.141761 0.216135 0.390437
0.196888 0.217289 0.389924
0.253075 0.218765 0.393784
0.300215 0.219531 0.400200
0.342000 0.221843 0.404840
0.377617 0.224640 0.411300
0.407858 0.228132 0.419274
0.433752 0.232272 0.428576
0.456513 0.237075 0.438975
0.477553 0.242534 0.450291
0.497548 0.248526 0.462430
0.517154 0.255194 0.475320
0.535361 0.262309 0.488627
0.551638 0.272563 0.506735
0.116897 0.280139 0.404760
0.120693 0.280216 0.404789
0.155912 0.280955 0.405437
0.204770 0.282181 0.404363
0.256943 0.283155 0.408035
0.304258 0.284813 0.412241
0.344260 0.285508 0.419177
0.379148 0.287733 0.425527
0.409014 0.290320 0.432736
0.434565 0.293532 0.441342
0.457116 0.297246 0.451058
0.478045 0.301506 0.461732
0.498054 0.306231 0.473189
0.517589 0.311636 0.485398
0.535613 0.317392 0.498018
0.551878 0.325874 0.515247
0.140610 0.347522 0.423598
0.143430 0.347546 0.423643
0.172094 0.348153 0.423951
0.215054 0.349308 0.422983
0.263021 0.350027 0.426366
0.307744 0.351195 0.430255
0.347505 0.352971 0.435372
0.381227 0.353876 0.441765
0.410388 0.356006 0.449446
0.435621 0.358517 0.457172
0.457939 0.361581 0.466094
0.478751 0.364974 0.475963
0.498630 0.368979 0.486586
0.518042 0.373401 0.497978
0.535974 0.378292 0.509860
0.552270 0.385394 0.526084
0.163575 0.417826 0.445048
0.165820 0.417875 0.445081
0.189489 0.418316 0.445243
0.226740 0.419315 0.444297
