res/LUTs/EdgeLord.cube
LUT_3D_SIZE 6
-0.039205 -0.041582 -0.022005
0.166251 0.039677 0.052570
0.344408 0.107537 0.113182
0.517688 0.166587 0.172006
0.688874 0.224221 0.230486
0.874273 0.287827 0.295600
0.078989 0.186743 0.090322
0.179113 0.190713 0.101037
0.349140 0.207902 0.137877
0.520365 0.237934 0.187028
0.690468 0.277191 0.240886
0.875378 0.327641 0.303050
0.172380 0.389320 0.189168
0.226939 0.390759 0.193239
0.370204 0.397404 0.211097
0.532628 0.410528 0.242192
0.698672 0.430349 0.282821
0.881027 0.459763 0.335097
0.261215 0.588516 0.286722
0.295200 0.589305 0.289023
0.408745 0.593088 0.299684
0.556485 0.600704 0.319873
0.714887 0.612499 0.349137
0.892280 0.630958 0.389973
0.348596 0.786916 0.384280
0.372057 0.787485 0.385863
0.461399 0.789951 0.393090
0.591733 0.795010 0.407460
0.739909 0.803222 0.428881
0.910181 0.815952 0.460661
0.497046 1.096973 0.550248
0.511424 1.097022 0.551242
0.572582 1.097315 0.555764
0.674664 1.098053 0.564815
0.801482 1.099730 0.578933
0.989963 1.105608 0.600602
-0.271282 -0.600444 -0.244938
-0.230413 -0.599502 -0.241609
0.246876 -0.595245 -0.227188
0.470467 -0.586379 -0.192843
0.658737 -0.572061 -0.103826
0.848061 -0.549480 0.194907
0.083237 0.188174 0.200753
0.180481 0.191901 0.204730
0.350117 0.208079 0.220211
0.520979 0.237024 0.248714
0.690838 0.275603 0.287231
0.875485 0.325394 0.337573
0.173835 0.389896 0.252050
0.226414 0.392217 0.253375
0.371830 0.399086 0.266414
0.533208 0.410686 0.289569
0.699071 0.429910 0.321813
0.881128 0.458802 0.366065
0.262038 0.588821 0.326755
0.294586 0.590072 0.327315
0.408952 0.593795 0.336633
0.557252 0.601566 0.354270
0.715311 0.612536 0.379475
0.892388 0.630563 0.415717
0.349183 0.787028 0.412395
0.371243 0.787772 0.412308
0.461127 0.790277 0.419174
0.591846 0.795534 0.432343
0.740216 0.803589 0.452415
0.910157 0.815731 0.481484
0.497302 1.096928 0.563048
0.510157 1.096950 0.562260
0.571780 1.097274 0.566841
0.674114 1.098060 0.575658
0.801199 1.099779 0.589411
0.991058 1.105806 0.610635
-0.267606 -0.598932 0.290299
-0.225148 -0.597965 0.293400
0.252979 -0.593657 0.305661
0.472925 -0.584787 0.325359
0.660269 -0.570446 0.354173
0.848500 -0.547872 0.394336
0.098544 0.194494 0.382802
0.183219 0.195146 0.385161
0.352735 0.212780 0.392569
0.522140 0.241772 0.405502
0.691662 0.279768 0.426630
0.876108 0.328910 0.458049
0.179759 0.392142 0.406762
0.231132 0.394606 0.409290
0.372939 0.399910 0.414915
0.534539 0.412552 0.427633
0.700032 0.430001 0.445568
0.881444 0.456307 0.472604
0.265394 0.590074 0.450473
0.297764 0.591315 0.451517
0.408276 0.596017 0.454814
0.559813 0.604135 0.467144
0.716228 0.613405 0.485249
0.892788 0.629607 0.509430
0.351413 0.787995 0.510330
0.373553 0.788650 0.510794
0.459584 0.791619 0.512335
0.592002 0.796758 0.522872
0.741780 0.805378 0.538908
0.910680 0.815622 0.561368
0.498519 1.096984 0.625628
0.511548 1.096993 0.625257
0.568433 1.097246 0.624073
0.672292 1.097985 0.632186
0.800559 1.099844 0.644386
0.993532 1.106288 0.663489
-0.260152 -0.595885 0.534519
-0.215652 -0.594942 0.535878
0.261585 -0.590567 0.541676
0.477280 -0.581628 0.552061
0.662491 -0.567217 0.566533
0.849161 -0.544770 0.588701
0.122074 0.206397 0.572339
0.193573 0.206277 0.573527
0.355838 0.222837 0.577747
0.524876 0.250636 0.586484
0.693426 0.287061 0.599067
0.877282 0.334789 0.619267
0.191049 0.396790 0.586494
0.238402 0.397704 0.587686
0.372771 0.400162 0.592315
0.537923 0.414015 0.601175
0.701676 0.433268 0.611449
0.882531 0.459949 0.629429
0.272035 0.592726 0.614113
0.303526 0.594070 0.615495
0.412647 0.598999 0.620644
0.560422 0.604576 0.626578
0.717764 0.616300 0.638588
0.893762 0.631582 0.654505
0.355849 0.789606 0.655248
0.377685 0.790377 0.655686
0.463078 0.793562 0.658165
0.592176 0.798787 0.663264
0.744020 0.807658 0.675185
0.911912 0.817303 0.693110
0.501040 1.097139 0.736133
0.514002 1.097199 0.735918
0.570852 1.097443 0.735969
0.670247 1.098170 0.737877
0.800172 1.100148 0.748155
1.000152 1.107845 0.764181
-0.247871 -0.591004 0.746704
-0.199539 -0.590031 0.747138
0.272536 -0.585635 0.750913
0.482491 -0.576635 0.757590
0.666006 -0.562156 0.767609
0.849267 -0.540377 0.782506
0.150030 0.223657 0.764742
0.208633 0.222476 0.765314
0.362328 0.237736 0.768156
0.528190 0.263322 0.774140
0.696031 0.298312 0.783313
0.879154 0.343961 0.797458
0.207377 0.404033 0.774190
0.249954 0.404359 0.774844
0.377159 0.404915 0.777897
0.538685 0.418712 0.783727
0.704636 0.438390 0.793361
0.884407 0.465417 0.805259
0.282174 0.596869 0.793607
0.311676 0.597363 0.794253
0.415911 0.599723 0.797349
0.559630 0.604205 0.802950
0.721033 0.616587 0.812417
0.895380 0.633537 0.822785
0.362858 0.792455 0.823294
0.384257 0.793346 0.824212
0.468164 0.796442 0.827469
0.596236 0.802153 0.833593
0.745070 0.808749 0.840513
0.914391 0.821067 0.853356
0.505144 1.097426 0.879383
0.517932 1.097516 0.879587
0.574291 1.097780 0.880369
0.673075 1.098644 0.883157
0.801738 1.101053 0.890562
1.015151 1.111510 0.903088
-0.229014 -0.584019 0.953388
-0.173180 -0.583029 0.953964
0.287149 -0.578595 0.956158
0.489142 -0.569488 0.960542
0.669938 -0.555136 0.966831
0.841848 -0.539020 0.975262
0.180294 0.245335 0.959951
0.227652 0.242962 0.960182
0.371394 0.256933 0.962195
0.533461 0.280131 0.966004
0.699461 0.312472 0.971737
0.881797 0.356335 0.979508
0.227808 0.414006 0.966370
0.265252 0.413800 0.966650
0.383465 0.411875 0.968013
0.542159 0.425749 0.971574
0.706115 0.444765 0.976637
0.887047 0.473090 0.983488
0.295801 0.602754 0.977599
0.322952 0.602792 0.977688
0.421641 0.603283 0.978932
0.561003 0.605655 0.981298
0.720304 0.618037 0.985210
0.898138 0.636542 0.990510
0.372551 0.796497 0.990291
0.392559 0.796782 0.990487
0.472589 0.797848 0.991189
0.596837 0.801070 0.992727
0.744858 0.808888 0.994944
0.917361 0.821474 0.997638
0.462147 0.983543 0.999470
0.477189 0.983787 0.999533
0.540970 0.984688 0.999677
0.647972 0.986551 0.999942
0.782340 0.990796 1.000153
1.049930 1.019694 1.000094
