res/LUTs/EdgeLord.cube
LUT_3D_SIZE 16
-0.039205 -0.041582 -0.022005
-0.022232 -0.040860 -0.020098
0.102527 -0.027526 0.029435
0.166251 0.039677 0.052570
0.226735 0.065243 0.073322
0.285914 0.087013 0.093399
0.344408 0.107537 0.113182
0.402382 0.127485 0.132839
0.460107 0.147137 0.152434
0.517688 0.166587 0.172006
0.574943 0.185863 0.191516
0.632220 0.205142 0.211065
0.688874 0.224221 0.230486
0.745387 0.243448 0.250116
0.801319 0.262477 0.269595
0.874273 0.287827 0.295600
-0.036784 -0.020519 -0.014118
-0.015985 -0.018463 -0.009953
0.103104 0.029696 0.033118
0.166511 0.052002 0.054326
0.226937 0.072256 0.074438
0.286052 0.091869 0.094199
0.344431 0.111222 0.113807
0.402430 0.130406 0.133344
0.460199 0.149525 0.152848
0.517708 0.168601 0.172334
0.575007 0.187626 0.191771
0.632229 0.206667 0.211317
0.688775 0.225614 0.230742
0.745503 0.244645 0.250324
0.801165 0.263540 0.269776
0.874389 0.288771 0.295724
0.041149 0.115145 0.055317
0.050750 0.115335 0.055818
0.110965 0.117739 0.062319
0.170632 0.122697 0.073820
0.229613 0.130216 0.088411
0.288000 0.139986 0.104794
0.345955 0.151659 0.122164
0.403586 0.164852 0.140144
0.461184 0.179181 0.158540
0.518553 0.194411 0.177200
0.575703 0.210328 0.196004
0.632716 0.226793 0.215006
0.689490 0.243646 0.233998
0.745952 0.260881 0.253255
0.801673 0.278322 0.272400
0.874803 0.301842 0.298129
0.078989 0.186743 0.090322
0.083291 0.186838 0.090563
0.125625 0.188054 0.094066
0.179113 0.190713 0.101037
0.235243 0.194862 0.111095
0.292060 0.200622 0.123591
0.349140 0.207902 0.137877
0.406131 0.216635 0.153430
0.463278 0.226662 0.169908
0.520365 0.237934 0.187028
0.577302 0.250191 0.204666
0.634158 0.263357 0.222646
0.690468 0.277191 0.240886
0.746949 0.291818 0.259402
0.802577 0.306892 0.278016
0.875378 0.327641 0.303050
0.111317 0.255166 0.123684
0.114013 0.255217 0.123866
0.145286 0.256010 0.126139
0.191685 0.257727 0.130912
0.243979 0.260500 0.138143
0.298588 0.264340 0.147669
0.354097 0.269383 0.159125
0.410216 0.275510 0.172127
0.466680 0.282869 0.186413
0.523261 0.291184 0.201700
0.579725 0.300544 0.217703
0.636283 0.310847 0.234354
0.692372 0.322015 0.251432
0.748788 0.333949 0.269007
0.804151 0.346569 0.286752
0.876820 0.364327 0.310888
0.142169 0.322475 0.156527
0.144107 0.322517 0.156623
0.168148 0.323102 0.158331
0.207885 0.324359 0.161815
0.255736 0.326360 0.167284
0.307495 0.329196 0.174679
0.361248 0.332961 0.183930
0.415968 0.337539 0.194758
0.471413 0.343082 0.206973
0.527313 0.349502 0.220313
0.583225 0.356788 0.234650
0.639351 0.365001 0.249817
0.695244 0.373982 0.265545
0.751119 0.383854 0.281949
0.806200 0.394148 0.298647
0.878652 0.409164 0.321538
0.172380 0.389320 0.189168
0.173805 0.389333 0.189253
0.192983 0.389844 0.190535
0.226939 0.390759 0.193239
0.270254 0.392337 0.197565
0.318797 0.394494 0.203537
0.370204 0.397404 0.211097
0.423397 0.401006 0.220141
0.477673 0.405412 0.230544
0.532628 0.410528 0.242192
0.587791 0.416423 0.254865
0.643435 0.422969 0.268495
0.698672 0.430349 0.282821
0.754220 0.438424 0.297941
0.809169 0.447128 0.313533
0.881027 0.459763 0.335097
0.202181 0.455849 0.221674
0.203341 0.455918 0.221742
0.218996 0.456234 0.222776
0.248213 0.457026 0.224997
0.287169 0.458262 0.228535
0.332302 0.460012 0.233375
0.381253 0.462388 0.239694
0.432517 0.465276 0.247357
0.485422 0.468854 0.256298
0.539258 0.473045 0.266442
0.593574 0.477873 0.277636
0.648398 0.483341 0.289827
0.703173 0.489475 0.302808
0.758247 0.496229 0.316676
0.812674 0.503592 0.331068
0.884185 0.514332 0.351186
0.231793 0.522272 0.254187
0.232730 0.522265 0.254246
0.245847 0.522625 0.255102
0.271094 0.523116 0.256933
0.306095 0.524161 0.259885
0.347834 0.525698 0.264002
0.394114 0.527616 0.269364
0.443375 0.530100 0.275899
0.494596 0.533029 0.283665
0.547169 0.536508 0.292477
0.600557 0.540611 0.302424
0.654487 0.545265 0.313259
0.708531 0.550381 0.325049
0.762974 0.556211 0.337681
0.817010 0.562404 0.350897
0.888041 0.571711 0.369568
0.261215 0.588516 0.286722
0.261979 0.588527 0.286777
0.273171 0.588791 0.287501
0.295200 0.589305 0.289023
0.326683 0.590180 0.291543
0.365237 0.591444 0.295072
0.408745 0.593088 0.299684
0.455808 0.595171 0.305343
0.505299 0.597678 0.312152
0.556485 0.600704 0.319873
0.608572 0.604130 0.328743
0.661648 0.608134 0.338551
0.714887 0.612499 0.349137
0.768722 0.617496 0.360611
0.822051 0.622977 0.372831
0.892280 0.630958 0.389973
0.290402 0.654562 0.319172
0.291128 0.654664 0.319248
0.300827 0.654817 0.319839
0.320216 0.655338 0.321214
0.348569 0.656043 0.323398
0.383958 0.657126 0.326418
0.424956 0.658577 0.330447
0.469753 0.660265 0.335445
0.517336 0.662570 0.341377
0.566998 0.665068 0.348362
0.617931 0.668120 0.356147
0.669909 0.671686 0.364954
0.722284 0.675522 0.374554
0.775338 0.679938 0.385071
0.827979 0.684547 0.396186
0.897453 0.691700 0.412244
0.319648 0.720952 0.351784
0.320258 0.721021 0.351784
0.328688 0.721112 0.352391
0.345952 0.721461 0.353583
0.371557 0.722000 0.355510
0.404205 0.723119 0.358174
0.442538 0.724237 0.361704
0.485159 0.725881 0.366127
0.530871 0.727755 0.371412
0.578801 0.730198 0.377719
0.628347 0.732802 0.384728
0.679302 0.735903 0.392653
0.730478 0.739088 0.401386
0.782730 0.742999 0.410920
0.834627 0.747416 0.421074
0.903076 0.753460 0.435787
0.348596 0.786916 0.384280
0.349178 0.786968 0.384305
0.356608 0.787032 0.384871
0.372057 0.787485 0.385863
0.395322 0.788089 0.387569
0.425519 0.788973 0.389929
0.461399 0.789951 0.393090
0.501732 0.791435 0.397094
0.545465 0.793060 0.401822
0.591733 0.795010 0.407460
0.639927 0.797364 0.413758
0.689531 0.800127 0.420959
0.739909 0.803222 0.428881
0.791089 0.806688 0.437622
0.841845 0.810325 0.447058
0.910181 0.815952 0.460661
0.377693 0.853426 0.417063
0.378143 0.853491 0.417027
0.384831 0.853500 0.417535
0.398766 0.853924 0.418392
0.419922 0.854429 0.419958
0.447866 0.855177 0.422150
0.481412 0.856212 0.424976
0.519570 0.857441 0.428529
0.561369 0.859111 0.432850
0.605996 0.861011 0.437805
0.652684 0.863252 0.443644
0.700838 0.865574 0.450167
0.750001 0.868571 0.457444
0.800328 0.871864 0.465439
0.849371 0.875288 0.474084
0.919503 0.880639 0.486734
0.406474 0.926702 0.449558
0.406972 0.926703 0.449589
0.412996 0.926895 0.449978
0.425624 0.927143 0.450862
0.445053 0.927777 0.452202
0.470848 0.928504 0.454130
0.502253 0.929396 0.456721
0.538340 0.930463 0.459933
0.578193 0.931909 0.463819
0.621170 0.933517 0.468417
0.666052 0.935263 0.473691
0.713237 0.937401 0.479669
0.761076 0.939533 0.486387
0.810288 0.941712 0.493778
0.855910 0.944101 0.501770
0.932758 0.947401 0.513438
0.497046 1.096973 0.550248
0.497348 1.096885 0.550316
0.501883 1.096962 0.550550
0.511424 1.097022 0.551242
0.526490 1.097134 0.552282
0.546908 1.097184 0.553756
0.572582 1.097315 0.555764
0.602798 1.097504 0.558243
0.637056 1.097725 0.561247
0.674664 1.098053 0.564815
0.714832 1.098513 0.568983
0.757504 1.099059 0.573658
0.801482 1.099730 0.578933
0.847040 1.100761 0.584789
0.888522 1.102248 0.591190
0.989963 1.105608 0.600602
-0.272151 -0.600810 -0.296484
-0.271299 -0.600770 -0.296453
-0.259603 -0.600479 -0.295777
-0.231850 -0.599885 -0.294297
-0.173415 -0.598887 -0.291889
0.121424 -0.597469 -0.288450
0.245471 -0.595598 -0.283728
0.329262 -0.593193 -0.277567
0.402307 -0.590266 -0.269775
0.470110 -0.586758 -0.260034
0.534712 -0.582617 -0.247890
0.597576 -0.577845 -0.232774
0.658512 -0.572416 -0.213758
0.718905 -0.566289 -0.188791
0.775494 -0.559584 -0.154257
0.847905 -0.549831 -0.046935
-0.035846 -0.018036 0.061620
-0.012722 -0.015621 0.062081
0.103374 0.030720 0.067715
0.166710 0.052055 0.077876
0.227122 0.071976 0.091374
0.286190 0.091555 0.107041
0.344592 0.110938 0.123951
0.402529 0.130170 0.141609
0.460290 0.149290 0.159738
0.517784 0.168390 0.178177
0.575055 0.187397 0.196847
0.632202 0.206458 0.215733
0.688789 0.225376 0.234641
0.745442 0.244414 0.253774
0.801178 0.263298 0.272844
0.874397 0.288507 0.298413
0.041979 0.115345 0.078819
0.051076 0.115638 0.078985
0.111267 0.118046 0.083263
0.170817 0.122857 0.091271
0.229767 0.130236 0.102469
0.288126 0.139943 0.116188
0.346047 0.151591 0.131534
0.403688 0.164731 0.147996
0.461212 0.179096 0.165196
0.518580 0.194333 0.182910
0.575742 0.210185 0.200964
0.632806 0.226692 0.219371
0.689493 0.243500 0.237881
0.745878 0.260761 0.256722
0.801691 0.278149 0.275532
0.874744 0.301742 0.300832
0.079350 0.186797 0.104383
0.083320 0.187074 0.104347
0.125778 0.188289 0.107280
0.179349 0.190962 0.113235
0.235414 0.194969 0.121822
0.292241 0.200628 0.132884
0.349229 0.207889 0.145927
0.406199 0.216613 0.160430
0.463316 0.226611 0.175981
0.520345 0.237874 0.192405
0.577355 0.250103 0.209327
0.634230 0.263252 0.226833
0.690505 0.277104 0.244606
0.746971 0.291738 0.262764
0.802592 0.306693 0.281020
0.875390 0.327491 0.305715
0.111566 0.255193 0.133269
0.113930 0.255447 0.133123
0.145317 0.256209 0.135262
0.191816 0.257948 0.139614
0.244203 0.260729 0.146312
0.298734 0.264454 0.155063
0.354197 0.269403 0.165794
0.410333 0.275529 0.178138
0.466699 0.282839 0.191771
0.523263 0.291165 0.206489
0.579755 0.300529 0.222002
0.636303 0.310775 0.238266
0.692414 0.321957 0.254954
0.748810 0.333896 0.272208
0.804164 0.346500 0.289663
0.876823 0.364237 0.313453
0.142363 0.322523 0.163606
0.143984 0.322690 0.163426
0.168159 0.323292 0.165091
0.207947 0.324510 0.168392
0.255825 0.326546 0.173618
0.307675 0.329382 0.180684
0.361199 0.332996 0.189496
0.416050 0.337550 0.199874
0.471495 0.343081 0.211655
0.527359 0.349484 0.224636
0.583324 0.356821 0.238552
0.639349 0.364964 0.253398
0.695251 0.373922 0.268819
0.751135 0.383675 0.284930
0.806213 0.394076 0.301423
0.878656 0.409141 0.324044
0.172516 0.389301 0.194656
0.173773 0.389517 0.194549
0.192961 0.389933 0.195783
0.226958 0.390847 0.198410
0.270327 0.392506 0.202633
0.318916 0.394615 0.208366
0.370344 0.397528 0.215705
0.423482 0.401102 0.224443
0.477771 0.405415 0.234611
0.532693 0.410564 0.245959
0.587830 0.416434 0.258371
0.643386 0.422935 0.271738
0.698702 0.430303 0.285838
0.754245 0.438367 0.300735
0.809195 0.447098 0.316090
0.881037 0.459643 0.337373
0.202297 0.455903 0.226113
0.203275 0.455947 0.226002
0.218995 0.456314 0.227039
0.248210 0.457121 0.229214
0.287206 0.458325 0.232617
0.332327 0.460090 0.237450
0.381333 0.462455 0.243588
0.432654 0.465417 0.251092
0.485454 0.468910 0.259822
0.539269 0.473049 0.269768
0.593615 0.477885 0.280748
0.648413 0.483336 0.292796
0.703204 0.489444 0.305563
0.758279 0.496218 0.319251
0.812544 0.503552 0.333474
0.884128 0.514218 0.353337
0.231885 0.522225 0.257891
0.232668 0.522290 0.257778
0.245812 0.522639 0.258642
0.271071 0.523271 0.260459
0.306092 0.524274 0.263349
0.347870 0.525744 0.267387
0.394171 0.527678 0.272656
0.443397 0.530082 0.279098
0.494730 0.533175 0.286778
0.547182 0.536597 0.295440
0.600591 0.540659 0.305230
0.654554 0.545138 0.315963
0.708577 0.550368 0.327554
0.763009 0.556156 0.340019
0.816961 0.562316 0.353124
0.888053 0.571667 0.371616
0.261287 0.588537 0.289873
0.261954 0.588597 0.289743
0.273136 0.588825 0.290519
0.295185 0.589376 0.292032
0.326674 0.590248 0.294493
0.365206 0.591496 0.298001
0.408733 0.593163 0.302512
0.455844 0.595233 0.308103
0.505316 0.597704 0.314847
0.556520 0.600743 0.322510
0.608691 0.604152 0.331233
0.661729 0.608152 0.340906
0.714911 0.612498 0.351382
0.768668 0.617518 0.362746
0.822073 0.622946 0.374794
0.892286 0.630966 0.391913
0.290464 0.654584 0.321920
0.291024 0.654713 0.321785
0.300739 0.654835 0.322446
0.320198 0.655393 0.323762
0.348535 0.656085 0.325929
0.383933 0.657169 0.328948
0.424922 0.658650 0.332942
0.469775 0.660409 0.337858
0.517392 0.662552 0.343816
0.567029 0.665056 0.350642
0.617969 0.668198 0.358470
0.669831 0.671719 0.367110
0.722350 0.675532 0.376665
0.775369 0.679928 0.387034
0.827999 0.684515 0.398096
0.897460 0.691630 0.413888
0.319697 0.720951 0.354177
0.320165 0.720807 0.354086
0.328685 0.721019 0.354685
0.345880 0.721517 0.355824
0.371514 0.722119 0.357740
0.404170 0.723232 0.360392
0.442567 0.724344 0.363959
0.485154 0.725940 0.368343
0.530878 0.727641 0.373537
0.578816 0.730165 0.379729
0.628384 0.732842 0.386704
0.679276 0.735899 0.394641
0.730538 0.739166 0.403244
0.782755 0.743018 0.412718
0.834645 0.747367 0.422921
0.903084 0.753627 0.437509
0.348722 0.786939 0.386478
0.349039 0.787034 0.386270
0.356615 0.787025 0.386776
0.371997 0.787523 0.387852
0.395272 0.788119 0.389528
0.425480 0.789004 0.391884
0.461371 0.789983 0.395011
0.501708 0.791473 0.399081
0.545459 0.793093 0.403650
0.591736 0.795078 0.409215
0.639940 0.797414 0.415600
0.689581 0.800171 0.422734
0.739854 0.803272 0.430568
0.791117 0.806707 0.439312
0.841864 0.810319 0.448665
0.910193 0.815940 0.462183
0.377770 0.853445 0.418967
0.378088 0.853525 0.418796
0.384819 0.853531 0.419293
0.398735 0.853955 0.420209
0.419933 0.854461 0.421672
0.447814 0.855209 0.423889
0.481387 0.856208 0.426652
0.519527 0.857474 0.430221
0.561385 0.859157 0.434446
0.605980 0.860939 0.439530
0.652671 0.863300 0.445272
0.700838 0.865610 0.451793
0.750018 0.868608 0.459002
0.800341 0.871911 0.467007
0.849392 0.875305 0.475579
0.919519 0.880630 0.488113
0.406527 0.926743 0.451301
0.406845 0.926736 0.451149
0.412916 0.926926 0.451585
0.425546 0.927186 0.452438
0.444981 0.927820 0.453779
0.470783 0.928536 0.455698
0.502215 0.929422 0.458268
0.538348 0.930489 0.461505
0.578152 0.931868 0.465341
0.621139 0.933554 0.469908
0.666160 0.935294 0.475196
0.713215 0.937427 0.481174
0.761081 0.939556 0.487848
0.810309 0.941736 0.495155
0.855949 0.944130 0.503177
0.932791 0.947401 0.514759
0.497073 1.096886 0.550260
0.497238 1.096883 0.550167
0.501765 1.096961 0.550460
0.511349 1.096931 0.551091
0.526374 1.096994 0.552183
0.546811 1.097182 0.553674
0.572468 1.097306 0.555632
0.602756 1.097495 0.558141
0.637022 1.097717 0.561124
0.674601 1.098049 0.564710
0.714824 1.098505 0.568857
0.757459 1.099052 0.573530
0.801488 1.099724 0.578835
0.847039 1.100757 0.584678
0.888415 1.102248 0.591103
0.990060 1.105615 0.600487
-0.271845 -0.600673 -0.280218
-0.270959 -0.600646 -0.280139
-0.259229 -0.600376 -0.279401
-0.231404 -0.599761 -0.277800
-0.172803 -0.598749 -0.275177
0.122573 -0.597346 -0.271356
0.245902 -0.595461 -0.266178
0.329548 -0.593057 -0.259421
0.402500 -0.590130 -0.250780
0.470219 -0.586629 -0.239873
0.534834 -0.582513 -0.226185
0.597700 -0.577729 -0.208752
0.658517 -0.572281 -0.186056
0.718951 -0.566143 -0.154509
0.775479 -0.559476 -0.102902
0.847942 -0.549722 0.121517
-0.031359 0.014969 0.124650
0.016107 0.015411 0.124917
0.104311 0.035655 0.127199
0.167172 0.054844 0.131795
0.227349 0.073917 0.138894
0.286353 0.093120 0.148324
0.344703 0.112237 0.159746
0.402568 0.131270 0.172746
0.460337 0.150245 0.186930
0.517879 0.169254 0.202160
0.575115 0.188172 0.218120
0.632326 0.207113 0.234749
0.688758 0.226025 0.251788
0.745591 0.245025 0.269316
0.801274 0.263886 0.287060
0.874425 0.289073 0.311124
0.045066 0.116247 0.132066
0.053631 0.116533 0.132402
0.111945 0.118660 0.134432
0.171288 0.123508 0.138754
0.230300 0.130396 0.144872
0.288596 0.139714 0.153362
0.346450 0.151173 0.164019
0.404010 0.164214 0.176384
0.461509 0.178460 0.190069
0.518888 0.193692 0.204851
0.575881 0.209483 0.220374
0.632999 0.225937 0.236663
0.689513 0.242708 0.253388
0.746003 0.259923 0.270653
0.801712 0.277285 0.288140
0.874746 0.300747 0.311862
0.080642 0.187234 0.146386
0.084758 0.187472 0.146629
0.125751 0.189035 0.147818
0.180203 0.191716 0.151941
0.235884 0.195303 0.157924
0.292675 0.200818 0.165483
0.349576 0.207887 0.175201
0.406517 0.216525 0.186573
0.463574 0.226440 0.199346
0.520575 0.237633 0.213252
0.577415 0.249792 0.228070
0.634278 0.262900 0.243664
0.690678 0.276686 0.259808
0.746989 0.291232 0.276540
0.802646 0.306172 0.293604
0.875407 0.326916 0.316841
0.112387 0.255500 0.166167
0.114961 0.255646 0.166357
0.144933 0.257058 0.166910
0.192120 0.258671 0.170405
0.245054 0.261591 0.175633
0.299165 0.264768 0.182654
0.354634 0.269587 0.191153
0.410568 0.275618 0.201236
0.466969 0.282781 0.212900
0.523473 0.291030 0.225639
0.579910 0.300354 0.239434
0.636496 0.310572 0.254092
0.692424 0.321640 0.269376
0.748842 0.333536 0.285366
0.804134 0.346010 0.301702
0.876841 0.363796 0.324165
0.142924 0.322712 0.189795
0.144783 0.322796 0.189929
0.167784 0.323953 0.190267
0.208018 0.325067 0.193238
0.256174 0.327136 0.197561
0.308371 0.330103 0.203611
0.361646 0.333280 0.211071
0.416323 0.337698 0.220064
0.471748 0.343107 0.230363
0.527525 0.349479 0.241856
0.583407 0.356650 0.254469
0.639489 0.364879 0.268035
0.695279 0.373757 0.282321
0.751240 0.383401 0.297372
0.806283 0.393816 0.312842
0.878680 0.408653 0.334338
0.172938 0.389514 0.215964
0.174384 0.389521 0.216023
0.192662 0.390364 0.216316
0.226968 0.391277 0.218785
0.270435 0.392872 0.222454
0.319174 0.395109 0.227539
0.370870 0.398092 0.234183
0.423802 0.401325 0.241900
0.477962 0.405535 0.251089
0.532861 0.410554 0.261369
0.588034 0.416350 0.272732
0.643611 0.422893 0.285131
0.698776 0.430139 0.298299
0.754291 0.438133 0.312276
0.809150 0.446829 0.326870
0.881069 0.459329 0.347193
0.202675 0.455958 0.243814
0.203753 0.456021 0.243862
0.218723 0.456720 0.244063
0.248172 0.457459 0.246162
0.287275 0.458708 0.249285
0.332551 0.460461 0.253653
0.381487 0.462852 0.259305
0.433030 0.465819 0.266281
0.485686 0.469097 0.274209
0.539477 0.473165 0.283473
0.593760 0.477881 0.293731
0.648633 0.483282 0.304923
0.703267 0.489390 0.317017
0.758313 0.496030 0.329929
0.812631 0.503379 0.343484
0.884177 0.513963 0.362559
0.232160 0.522363 0.272867
0.233086 0.522407 0.272906
0.245557 0.522950 0.273015
0.270980 0.523552 0.274801
0.306076 0.524605 0.277505
0.347912 0.526029 0.281273
0.394289 0.527975 0.286219
0.443618 0.530464 0.292253
0.495111 0.533566 0.299493
0.547375 0.536788 0.307577
0.600764 0.540729 0.316802
0.654612 0.545200 0.326988
0.708688 0.550328 0.338011
0.763110 0.556076 0.349921
0.817019 0.562301 0.362420
0.887923 0.571421 0.380238
0.261548 0.588606 0.302725
0.262296 0.588642 0.302757
0.272877 0.589083 0.302786
0.295089 0.589580 0.304354
0.326627 0.590449 0.306693
0.365220 0.591730 0.309977
0.408814 0.593353 0.314363
0.455942 0.595449 0.319673
0.505537 0.597944 0.326030
0.556745 0.601031 0.333481
0.608798 0.604287 0.341660
0.661840 0.608177 0.350870
0.715035 0.612510 0.360871
0.768780 0.617486 0.371823
0.822044 0.622840 0.383383
0.892292 0.630745 0.400005
0.290717 0.654741 0.333156
0.291392 0.654686 0.333161
0.300449 0.655152 0.333078
0.320020 0.655471 0.334509
0.348394 0.656344 0.336609
0.383945 0.657383 0.339510
0.424922 0.658830 0.343288
0.469796 0.660541 0.348041
0.517436 0.662746 0.353761
0.567153 0.665377 0.360348
0.618147 0.668443 0.367918
0.670125 0.671748 0.376224
0.722362 0.675579 0.385380
0.775496 0.679869 0.395392
0.828062 0.684450 0.406090
0.897508 0.691542 0.421437
0.319911 0.720890 0.364063
0.320466 0.720813 0.364075
0.328372 0.721363 0.364015
0.345797 0.721681 0.365258
0.371416 0.722273 0.367088
0.404149 0.723089 0.369683
0.442533 0.724521 0.373066
0.485155 0.726144 0.377332
0.530879 0.727841 0.382391
0.578865 0.730336 0.388304
0.628535 0.733052 0.395141
0.679462 0.736072 0.402862
0.730647 0.739280 0.411216
0.782801 0.743006 0.420383
0.834606 0.747386 0.430160
0.903095 0.753437 0.444430
0.348846 0.787043 0.395287
0.349309 0.786900 0.395304
0.356251 0.787170 0.395094
0.371889 0.787676 0.396165
0.395090 0.788290 0.397831
0.425384 0.788954 0.400133
0.461251 0.790146 0.403236
0.501607 0.791526 0.407121
0.545441 0.793280 0.411580
0.591751 0.795261 0.417076
0.640044 0.797509 0.423242
0.689791 0.800219 0.430166
0.740062 0.803474 0.438009
0.791138 0.806781 0.446376
0.841966 0.810337 0.455484
0.910038 0.815875 0.468649
0.377859 0.853423 0.426865
0.378392 0.853474 0.426855
0.384443 0.853710 0.426596
0.398496 0.854061 0.427720
0.419755 0.854526 0.429200
0.447634 0.855279 0.431246
0.481242 0.856379 0.433981
0.519462 0.857500 0.437429
0.561329 0.859187 0.441634
0.605964 0.861012 0.446500
0.652450 0.863248 0.452180
0.700839 0.865722 0.458566
0.750057 0.868637 0.465668
0.800401 0.871970 0.473504
0.849379 0.875321 0.481873
0.919629 0.880592 0.494108
0.406687 0.926727 0.458444
0.407080 0.926766 0.458444
0.412554 0.927059 0.458173
0.425345 0.927158 0.459147
0.444783 0.927731 0.460429
0.470633 0.928439 0.462385
0.502093 0.929455 0.464880
0.538232 0.930505 0.468034
0.578104 0.931996 0.471839
0.621097 0.933676 0.476296
0.666130 0.935413 0.481490
0.713207 0.937466 0.487360
0.761108 0.939671 0.493879
0.810388 0.941855 0.501119
0.856113 0.944265 0.509012
0.932563 0.947403 0.520375
0.497154 1.096903 0.554076
0.497385 1.096893 0.554058
0.501312 1.096955 0.553667
0.510976 1.096936 0.554418
0.526001 1.097015 0.555472
0.546593 1.097098 0.556887
0.572248 1.097312 0.558849
0.602482 1.097489 0.561349
0.636805 1.097711 0.564337
0.674406 1.098045 0.567892
0.714705 1.098504 0.571942
0.757397 1.099047 0.576645
0.801389 1.099730 0.581810
0.847027 1.100771 0.587724
0.888388 1.102275 0.594037
0.990386 1.105630 0.603406
-0.271282 -0.600444 -0.244938
-0.270321 -0.600415 -0.244780
-0.258433 -0.600141 -0.243665
-0.230413 -0.599502 -0.241609
-0.171344 -0.598520 -0.238391
0.124872 -0.597100 -0.233661
0.246876 -0.595245 -0.227188
0.330108 -0.592860 -0.218649
0.402905 -0.589892 -0.207486
0.470467 -0.586379 -0.192843
0.535114 -0.582276 -0.173605
0.597830 -0.577486 -0.146722
0.658737 -0.572061 -0.103826
0.719131 -0.565922 0.075617
0.775548 -0.559262 0.140963
0.848061 -0.549480 0.194907
-0.017015 0.032063 0.187556
0.030081 0.031274 0.187786
0.105979 0.043736 0.189040
0.168133 0.060059 0.191854
0.227954 0.077409 0.196101
0.286758 0.095605 0.202092
0.344990 0.114162 0.209706
0.402816 0.132809 0.218885
0.460540 0.151537 0.229323
0.518062 0.170308 0.241076
0.575293 0.189066 0.253826
0.632446 0.207963 0.267514
0.688945 0.226700 0.281937
0.745744 0.245671 0.297165
0.801346 0.264470 0.312739
0.874489 0.289589 0.334379
0.050606 0.118073 0.191912
0.057823 0.118205 0.192091
0.112343 0.119230 0.193622
0.172606 0.124447 0.196436
0.231000 0.131711 0.200129
0.289022 0.141101 0.205682
0.346786 0.152585 0.213020
0.404161 0.165639 0.221810
0.461669 0.179798 0.232084
0.518969 0.194949 0.243540
0.575989 0.210728 0.256055
0.633074 0.227096 0.269535
0.689620 0.243833 0.283744
0.746114 0.261004 0.298726
0.801846 0.278333 0.314156
0.874750 0.301742 0.335575
0.083237 0.188174 0.200753
0.087239 0.188442 0.201048
0.127446 0.190112 0.202754
0.180481 0.191901 0.204730
0.236232 0.196001 0.208750
0.293160 0.201350 0.213739
0.350117 0.208079 0.220211
0.406992 0.216414 0.228358
0.464019 0.226076 0.237879
0.520979 0.237024 0.248714
0.577704 0.249006 0.260622
0.634484 0.261925 0.273520
0.690838 0.275603 0.287231
0.747131 0.289964 0.301689
0.802710 0.304844 0.316731
0.875485 0.325394 0.337573
0.113998 0.256106 0.214185
0.116525 0.256238 0.214278
0.146457 0.257586 0.215516
0.191554 0.259612 0.216490
0.246254 0.262558 0.220583
0.299562 0.265180 0.226485
0.355038 0.269995 0.232385
0.411067 0.275800 0.239969
0.467320 0.282851 0.248911
0.523855 0.290962 0.259157
0.580203 0.300083 0.270493
0.636593 0.310159 0.282873
0.692751 0.321136 0.296015
0.748825 0.332868 0.309967
0.804167 0.345244 0.324512
0.876804 0.362789 0.344808
0.144094 0.323161 0.231500
0.145904 0.323278 0.231608
0.169065 0.324297 0.232483
0.207296 0.326074 0.233086
0.256496 0.328058 0.236803
0.309458 0.331137 0.241565
0.362174 0.333694 0.248052
0.416763 0.338029 0.255117
0.472127 0.343310 0.263304
0.527855 0.349490 0.272803
0.583701 0.356513 0.283361
0.639662 0.364510 0.294992
0.695454 0.373340 0.307470
0.751260 0.382936 0.320733
0.806426 0.393184 0.334629
0.878755 0.407853 0.354129
0.173835 0.389896 0.252050
0.175227 0.389934 0.252121
0.193766 0.390622 0.252819
0.226414 0.392217 0.253375
0.270527 0.393593 0.256676
0.319643 0.395912 0.260880
0.371830 0.399086 0.266414
0.424306 0.401634 0.273006
0.478387 0.405790 0.280967
0.533208 0.410686 0.289569
0.588351 0.416357 0.299307
0.643700 0.422773 0.310131
0.699071 0.429910 0.321813
0.754372 0.437831 0.334323
0.809163 0.446360 0.347475
0.881128 0.458802 0.366065
0.203378 0.456270 0.275155
0.204505 0.456301 0.275189
0.219626 0.456901 0.275713
