res/LUTs/Gladeiator_Cool.CUBE
#Created by: Adobe Photoshop Export Color Lookup Plugin
TITLE "Cool"
#LUT size
LUT_3D_SIZE 8
#data domain
#LUT data points
DOMAIN_MIN 0.000000 0.000000 0.000000
DOMAIN_MAX 0.903226 0.903226 0.903226
0.346771 0.488708 0.386963
0.317993 0.457916 0.357605
0.295013 0.433563 0.334259
0.388031 0.527130 0.427429
0.338989 0.478546 0.378510
0.452911 0.588531 0.491333
0.240845 0.379456 0.280090
0.496002 0.630951 0.534210
0.113495 0.566010 0.614319
0.153259 0.532410 0.637360
0.153320 0.533478 0.638702
0.149536 0.517609 0.627106
0.149536 0.520599 0.628998
0.120056 0.551880 0.619843
0.147949 0.544952 0.651550
0.153168 0.544769 0.655212
0.148682 0.549744 0.549438
0.206757 0.351410 0.219940
0.102142 0.570892 0.605011
0.142792 0.532410 0.628448
0.150238 0.531036 0.639801
0.128540 0.537476 0.623962
0.150452 0.521667 0.634827
0.149536 0.522675 0.634583
0.124756 0.561279 0.628571
0.153473 0.540222 0.647583
0.150757 0.542114 0.648590
0.098785 0.620270 0.548096
0.150452 0.652649 0.610107
0.153259 0.666290 0.625580
0.133820 0.651520 0.579987
0.154755 0.544037 0.656494
0.109955 0.573486 0.614655
0.155426 0.537506 0.648804
0.153107 0.539673 0.646515
0.147675 0.541168 0.643463
0.106171 0.582306 0.622101
0.141724 0.555023 0.643768
0.156830 0.537476 0.652740
0.143433 0.555054 0.650024
0.197205 0.533325 0.654449
0.117523 0.573914 0.620575
0.153198 0.535461 0.641724
0.153168 0.535065 0.645538
0.153229 0.538574 0.645538
0.113190 0.583557 0.627380
0.111603 0.575592 0.624847
0.152374 0.546051 0.654694
0.368378 0.503082 0.432739
0.368378 0.503296 0.432129
0.364685 0.503296 0.433136
0.364716 0.499451 0.432037
0.364716 0.499664 0.428467
0.364868 0.499664 0.428436
0.361084 0.496887 0.428711
0.361084 0.496002 0.426849
0.364716 0.499664 0.428284
0.363037 0.499664 0.428955
0.361084 0.495911 0.428436
0.361084 0.496002 0.424622
0.361084 0.496002 0.424835
0.357391 0.492554 0.424866
0.357422 0.492371 0.424927
0.357422 0.492371 0.421173
0.494415 0.633850 0.533600
0.434113 0.570892 0.472839
0.314606 0.456146 0.354675
0.425415 0.563904 0.464630
0.525024 0.662964 0.564087
0.315094 0.457428 0.355408
0.196472 0.334930 0.235687
0.590851 0.729431 0.629883
0.112885 0.566895 0.614136
0.151978 0.535461 0.636932
0.153015 0.529175 0.637543
0.149536 0.516693 0.626495
0.149536 0.524597 0.631409
0.120453 0.551361 0.620026
0.150391 0.539215 0.650574
0.153168 0.544861 0.655182
0.281769 0.420502 0.321045
0.273071 0.411530 0.312286
0.229065 0.367676 0.268311
0.137238 0.539063 0.600739
0.137939 0.536407 0.657074
0.116486 0.550995 0.617676
0.150452 0.521667 0.634827
0.144226 0.521851 0.640778
0.124756 0.561005 0.628815
0.153168 0.540314 0.647308
0.150665 0.544250 0.648529
0.095764 0.618286 0.596588
0.139526 0.646942 0.592682
0.149139 0.649445 0.608398
0.131134 0.640259 0.568176
0.154755 0.544037 0.656494
0.109894 0.574493 0.614655
0.155518 0.536621 0.647003
0.153168 0.539398 0.646149
0.147583 0.541138 0.643433
0.104004 0.588806 0.619904
0.141937 0.554810 0.643890
0.156830 0.537476 0.652740
0.142975 0.554688 0.649689
0.184387 0.528229 0.647980
0.120697 0.571381 0.622314
0.153534 0.531860 0.641907
0.153168 0.536041 0.645538
0.153168 0.538818 0.645416
0.113953 0.577545 0.624817
0.113373 0.574951 0.625732
0.148376 0.547546 0.652679
0.368378 0.503082 0.434753
0.368378 0.503296 0.432129
0.364685 0.503296 0.433136
0.364716 0.499451 0.432037
0.364716 0.499664 0.428467
0.364868 0.499664 0.428436
0.361084 0.496887 0.428711
0.361084 0.496002 0.428741
0.364716 0.499664 0.428467
0.360626 0.499664 0.429626
0.361084 0.495972 0.428619
0.361084 0.496002 0.424835
0.361389 0.496002 0.424713
0.357422 0.492340 0.424805
0.357422 0.492371 0.421844
0.357422 0.492371 0.421173
0.632080 0.770264 0.674591
0.492432 0.629547 0.531250
0.450256 0.588470 0.490540
0.525482 0.665894 0.539551
0.552124 0.757385 0.695435
0.286560 0.432617 0.306854
0.435089 0.643341 0.578918
0.502991 0.705414 0.641510
0.108032 0.566345 0.610229
0.149536 0.537354 0.634583
0.152740 0.528687 0.636536
0.149536 0.518433 0.627533
0.149719 0.523865 0.631317
0.135559 0.539124 0.626221
0.146881 0.528473 0.635468
0.153168 0.545471 0.655487
0.330078 0.468994 0.369385
0.313995 0.453033 0.353363
0.249390 0.387634 0.288055
0.228638 0.367462 0.268127
0.277283 0.416199 0.316620
0.276398 0.415192 0.314453
0.276367 0.415192 0.314728
0.283539 0.422455 0.323029
0.124115 0.561340 0.628571
0.153168 0.536682 0.647308
0.150665 0.544464 0.648346
0.097382 0.598206 0.619110
0.129883 0.641052 0.580414
0.149475 0.650696 0.609711
0.130524 0.644958 0.584412
0.153351 0.545074 0.656494
0.110046 0.574921 0.614716
0.155212 0.537384 0.647003
0.153168 0.539398 0.646149
0.147705 0.541138 0.643555
0.104126 0.588623 0.619995
0.138214 0.554138 0.641663
0.156830 0.537476 0.652740
0.154938 0.543274 0.657654
0.180420 0.528442 0.647034
0.121765 0.570465 0.622833
0.153381 0.535217 0.641815
0.153168 0.536041 0.645538
0.153168 0.536102 0.647491
0.117065 0.573822 0.625732
0.113190 0.573334 0.624664
0.150269 0.546265 0.652740
0.368378 0.503082 0.435760
0.368378 0.503296 0.432129
0.364685 0.503296 0.433136
0.364716 0.499451 0.432037
0.364716 0.499664 0.428467
0.364868 0.499664 0.428436
0.361084 0.496887 0.428711
0.361084 0.496002 0.428741
0.364746 0.499664 0.428497
0.361084 0.500122 0.429626
0.361084 0.496002 0.428101
0.361084 0.496002 0.424835
0.359558 0.496307 0.425323
0.357422 0.492371 0.424835
0.357422 0.492371 0.420929
0.357422 0.492371 0.421173
0.379303 0.574127 0.508057
0.094025 0.544891 0.610321
0.129272 0.519226 0.637451
0.258423 0.508148 0.475159
0.176544 0.523193 0.582123
0.207916 0.349762 0.199280
0.142456 0.548584 0.639313
0.142792 0.548492 0.637939
0.120239 0.555542 0.617859
0.153320 0.534515 0.637787
0.149536 0.518433 0.623505
0.149536 0.520874 0.627533
0.150421 0.523010 0.631561
0.137054 0.536285 0.626068
0.149323 0.526367 0.635284
0.153473 0.549194 0.658569
0.365509 0.504547 0.404877
0.315735 0.455200 0.355225
0.324768 0.462830 0.363892
0.229645 0.368408 0.268951
0.328827 0.467865 0.368195
0.403168 0.541748 0.442413
0.382416 0.520966 0.421661
0.426605 0.561981 0.464935
0.114258 0.572845 0.623169
0.153168 0.540527 0.647308
0.144562 0.544891 0.646027
0.102631 0.591370 0.623413
0.129547 0.641052 0.580109
0.153656 0.653137 0.616425
0.128235 0.643799 0.575073
0.156769 0.542664 0.656494
0.120544 0.565887 0.620453
0.155212 0.537415 0.647034
0.153168 0.539398 0.646149
0.144623 0.549500 0.643524
0.103790 0.588623 0.619751
0.137604 0.554840 0.641296
0.156830 0.537476 0.652740
0.154694 0.543457 0.657654
0.194214 0.530182 0.655365
0.123077 0.562622 0.623474
0.153381 0.535217 0.641815
0.153168 0.536041 0.645538
0.153168 0.537903 0.647491
0.121368 0.570038 0.627899
0.113495 0.572632 0.624817
0.154846 0.542297 0.654205
0.368378 0.503082 0.435760
0.368378 0.503296 0.432129
0.364685 0.503296 0.433136
0.364716 0.499451 0.432037
0.364716 0.499664 0.428467
0.364868 0.499664 0.428436
0.361084 0.496887 0.428711
0.361084 0.496002 0.428741
0.364532 0.499664 0.428528
0.361084 0.497742 0.428955
0.361084 0.496002 0.424774
0.361084 0.496002 0.424835
0.357147 0.494354 0.425446
0.357422 0.492371 0.424927
0.357422 0.492371 0.421173
0.357422 0.492401 0.421173
0.138031 0.531128 0.631775
0.156342 0.565277 0.604675
0.236359 0.530182 0.519501
0.149078 0.532684 0.645203
0.237640 0.445679 0.387054
0.147644 0.540680 0.658081
0.137573 0.550323 0.636719
0.141357 0.548615 0.637390
0.109650 0.571014 0.612762
0.155518 0.532501 0.640015
0.152618 0.527985 0.635651
0.149536 0.521118 0.627258
0.149475 0.524078 0.631226
0.116821 0.553711 0.615997
0.144104 0.530090 0.631927
0.149261 0.523499 0.633118
0.386017 0.524323 0.425171
0.327637 0.465424 0.367798
0.363464 0.500336 0.402771
0.272400 0.411102 0.311676
0.259766 0.398163 0.298950
0.397552 0.536102 0.436798
0.397552 0.536194 0.436829
0.432892 0.569916 0.471710
0.111420 0.576111 0.622803
0.154022 0.539490 0.647736
0.151123 0.541779 0.649902
0.099518 0.589264 0.616272
0.131561 0.641052 0.581604
0.154663 0.653503 0.617584
0.128723 0.602966 0.643829
0.158478 0.541107 0.657288
0.117767 0.565582 0.617554
0.146301 0.542633 0.639709
0.153168 0.539612 0.646271
0.144653 0.547821 0.642639
0.104126 0.589203 0.618866
0.137604 0.554840 0.641296
0.156830 0.537689 0.652863
0.154236 0.543732 0.657349
0.195618 0.530243 0.656158
0.121887 0.565552 0.622650
0.153381 0.535553 0.641937
0.153168 0.536255 0.645691
0.155182 0.538849 0.647491
0.121368 0.570038 0.627899
0.099579 0.598816 0.617004
0.155151 0.542358 0.654205
0.368378 0.504059 0.436066
0.368378 0.503296 0.432129
0.364685 0.503296 0.433136
0.364716 0.499451 0.432037
0.364716 0.499664 0.428467
0.364868 0.499664 0.428436
0.361084 0.496887 0.428711
0.361084 0.496002 0.427551
0.361145 0.499695 0.429504
0.361084 0.495911 0.428619
0.361084 0.496002 0.424835
0.361176 0.496002 0.424774
0.357422 0.492065 0.424744
0.357422 0.492371 0.422180
0.357422 0.492371 0.421173
0.357849 0.491455 0.420807
0.184998 0.547058 0.606781
0.111267 0.546722 0.632629
0.145172 0.529327 0.639191
0.257416 0.400330 0.279755
0.199127 0.516327 0.523529
0.153168 0.537231 0.642334
0.142426 0.548218 0.640228
0.146881 0.547607 0.642914
0.109863 0.570374 0.612732
0.152740 0.525391 0.631836
0.153137 0.532013 0.639923
0.149780 0.521362 0.627502
0.149536 0.523987 0.631256
0.117950 0.552795 0.616577
0.147675 0.524902 0.633087
0.149536 0.525269 0.634888
0.380249 0.519073 0.419556
0.341888 0.483337 0.381958
0.319427 0.458282 0.358490
0.260956 0.400299 0.300415
0.213806 0.352386 0.253052
0.427338 0.565948 0.466583
0.451050 0.588837 0.490082
0.409912 0.546509 0.448608
0.111969 0.575439 0.622986
0.153778 0.539917 0.647583
0.151123 0.541809 0.649963
0.099518 0.589111 0.615448
0.139313 0.643799 0.590851
0.154663 0.650330 0.611725
0.128815 0.561127 0.644165
0.158234 0.541290 0.657288
0.116272 0.567993 0.617004
0.146790 0.540009 0.638885
0.153168 0.539429 0.646179
0.153473 0.534454 0.645416
0.102966 0.586151 0.615814
0.137604 0.554230 0.641296
0.156830 0.537689 0.652863
0.158813 0.544922 0.657410
0.189117 0.529144 0.652924
0.118225 0.569489 0.620911
0.153381 0.532501 0.642029
0.153168 0.536469 0.645782
0.157440 0.539581 0.647491
0.118652 0.572906 0.626190
0.096283 0.599792 0.614990
0.155090 0.542328 0.654205
0.368378 0.503998 0.436035
0.368378 0.503296 0.432129
0.364685 0.503296 0.433136
0.364716 0.499451 0.432037
0.364716 0.499664 0.428467
0.364868 0.499664 0.428436
0.361084 0.496887 0.428711
0.361084 0.496002 0.426910
0.361084 0.499725 0.429535
0.361084 0.496002 0.426575
0.361084 0.496002 0.424835
0.358307 0.496033 0.425598
0.357422 0.492371 0.424805
0.356934 0.491913 0.420563
0.367889 0.502869 0.433533
0.365265 0.498474 0.433014
0.138153 0.533112 0.634094
0.349731 0.492462 0.347137
0.179504 0.537292 0.605042
0.204926 0.534973 0.566193
0.148499 0.534271 0.654968
0.153168 0.544037 0.648376
0.135651 0.556396 0.638550
0.153564 0.546753 0.651855
0.106842 0.573181 0.610443
0.153290 0.534027 0.640625
0.132935 0.526245 0.613983
0.149780 0.521362 0.627502
0.149536 0.523529 0.630798
0.115204 0.556732 0.615631
0.146973 0.526001 0.632874
0.149536 0.524841 0.634644
0.391327 0.530304 0.430695
0.358368 0.497833 0.397858
0.363800 0.502106 0.402924
0.298462 0.436462 0.337555
0.301819 0.440399 0.341064
0.424347 0.565521 0.464325
0.497559 0.632202 0.535675
0.495789 0.630768 0.534027
0.111969 0.575439 0.622986
0.153778 0.538116 0.647583
0.151123 0.542542 0.650269
0.099457 0.591980 0.615814
0.121613 0.635071 0.564606
0.154663 0.650421 0.630920
0.122650 0.571564 0.634979
0.158234 0.541290 0.657288
0.116211 0.567963 0.616974
0.145630 0.542664 0.638123
0.153168 0.539429 0.646179
0.153595 0.534424 0.645508
0.103210 0.586090 0.616028
0.138306 0.550659 0.641724
0.157806 0.538330 0.653412
0.156830 0.546570 0.656494
0.188019 0.528381 0.652283
0.109344 0.575592 0.616455
0.153290 0.532562 0.641968
0.153168 0.536469 0.645782
0.157227 0.539612 0.647278
0.148285 0.543610 0.642731
0.096283 0.599792 0.614990
0.155396 0.538849 0.652435
0.368378 0.503998 0.436035
0.368378 0.503296 0.432129
0.364685 0.503296 0.433136
0.364716 0.499451 0.432037
0.364716 0.499664 0.428467
0.364868 0.499664 0.428436
0.361084 0.496887 0.428711
0.361084 0.496002 0.426910
0.210388 0.349304 0.248871
0.210449 0.349335 0.248993
0.210449 0.348846 0.248901
0.210114 0.346191 0.247742
0.210114 0.346130 0.247742
0.209991 0.345703 0.247620
0.215179 0.350128 0.253387
0.215179 0.350128 0.253387
0.250366 0.563141 0.548950
0.260529 0.491547 0.431244
0.299835 0.441040 0.328491
0.141174 0.534149 0.656921
0.153168 0.528931 0.637787
0.153168 0.542023 0.645508
0.134064 0.552826 0.634583
0.155212 0.544159 0.650604
0.107300 0.574066 0.611206
0.146240 0.537750 0.635132
0.133514 0.525696 0.614319
0.149658 0.521332 0.627472
0.150452 0.522217 0.630951
0.116150 0.555817 0.616394
0.147186 0.525787 0.632874
0.149536 0.525055 0.634583
0.396118 0.535309 0.435547
0.381622 0.519806 0.420746
0.317200 0.455200 0.356323
0.363953 0.500610 0.402679
0.411102 0.547577 0.449738
0.386719 0.525299 0.425964
0.385132 0.523804 0.424408
0.482666 0.619415 0.521393
0.111969 0.574799 0.622955
0.153778 0.537048 0.647125
0.151123 0.542664 0.650269
0.102051 0.592987 0.618591
0.123352 0.636230 0.567871
0.153839 0.600281 0.649811
0.121552 0.572021 0.633514
0.158234 0.541290 0.657288
0.112793 0.569183 0.617615
0.145660 0.542908 0.638123
0.153168 0.539429 0.646179
0.153564 0.534424 0.645508
0.103363 0.586304 0.616364
0.121246 0.568024 0.629730
0.157959 0.538239 0.653534
0.156830 0.546692 0.656494
0.198608 0.530365 0.656128
0.104614 0.575104 0.614044
0.153320 0.532562 0.641968
0.153168 0.539703 0.645782
0.154846 0.535583 0.645264
0.148285 0.545837 0.645813
0.096283 0.599792 0.614990
0.135010 0.559143 0.639435
0.368378 0.503998 0.436035
0.368378 0.503296 0.432129
0.364685 0.503296 0.433136
0.364716 0.499451 0.432037
0.364716 0.499664 0.428467
0.364868 0.499664 0.428436
0.361084 0.496887 0.428711
0.361084 0.496002 0.426910
0.215179 0.350128 0.253387
0.215179 0.350128 0.253387
0.215179 0.350128 0.253387
0.215179 0.350281 0.253448
0.215179 0.350342 0.253448
0.215179 0.347778 0.252747
0.215454 0.347778 0.252930
0.215454 0.346100 0.252441
