res/LUTs/Gladeiator_Saturated.CUBE
#Created by: Adobe Photoshop Export Color Lookup Plugin
TITLE "Gladeiator_Saturated"
#LUT size
LUT_3D_SIZE 32
#data domain
DOMAIN_MIN 0.0 0.0 0.0
DOMAIN_MAX 1.0 1.0 1.0
#LUT data points
0.898346 0.000000 0.000000
0.924591 0.000000 0.000000
0.923645 0.000000 0.000000
0.850372 0.000000 0.000000
0.834290 0.000000 0.000000
0.885345 0.000000 0.000000
0.868195 0.000000 0.000000
0.788055 0.000000 0.000000
0.783386 0.000000 0.000000
1.000000 0.002411 0.002411
1.000000 0.003815 0.003815
0.986786 0.000000 0.000000
0.984039 0.000000 0.000000
0.992188 0.000000 0.000000
1.000000 0.035400 0.035400
0.793854 0.000000 0.000000
0.879059 0.000000 0.000000
1.000000 0.000458 0.000458
0.901917 0.000000 0.000000
1.000000 0.267487 0.267487
1.000000 0.119812 0.119812
0.758942 0.000000 0.000000
1.000000 0.160034 0.160034
0.897797 0.000000 0.000000
0.666962 0.000000 0.000000
0.622589 0.000000 0.000000
0.991882 0.000000 0.000000
1.000000 0.256226 0.256226
1.000000 0.211761 0.211761
1.000000 0.211731 0.211731
1.000000 0.212097 0.212097
1.000000 0.211456 0.211456
0.849823 0.755219 0.000000
0.831207 0.699921 0.000000
0.812653 0.418640 0.000000
0.770386 0.000000 0.175659
0.779785 0.000000 0.125641
0.773254 0.000000 0.089111
0.802124 0.519531 0.000000
0.844299 0.787415 0.000000
0.844299 0.791107 0.000000
0.843903 0.787872 0.000000
0.846924 0.794617 0.000000
0.850555 0.794067 0.000000
0.851227 0.793243 0.000000
0.850983 0.793427 0.000000
0.850983 0.793030 0.000000
0.850677 0.797089 0.000000
0.852783 0.799286 0.000000
0.855164 0.797333 0.000000
0.854614 0.797668 0.000000
0.855743 0.796631 0.000000
0.858795 0.796112 0.000000
0.859650 0.803192 0.000000
0.858398 0.800140 0.000000
0.839294 0.748108 0.000000
0.818176 0.706512 0.000000
0.812653 0.697388 0.000000
0.828247 0.733826 0.000000
0.853241 0.784302 0.000000
0.864502 0.801819 0.000000
0.862732 0.801453 0.000000
0.862732 0.805664 0.000000
0.862732 0.806915 0.000000
0.804565 0.691620 0.000000
0.780945 0.633942 0.000000
0.776154 0.626831 0.000000
0.791626 0.659637 0.000000
0.813843 0.710510 0.000000
0.832764 0.760590 0.000000
0.843994 0.788757 0.000000
0.843872 0.787018 0.000000
0.847717 0.788727 0.000000
0.850891 0.787750 0.000000
0.851105 0.792725 0.000000
0.850952 0.793610 0.000000
0.850891 0.795227 0.000000
0.853729 0.797028 0.000000
0.855194 0.797577 0.000000
0.854889 0.797089 0.000000
0.854584 0.800537 0.000000
0.856354 0.803680 0.000000
0.859039 0.801788 0.000000
0.859955 0.803253 0.000000
0.855743 0.797028 0.000000
0.841400 0.775055 0.000000
0.840759 0.765015 0.000000
0.820343 0.705383 0.000000
0.825928 0.711182 0.000000
0.831207 0.721832 0.000000
0.844666 0.758057 0.000000
0.860565 0.800476 0.000000
0.863342 0.806854 0.000000
0.862640 0.807892 0.000000
0.862946 0.812164 0.000000
0.864655 0.810822 0.000000
0.793884 0.666168 0.000000
0.774017 0.618317 0.000000
0.793976 0.672821 0.000000
0.802216 0.700775 0.000000
0.819092 0.740509 0.000000
0.844513 0.798950 0.000000
0.848846 0.793091 0.000000
0.851379 0.786102 0.000000
0.851013 0.786407 0.000000
0.850983 0.788025 0.000000
0.850983 0.796539 0.000000
0.850952 0.799835 0.000000
0.850922 0.800018 0.000000
0.852600 0.798889 0.000000
0.854248 0.797516 0.000000
0.857147 0.799591 0.000000
0.858826 0.802002 0.000000
0.860291 0.800629 0.000000
0.863464 0.799591 0.000000
0.863342 0.803680 0.000000
0.849182 0.778290 0.000000
0.815918 0.700378 0.000000
0.815918 0.699402 0.000000
0.853729 0.778900 0.000000
0.862183 0.797150 0.000000
0.858215 0.791168 0.000000
0.863556 0.803253 0.000000
0.867279 0.814331 0.000000
0.866669 0.816956 0.000000
0.866669 0.813354 0.000000
0.866669 0.811218 0.000000
0.866669 0.815460 0.000000
0.782562 0.636414 0.000000
0.762909 0.599548 0.000000
0.797089 0.669830 0.000000
0.835236 0.756927 0.000000
0.850098 0.793640 0.000000
0.851471 0.794312 0.000000
0.850983 0.793427 0.000000
0.850983 0.793030 0.000000
0.851624 0.795074 0.000000
0.849762 0.798096 0.000000
0.838745 0.788177 0.000000
0.834595 0.788940 0.000000
0.835052 0.790009 0.000000
0.835358 0.790283 0.000000
0.835297 0.790833 0.000000
0.834991 0.790955 0.000000
0.837128 0.789307 0.000000
0.839569 0.790375 0.000000
0.842346 0.802643 0.000000
0.829742 0.767365 0.000000
0.795563 0.678436 0.000000
0.794098 0.675262 0.000000
0.800323 0.683868 0.000000
0.832977 0.742065 0.000000
0.859619 0.798126 0.000000
0.867157 0.820587 0.000000
0.866760 0.823181 0.000000
0.869049 0.817291 0.000000
0.869232 0.814270 0.000000
0.866425 0.815643 0.000000
0.866669 0.817780 0.000000
0.866455 0.822235 0.000000
0.787689 0.649811 0.000000
0.779053 0.621582 0.000000
0.807983 0.696533 0.000000
0.839539 0.763489 0.000000
0.848969 0.783051 0.000000
0.849579 0.797302 0.000000
0.840454 0.772522 0.000000
0.812073 0.719482 0.000000
0.803192 0.723785 0.000000
0.826172 0.774536 0.000000
0.832123 0.782135 0.000000
0.834869 0.784119 0.000000
0.835266 0.784271 0.000000
0.838013 0.787079 0.000000
0.839539 0.788696 0.000000
0.839844 0.790833 0.000000
0.835632 0.773804 0.000000
0.830841 0.754761 0.000000
0.833801 0.762543 0.000000
0.823669 0.739624 0.000000
0.795013 0.676605 0.000000
0.797668 0.685120 0.000000
0.820374 0.752869 0.000000
0.824127 0.765381 0.000000
0.835144 0.777252 0.000000
0.843079 0.791016 0.000000
0.843445 0.792786 0.000000
0.843140 0.795807 0.000000
0.843140 0.799286 0.000000
0.843140 0.798889 0.000000
0.843140 0.799286 0.000000
0.843140 0.797638 0.000000
0.780823 0.614960 0.000000
0.812012 0.700409 0.000000
0.845856 0.766571 0.000000
0.854187 0.778473 0.000000
0.851501 0.785187 0.000000
0.851929 0.793060 0.000000
0.824707 0.732697 0.000000
0.785858 0.645813 0.000000
0.795349 0.664459 0.000000
0.814819 0.711365 0.000000
0.825531 0.727173 0.000000
0.857544 0.788025 0.000000
0.865631 0.803711 0.000000
0.846130 0.791382 0.000000
0.837128 0.787659 0.000000
0.842255 0.789398 0.000000
0.838043 0.772369 0.000000
0.833618 0.760559 0.000000
0.819977 0.736694 0.000000
0.791107 0.684875 0.000000
0.787781 0.671814 0.000000
0.789246 0.670166 0.000000
0.819122 0.750122 0.000000
0.825287 0.767059 0.000000
0.838501 0.784882 0.000000
0.844574 0.799408 0.000000
0.843140 0.799500 0.000000
0.843140 0.798676 0.000000
0.843140 0.798889 0.000000
0.843140 0.798889 0.000000
0.841064 0.796906 0.000000
0.848999 0.804443 0.000000
0.781403 0.620758 0.000000
0.815186 0.696167 0.000000
0.842773 0.761902 0.000000
0.855347 0.791443 0.000000
0.863586 0.811096 0.000000
0.840057 0.760284 0.000000
0.810913 0.700836 0.000000
0.806152 0.681580 0.000000
0.785400 0.629883 0.000000
0.777832 0.638458 0.000000
0.782532 0.649750 0.000000
0.823822 0.744385 0.000000
0.836182 0.774536 0.000000
0.837646 0.787537 0.000000
0.842346 0.795471 0.000000
0.841614 0.792084 0.000000
0.836823 0.778198 0.000000
0.839874 0.776917 0.000000
0.825165 0.744171 0.000000
0.789124 0.663330 0.000000
0.796265 0.679230 0.000000
0.821777 0.750946 0.000000
0.824615 0.759186 0.000000
0.829102 0.766357 0.000000
0.841583 0.791443 0.000000
0.845581 0.799530 0.000000
0.844543 0.797546 0.000000
0.844543 0.797546 0.000000
0.844208 0.797424 0.000000
0.846313 0.798157 0.000000
0.847839 0.796082 0.000000
0.844513 0.790710 0.000000
0.750977 0.537933 0.000000
0.705872 0.330536 0.000000
0.620239 0.000000 0.108734
0.623291 0.000000 0.049774
0.600159 0.000000 0.115326
0.615814 0.000000 0.077728
0.724152 0.469574 0.000000
0.815979 0.707214 0.000000
0.760376 0.596466 0.000000
0.760132 0.598480 0.000000
0.794678 0.674377 0.000000
0.801514 0.690369 0.000000
0.829285 0.758423 0.000000
0.839722 0.787231 0.000000
0.837769 0.785828 0.000000
0.844086 0.795044 0.000000
0.849518 0.797668 0.000000
0.826691 0.744537 0.000000
0.797302 0.683441 0.000000
0.800812 0.694244 0.000000
0.809113 0.721222 0.000000
0.818939 0.738159 0.000000
0.824432 0.741699 0.000000
0.840118 0.788422 0.000000
0.844360 0.802521 0.000000
0.843140 0.798889 0.000000
0.843140 0.798889 0.000000
0.843140 0.798889 0.000000
0.843140 0.798889 0.000000
0.843140 0.798889 0.000000
0.843628 0.799347 0.000000
0.841614 0.797424 0.000000
1.000000 0.005646 0.005646
1.000000 0.164429 0.164429
1.000000 0.049652 0.049652
1.000000 0.072205 0.072205
1.000000 0.051849 0.051849
1.000000 0.012085 0.012085
1.000000 0.124207 0.124207
0.904022 0.000000 0.000000
0.792969 0.000000 0.000000
0.929535 0.000000 0.000000
1.000000 0.109314 0.109314
0.763702 0.000000 0.000000
0.633606 0.000000 0.000000
0.694153 0.000000 0.000000
1.000000 0.051392 0.051392
1.000000 0.260651 0.260651
1.000000 0.219269 0.219269
1.000000 0.232117 0.232117
1.000000 0.162262 0.162262
1.000000 0.088837 0.088837
1.000000 0.148895 0.148895
0.989990 0.000000 0.000000
0.969482 0.000000 0.000000
1.000000 0.000427 0.000427
0.991211 0.000000 0.000000
1.000000 0.575836 0.575836
1.000000 0.596100 0.596100
1.000000 0.324402 0.324402
1.000000 0.359558 0.359558
1.000000 0.355621 0.355621
1.000000 0.351349 0.351349
1.000000 0.351501 0.351501
0.836365 0.746307 0.000000
0.851532 0.783966 0.000000
0.857147 0.789551 0.000000
0.864014 0.800934 0.000000
0.862579 0.801727 0.000000
0.865448 0.816437 0.000000
0.850708 0.780914 0.000000
0.823151 0.712219 0.000000
0.814911 0.691559 0.000000
0.790894 0.625427 0.000000
0.773102 0.578491 0.000000
0.771729 0.576172 0.000000
0.781616 0.636200 0.000000
0.782379 0.652863 0.000000
0.818604 0.732452 0.000000
0.844269 0.794586 0.000000
0.835602 0.779694 0.000000
0.833160 0.781494 0.000000
0.855194 0.779205 0.000000
0.699280 0.615967 0.000000
0.334717 0.317139 0.000000
0.324097 0.313019 0.000000
0.344116 0.356476 0.000000
0.345184 0.362640 0.000000
0.344330 0.372711 0.000000
0.342102 0.376068 0.000000
0.366852 0.392731 0.000000
0.384064 0.408173 0.000000
0.380157 0.408173 0.000000
0.380280 0.407867 0.000000
0.347778 0.378967 0.000000
0.475800 0.492889 0.000000
0.818298 0.703613 0.000000
0.832092 0.727264 0.000000
0.852478 0.776520 0.000000
0.864471 0.813171 0.000000
0.863464 0.809296 0.000000
0.866180 0.813324 0.000000
0.865662 0.806488 0.000000
0.860687 0.790710 0.000000
0.834503 0.733459 0.000000
0.790375 0.623077 0.000000
0.784119 0.616608 0.000000
0.774414 0.598389 0.000000
0.780365 0.610229 0.000000
0.795868 0.644897 0.000000
0.829285 0.733124 0.000000
0.844574 0.614258 0.000000
0.853668 0.505005 0.000000
0.872498 0.563843 0.000000
0.892609 0.566803 0.000000
0.734558 0.433289 0.000000
0.373413 0.161987 0.000000
0.354614 0.139832 0.000000
0.364044 0.159363 0.000000
0.364624 0.320648 0.000000
0.372192 0.398987 0.000000
0.378448 0.402527 0.000000
0.375488 0.404633 0.000000
0.377380 0.408508 0.000000
0.380676 0.407867 0.000000
0.382660 0.409546 0.000000
0.337524 0.371643 0.000000
0.449066 0.473206 0.000000
0.809998 0.688782 0.000000
0.816010 0.704041 0.000000
0.838470 0.761719 0.000000
0.858093 0.806335 0.000000
0.861328 0.804565 0.000000
0.863007 0.805695 0.000000
0.862732 0.808167 0.000000
0.863953 0.816071 0.000000
0.859497 0.799896 0.000000
0.845673 0.753174 0.000000
0.840454 0.749542 0.000000
0.798920 0.649506 0.000000
0.773163 0.447174 0.000000
0.785065 0.414581 0.000000
0.789337 0.437653 0.000000
0.825256 0.487976 0.000000
0.863525 0.545807 0.000000
0.863434 0.544708 0.000000
0.864227 0.548798 0.000000
0.869263 0.561127 0.000000
0.881195 0.561707 0.000000
0.772736 0.452789 0.000000
0.423615 0.198456 0.000000
0.687683 0.381439 0.000000
0.844421 0.488586 0.000000
0.832855 0.638672 0.000000
0.854919 0.791046 0.000000
0.873444 0.821198 0.000000
0.872253 0.820709 0.000000
0.874756 0.830750 0.000000
0.874237 0.830048 0.000000
0.875305 0.829346 0.000000
0.796112 0.641602 0.000000
0.792603 0.639923 0.000000
0.839355 0.748566 0.000000
0.871094 0.822601 0.000000
0.865234 0.808197 0.000000
0.862427 0.805359 0.000000
0.862946 0.806274 0.000000
0.862030 0.803955 0.000000
0.859222 0.797546 0.000000
0.861694 0.801727 0.000000
0.860626 0.790039 0.000000
0.807739 0.672668 0.000000
0.786682 0.629974 0.000000
0.779266 0.610321 0.000000
0.772888 0.470215 0.000000
0.796295 0.429047 0.000000
0.820648 0.485443 0.000000
0.843048 0.498505 0.000000
0.868652 0.639191 0.000000
0.866852 0.824951 0.000000
0.866699 0.806396 0.000000
0.867157 0.803223 0.000000
0.861389 0.790314 0.000000
0.823151 0.698761 0.000000
0.811859 0.677673 0.000000
0.834473 0.727722 0.000000
0.845367 0.751038 0.000000
0.840210 0.738678 0.000000
0.856171 0.780304 0.000000
0.876556 0.835480 0.000000
0.874268 0.830078 0.000000
0.875275 0.829132 0.000000
0.781006 0.620636 0.000000
0.825531 0.716095 0.000000
0.848022 0.768097 0.000000
0.856506 0.789795 0.000000
0.864014 0.808960 0.000000
0.862732 0.805664 0.000000
0.862732 0.805664 0.000000
0.862732 0.805237 0.000000
0.863403 0.809235 0.000000
0.861694 0.807404 0.000000
0.851105 0.769867 0.000000
0.839111 0.740784 0.000000
0.783173 0.619507 0.000000
0.763336 0.579773 0.000000
0.774017 0.597900 0.000000
0.775909 0.599731 0.000000
0.775543 0.599457 0.000000
0.815613 0.686768 0.000000
0.861877 0.797058 0.000000
0.860413 0.796143 0.000000
0.868500 0.817200 0.000000
0.870636 0.812805 0.000000
0.853271 0.785767 0.000000
0.850281 0.781982 0.000000
0.857697 0.789642 0.000000
0.829254 0.722748 0.000000
0.812683 0.680359 0.000000
0.833984 0.727295 0.000000
0.848663 0.759979 0.000000
0.861633 0.786316 0.000000
0.881073 0.841064 0.000000
0.879517 0.832916 0.000000
0.772675 0.607422 0.000000
0.816833 0.705170 0.000000
0.833740 0.745605 0.000000
0.847015 0.774445 0.000000
0.861023 0.806152 0.000000
0.858826 0.804108 0.000000
0.858826 0.808289 0.000000
0.858612 0.807678 0.000000
0.859619 0.809052 0.000000
0.861877 0.810760 0.000000
0.860138 0.804901 0.000000
0.859406 0.794586 0.000000
0.823395 0.710815 0.000000
0.810852 0.687317 0.000000
0.786835 0.623932 0.000000
0.769806 0.572083 0.000000
0.790253 0.621826 0.000000
0.801575 0.663818 0.000000
0.820862 0.710846 0.000000
0.865112 0.815491 0.000000
0.867126 0.811035 0.000000
0.867096 0.810364 0.000000
0.870483 0.819489 0.000000
0.870880 0.825378 0.000000
0.858673 0.791595 0.000000
0.855774 0.782654 0.000000
0.833649 0.726196 0.000000
0.816772 0.684967 0.000000
0.817078 0.686005 0.000000
0.830444 0.716492 0.000000
0.850250 0.764313 0.000000
0.857147 0.777618 0.000000
0.779114 0.622009 0.000000
0.798370 0.662506 0.000000
0.807465 0.668274 0.000000
0.841675 0.746338 0.000000
0.864716 0.814880 0.000000
0.858551 0.801331 0.000000
0.858795 0.801544 0.000000
0.858643 0.801422 0.000000
0.859772 0.802460 0.000000
0.862885 0.805176 0.000000
0.863190 0.806305 0.000000
0.862885 0.806427 0.000000
0.850677 0.785248 0.000000
0.851898 0.783051 0.000000
0.812073 0.683197 0.000000
0.784180 0.627014 0.000000
0.783081 0.621735 0.000000
0.770935 0.589294 0.000000
0.794830 0.640747 0.000000
0.839020 0.741516 0.000000
0.844574 0.754669 0.000000
0.869080 0.815399 0.000000
0.871735 0.822571 0.000000
0.870575 0.824677 0.000000
0.870483 0.826294 0.000000
0.873505 0.825104 0.000000
0.872437 0.813232 0.000000
0.873474 0.817596 0.000000
0.853180 0.771515 0.000000
0.828094 0.711456 0.000000
0.831360 0.718506 0.000000
0.831146 0.718323 0.000000
0.811890 0.692749 0.000000
0.784485 0.637390 0.000000
0.811859 0.692139 0.000000
0.835327 0.740295 0.000000
0.842194 0.765289 0.000000
0.856628 0.809143 0.000000
0.854614 0.803925 0.000000
0.855591 0.802948 0.000000
0.859680 0.802185 0.000000
0.862244 0.805603 0.000000
0.859192 0.808014 0.000000
0.858887 0.808990 0.000000
0.859436 0.809723 0.000000
0.842194 0.757690 0.000000
0.837494 0.745880 0.000000
0.804047 0.672516 0.000000
0.770203 0.591949 0.000000
0.772278 0.592407 0.000000
0.772552 0.597534 0.000000
0.768677 0.588715 0.000000
0.782349 0.619049 0.000000
0.835114 0.744171 0.000000
0.843445 0.764160 0.000000
0.865601 0.808746 0.000000
0.872498 0.828186 0.000000
0.870392 0.826416 0.000000
0.872955 0.824371 0.000000
0.874817 0.823334 0.000000
0.874512 0.822632 0.000000
0.877167 0.832184 0.000000
0.865173 0.806671 0.000000
0.838684 0.742035 0.000000
0.791565 0.649719 0.000000
0.779907 0.620911 0.000000
0.796844 0.658142 0.000000
0.805176 0.683289 0.000000
0.831879 0.742523 0.000000
0.858185 0.797211 0.000000
0.854889 0.795197 0.000000
0.854645 0.804352 0.000000
0.855530 0.803314 0.000000
0.858673 0.802277 0.000000
0.858948 0.807373 0.000000
0.858795 0.808258 0.000000
0.858734 0.807983 0.000000
0.861572 0.806030 0.000000
0.865448 0.815582 0.000000
0.843414 0.764954 0.000000
0.830933 0.727661 0.000000
0.810760 0.675385 0.000000
0.773743 0.593536 0.000000
0.783691 0.611694 0.000000
0.794617 0.640381 0.000000
0.798004 0.647980 0.000000
0.825439 0.709961 0.000000
0.858826 0.789642 0.000000
0.864838 0.804230 0.000000
0.867859 0.817444 0.000000
0.873566 0.826447 0.000000
0.874817 0.823334 0.000000
0.874512 0.822845 0.000000
0.874512 0.825623 0.000000
0.874268 0.830292 0.000000
0.875702 0.830597 0.000000
0.833099 0.734467 0.000000
0.811249 0.694580 0.000000
0.792572 0.645325 0.000000
0.772766 0.603546 0.000000
0.810455 0.694122 0.000000
0.848633 0.785431 0.000000
0.849762 0.786072 0.000000
0.854919 0.804840 0.000000
0.855621 0.803406 0.000000
0.858673 0.802277 0.000000
0.858948 0.807556 0.000000
0.858826 0.808289 0.000000
0.858826 0.807861 0.000000
0.858826 0.807861 0.000000
0.858551 0.809509 0.000000
0.860931 0.799561 0.000000
0.868439 0.807800 0.000000
0.837738 0.740173 0.000000
0.794586 0.646973 0.000000
0.789886 0.635986 0.000000
0.766998 0.575623 0.000000
0.771423 0.584961 0.000000
0.802795 0.657562 0.000000
0.809540 0.676910 0.000000
0.849731 0.774414 0.000000
0.866394 0.820709 0.000000
0.865265 0.813080 0.000000
0.871643 0.819092 0.000000
0.875031 0.824188 0.000000
0.874512 0.822845 0.000000
0.874451 0.825134 0.000000
0.874146 0.829956 0.000000
0.915710 0.898956 0.000000
0.911835 0.894928 0.000000
0.836823 0.730591 0.000000
0.793488 0.641418 0.000000
0.793610 0.642487 0.000000
0.813263 0.699890 0.000000
0.849609 0.791107 0.000000
0.849060 0.786865 0.000000
0.854736 0.798615 0.000000
0.855438 0.803009 0.000000
0.858490 0.802124 0.000000
0.859009 0.806580 0.000000
0.858826 0.808289 0.000000
0.858826 0.807861 0.000000
0.858826 0.807861 0.000000
0.858826 0.808929 0.000000
0.858887 0.802063 0.000000
0.864075 0.807526 0.000000
0.839020 0.747253 0.000000
0.791473 0.635529 0.000000
0.796295 0.638641 0.000000
0.791138 0.626953 0.000000
0.766815 0.571167 0.000000
0.762817 0.562805 0.000000
0.791870 0.643585 0.000000
0.799469 0.669464 0.000000
0.835052 0.747375 0.000000
0.864685 0.810852 0.000000
0.867798 0.809753 0.000000
0.876587 0.826080 0.000000
0.878571 0.826447 0.000000
0.878662 0.828247 0.000000
0.918640 0.910339 0.000000
0.873474 0.825500 0.000000
0.857452 0.799255 0.000000
0.809540 0.692139 0.000000
0.772858 0.613220 0.000000
0.789764 0.649200 0.000000
0.801575 0.675354 0.000000
0.816040 0.708862 0.000000
0.855133 0.804413 0.000000
0.855743 0.806427 0.000000
0.855072 0.803711 0.000000
0.858246 0.801880 0.000000
0.859070 0.801178 0.000000
0.858826 0.806000 0.000000
0.858765 0.808441 0.000000
0.859131 0.808167 0.000000
0.860931 0.809631 0.000000
0.864746 0.813660 0.000000
0.865692 0.812653 0.000000
0.866058 0.814270 0.000000
0.853821 0.783783 0.000000
0.808350 0.674164 0.000000
0.804016 0.656006 0.000000
0.775055 0.592072 0.000000
0.763641 0.569550 0.000000
0.787933 0.626526 0.000000
0.809204 0.677643 0.000000
0.808411 0.676178 0.000000
0.835327 0.736023 0.000000
0.869568 0.817139 0.000000
0.868774 0.813416 0.000000
0.874481 0.823242 0.000000
0.967010 0.993195 0.000000
0.945953 0.945953 0.000000
0.934052 0.927216 0.000000
0.895294 0.860107 0.000000
0.866699 0.818665 0.000000
0.840118 0.749878 0.000000
0.794678 0.649353 0.000000
0.804535 0.672943 0.000000
0.817627 0.707031 0.000000
0.821167 0.715515 0.000000
0.851410 0.789459 0.000000
0.856659 0.807709 0.000000
0.857971 0.802673 0.000000
0.859100 0.796173 0.000000
0.858826 0.798035 0.000000
0.858826 0.805573 0.000000
0.858826 0.808502 0.000000
0.858521 0.808228 0.000000
0.859985 0.806854 0.000000
0.863739 0.808899 0.000000
0.860474 0.806702 0.000000
0.849548 0.785889 0.000000
0.844543 0.777954 0.000000
0.801453 0.663116 0.000000
0.789459 0.632751 0.000000
0.778748 0.602692 0.000000
0.767578 0.574738 0.000000
0.796814 0.641388 0.000000
0.821289 0.700195 0.000000
0.825989 0.710632 0.000000
0.850403 0.769012 0.000000
0.866547 0.810059 0.000000
0.958771 1.000000 0.006470
0.964935 1.000000 0.002625
0.964966 1.000000 0.003632
0.953217 0.961182 0.000000
0.940186 0.941559 0.000000
0.922363 0.911316 0.000000
0.839081 0.736664 0.000000
0.770996 0.596497 0.000000
0.780151 0.616913 0.000000
0.801147 0.668152 0.000000
0.807251 0.682892 0.000000
0.847321 0.784027 0.000000
0.857758 0.811890 0.000000
0.857666 0.802185 0.000000
0.859131 0.801453 0.000000
0.858826 0.800964 0.000000
0.858826 0.804535 0.000000
0.858826 0.808289 0.000000
0.858551 0.808044 0.000000
0.859680 0.807007 0.000000
0.862701 0.807312 0.000000
0.862823 0.810577 0.000000
0.863983 0.803864 0.000000
0.862976 0.799347 0.000000
0.812988 0.684967 0.000000
0.795197 0.651154 0.000000
0.794495 0.651550 0.000000
0.777161 0.607147 0.000000
0.763397 0.572540 0.000000
0.784851 0.621033 0.000000
0.814331 0.690857 0.000000
0.825653 0.715393 0.000000
0.937042 0.182343 0.000000
0.937256 0.175751 0.000000
0.937256 0.177338 0.000000
0.937256 0.177338 0.000000
0.937256 0.177338 0.000000
0.937622 0.175354 0.000000
0.936096 0.183075 0.000000
0.933197 0.197083 0.000000
0.933289 0.196625 0.000000
0.933472 0.196228 0.000000
0.933136 0.196594 0.000000
0.929993 0.200256 0.000000
0.929199 0.201233 0.000000
0.929413 0.202179 0.000000
0.929413 0.185394 0.000000
0.929413 0.174042 0.000000
0.929413 0.175842 0.000000
0.929413 0.175842 0.000000
0.929413 0.175842 0.000000
0.929413 0.175842 0.000000
0.929596 0.174988 0.000000
0.929077 0.177612 0.000000
0.925964 0.192841 0.000000
0.925354 0.195648 0.000000
0.922516 0.198212 0.000000
0.921295 0.199524 0.000000
0.921570 0.199341 0.000000
0.921570 0.201355 0.000000
0.921570 0.188324 0.000000
0.921570 0.172119 0.000000
0.921570 0.174377 0.000000
0.921570 0.174377 0.000000
0.938019 0.202209 0.000000
0.937012 0.184143 0.000000
0.937256 0.175293 0.000000
0.937256 0.177338 0.000000
0.937256 0.177338 0.000000
0.937561 0.175781 0.000000
0.936005 0.183502 0.000000
0.933197 0.197083 0.000000
0.933289 0.196625 0.000000
0.933472 0.196228 0.000000
0.933136 0.196594 0.000000
0.929993 0.200256 0.000000
0.929199 0.201233 0.000000
0.929413 0.202179 0.000000
0.929413 0.185394 0.000000
0.929413 0.174042 0.000000
0.929413 0.175842 0.000000
0.929413 0.175842 0.000000
0.929413 0.175842 0.000000
0.929413 0.175842 0.000000
0.929596 0.174988 0.000000
0.929077 0.177612 0.000000
0.925964 0.192841 0.000000
0.925354 0.195648 0.000000
0.922516 0.198212 0.000000
0.921295 0.199524 0.000000
0.921570 0.199341 0.000000
0.921570 0.201141 0.000000
0.921570 0.188538 0.000000
0.921570 0.172791 0.000000
0.921570 0.174377 0.000000
0.921570 0.174377 0.000000
0.937256 0.182129 0.000000
0.937256 0.175751 0.000000
0.937256 0.177338 0.000000
0.937225 0.177338 0.000000
0.937744 0.174683 0.000000
0.935883 0.184174 0.000000
0.933075 0.197723 0.000000
0.933563 0.196228 0.000000
0.932678 0.197205 0.000000
0.929565 0.200836 0.000000
0.929291 0.201691 0.000000
0.929413 0.200806 0.000000
0.929413 0.181305 0.000000
0.929413 0.174255 0.000000
0.929413 0.175842 0.000000
0.929413 0.175842 0.000000
0.929413 0.175842 0.000000
0.929718 0.174316 0.000000
0.928253 0.181763 0.000000
0.925659 0.195038 0.000000
0.924896 0.195557 0.000000
0.921753 0.199158 0.000000
0.921417 0.199524 0.000000
0.921570 0.199554 0.000000
0.921570 0.200012 0.000000
0.921570 0.182251 0.000000
0.921570 0.172333 0.000000
0.921570 0.174377 0.000000
0.921570 0.174377 0.000000
0.921570 0.174377 0.000000
0.921570 0.174377 0.000000
0.921570 0.174377 0.000000
0.933868 0.193787 0.000000
0.932983 0.198181 0.000000
0.933350 0.196411 0.000000
0.933685 0.196045 0.000000
0.931488 0.198547 0.000000
0.929108 0.203247 0.000000
0.929413 0.193085 0.000000
0.929413 0.175171 0.000000
0.929413 0.175629 0.000000
0.929413 0.175842 0.000000
0.929413 0.175842 0.000000
0.929443 0.175873 0.000000
0.929504 0.175415 0.000000
0.926666 0.189362 0.000000
0.925476 0.195892 0.000000
0.923218 0.197449 0.000000
0.921112 0.199921 0.000000
0.921600 0.199341 0.000000
