res/LUTs/Gladeiator_Warm.CUBE
#Created by: Adobe Photoshop Export Color Lookup Plugin
TITLE "Gladeiator_Warm"
#LUT size
LUT_3D_SIZE 5
#data domain
#LUT data points
DOMAIN_MIN 0.000000 0.000000 0.000000
DOMAIN_MAX 0.903226 0.903226 0.903226
0.658112 0.240204 0.365509
0.598145 0.189911 0.312286
0.722351 0.313049 0.435760
0.582489 0.176453 0.298187
0.804565 0.407196 0.526337
0.781403 0.386505 0.000000
0.806152 0.439880 0.000000
0.842346 0.542908 0.000000
0.821777 0.504578 0.000000
0.844208 0.544312 0.000000
0.781006 0.386505 0.000000
0.862732 0.546570 0.000000
0.774017 0.365845 0.000000
0.870636 0.551788 0.000000
0.848663 0.505554 0.000000
0.918640 0.634918 0.000000
0.816040 0.464203 0.000000
0.858765 0.550995 0.000000
0.808350 0.431793 0.000000
0.835327 0.485565 0.000000
0.663391 0.266022 0.310547
0.665161 0.259460 0.295227
0.659424 0.262146 0.306091
0.655426 0.258240 0.291412
0.655548 0.258179 0.302124
0.943268 0.535797 0.646027
0.658539 0.244904 0.368927
0.583038 0.169067 0.325714
0.631927 0.220947 0.341461
0.912384 0.486694 0.700256
0.789154 0.401703 0.000000
0.802460 0.445496 0.000000
0.841980 0.542053 0.000000
0.822693 0.506958 0.000000
0.843140 0.546509 0.000000
0.792908 0.422577 0.000000
0.862518 0.546448 0.000000
0.767212 0.354401 0.000000
0.871338 0.559906 0.000000
0.850983 0.510040 0.000000
0.921387 0.636383 0.000000
0.819000 0.470886 0.000000
0.861298 0.552399 0.000000
0.795868 0.404541 0.000000
0.835327 0.485565 0.000000
0.663361 0.266083 0.310028
0.659424 0.262146 0.294647
0.659424 0.262146 0.306091
0.655548 0.258179 0.291077
0.655548 0.258179 0.302124
0.818176 0.526337 0.000000
0.701050 0.160583 0.116333
0.775116 0.242676 0.001465
0.861328 0.543793 0.000000
0.837341 0.497589 0.000000
0.795410 0.415771 0.000000
0.793793 0.412018 0.000000
0.841980 0.536316 0.000000
0.809509 0.479065 0.000000
0.843140 0.546112 0.000000
0.788544 0.416412 0.000000
0.861176 0.548737 0.000000
0.772949 0.358368 0.000000
0.870056 0.557587 0.000000
0.833069 0.473480 0.000000
0.920258 0.634033 0.000000
0.805389 0.443787 0.000000
0.858673 0.550934 0.000000
0.845612 0.514893 0.000000
0.814453 0.458923 0.000000
0.666260 0.259796 0.297302
0.659424 0.262146 0.306946
0.662079 0.257111 0.296265
0.655548 0.258179 0.302124
0.656158 0.257874 0.302124
0.727875 0.205933 0.228485
0.844330 0.546875 0.000000
0.765594 0.272705 0.000000
0.858673 0.538971 0.000000
0.849731 0.518219 0.000000
0.796326 0.417603 0.000000
0.788849 0.402893 0.000000
0.841980 0.535706 0.000000
0.810089 0.481384 0.000000
0.843140 0.546112 0.000000
0.784454 0.400848 0.000000
0.863373 0.548889 0.000000
0.768799 0.352692 0.000000
0.870728 0.558655 0.000000
0.833069 0.470032 0.000000
0.980408 0.709930 0.000000
0.813751 0.459717 0.000000
0.858826 0.543671 0.000000
0.845612 0.515076 0.000000
0.814880 0.467133 0.000000
0.677063 0.268188 0.299347
0.669159 0.271881 0.311066
0.664063 0.268463 0.295685
0.661407 0.263641 0.304901
0.614044 0.216614 0.270569
0.874695 0.325012 0.000000
0.610260 0.183167 0.372925
0.850983 0.537903 0.000000
0.858856 0.543488 0.000000
0.866425 0.547424 0.000000
0.790680 0.392059 0.000000
0.811096 0.451294 0.000000
0.841278 0.541626 0.000000
0.810852 0.481049 0.000000
0.843140 0.546112 0.000000
0.772858 0.376617 0.000000
0.862671 0.553284 0.000000
0.786957 0.387909 0.000000
0.870178 0.557037 0.000000
0.816742 0.440460 0.000000
0.980042 0.709900 0.000000
0.813751 0.459717 0.000000
0.858826 0.543671 0.000000
0.847687 0.525879 0.000000
0.816956 0.459351 0.000000
0.502563 0.105286 0.224396
0.502563 0.105286 0.224396
0.503021 0.105072 0.224365
0.497742 0.107574 0.224548
0.494202 0.109558 0.224884
