res/LUTs/Gladeiator_Saturated.CUBE
#Created by: Adobe Photoshop Export Color Lookup Plugin
TITLE "Gladeiator_Saturated"
#LUT size
LUT_3D_SIZE 5
#data domain
#LUT data points
DOMAIN_MIN 0.000000 0.000000 0.000000
DOMAIN_MAX 0.903226 0.903226 0.903226
0.898346 0.000000 0.000000
0.788055 0.000000 0.000000
1.000000 0.035400 0.035400
0.758942 0.000000 0.000000
1.000000 0.211761 0.211761
0.781403 0.620758 0.000000
0.806152 0.681580 0.000000
0.842346 0.795471 0.000000
0.821777 0.750946 0.000000
0.844208 0.797424 0.000000
0.781006 0.620636 0.000000
0.862732 0.805237 0.000000
0.774017 0.597900 0.000000
0.870636 0.812805 0.000000
0.848663 0.759979 0.000000
0.918640 0.910339 0.000000
0.816040 0.708862 0.000000
0.858765 0.808441 0.000000
0.808350 0.674164 0.000000
0.835327 0.736023 0.000000
0.929413 0.174500 0.000000
0.924652 0.195709 0.000000
0.921570 0.174377 0.000000
0.913666 0.197632 0.000000
0.913727 0.172882 0.000000
1.000000 0.494324 0.479065
0.903442 0.000000 0.000000
0.752136 0.000000 0.059143
0.852905 0.005615 0.000000
1.000000 0.399109 0.520416
0.789154 0.638306 0.000000
0.802460 0.686096 0.000000
0.841980 0.794495 0.000000
0.822693 0.753601 0.000000
0.843140 0.799286 0.000000
0.792908 0.660309 0.000000
0.862518 0.805023 0.000000
0.767212 0.584412 0.000000
0.871338 0.821136 0.000000
0.850983 0.765167 0.000000
0.921387 0.912628 0.000000
0.819000 0.716431 0.000000
0.861298 0.810608 0.000000
0.795868 0.643158 0.000000
0.835327 0.736023 0.000000
0.929443 0.175873 0.000000
0.921570 0.200928 0.000000
0.921570 0.174377 0.000000
0.913727 0.198303 0.000000
0.913727 0.172882 0.000000
0.818176 0.771637 0.000000
0.817413 0.306915 0.000000
0.776611 0.474945 0.000000
0.861328 0.802032 0.000000
0.837341 0.748627 0.000000
0.795410 0.654236 0.000000
0.793793 0.649994 0.000000
0.841980 0.788727 0.000000
0.809509 0.721771 0.000000
0.843140 0.798889 0.000000
0.788544 0.652832 0.000000
0.861176 0.806946 0.000000
0.772949 0.590088 0.000000
0.870056 0.818451 0.000000
0.833069 0.723236 0.000000
0.920258 0.909912 0.000000
0.805389 0.685242 0.000000
0.858673 0.808350 0.000000
0.845612 0.768402 0.000000
0.814453 0.703094 0.000000
0.926086 0.192169 0.000000
0.921570 0.172333 0.000000
0.919189 0.186707 0.000000
0.913727 0.172882 0.000000
0.914063 0.172516 0.000000
0.933838 0.239624 0.000000
0.844330 0.800018 0.000000
0.765594 0.502228 0.000000
0.858673 0.796417 0.000000
0.849731 0.772980 0.000000
0.796326 0.656342 0.000000
0.788849 0.639404 0.000000
0.841980 0.788116 0.000000
0.810089 0.724243 0.000000
0.843140 0.798889 0.000000
0.784454 0.636017 0.000000
0.863373 0.807739 0.000000
0.768799 0.583160 0.000000
0.870728 0.819702 0.000000
0.833069 0.719788 0.000000
0.956940 0.980408 0.000000
0.813751 0.703674 0.000000
0.858826 0.801178 0.000000
0.845612 0.768616 0.000000
0.814880 0.711426 0.000000
0.945282 0.211395 0.000000
0.941040 0.189301 0.000000
0.932556 0.215393 0.000000
0.925049 0.181366 0.000000
0.830688 0.136292 0.000000
0.874695 0.587250 0.000000
0.793427 0.000000 0.114685
0.850983 0.793030 0.000000
0.858856 0.800995 0.000000
0.866425 0.807190 0.000000
0.790680 0.629120 0.000000
0.811096 0.694458 0.000000
0.841278 0.793823 0.000000
0.810852 0.724152 0.000000
0.843140 0.798889 0.000000
0.772858 0.608337 0.000000
0.862671 0.811920 0.000000
0.786957 0.623840 0.000000
0.870178 0.817902 0.000000
0.816742 0.685333 0.000000
0.956360 0.980042 0.000000
0.813751 0.703674 0.000000
0.858826 0.801178 0.000000
0.847687 0.779999 0.000000
0.816956 0.704254 0.000000
0.607849 0.000000 0.000000
0.607849 0.000000 0.000000
0.608093 0.000000 0.000000
0.605316 0.000000 0.000000
0.603790 0.000000 0.000000
