res/LUTs/Gladeiator_Warm.CUBE
#Created by: Adobe Photoshop Export Color Lookup Plugin
TITLE "Gladeiator_Warm"
#LUT size
LUT_3D_SIZE 8
#data domain
#LUT data points
DOMAIN_MIN 0.000000 0.000000 0.000000
DOMAIN_MAX 0.903226 0.903226 0.903226
0.658112 0.240204 0.365509
0.623138 0.211151 0.334656
0.595673 0.187714 0.310028
0.696777 0.287231 0.410004
0.644958 0.234070 0.357269
0.759552 0.360260 0.479980
0.537506 0.129456 0.251801
0.804565 0.407196 0.526337
0.782562 0.401794 0.000000
0.850098 0.538788 0.000000
0.851624 0.539764 0.000000
0.835052 0.539642 0.000000
0.837128 0.538330 0.000000
0.795563 0.439941 0.000000
0.859619 0.540405 0.000000
0.869232 0.553680 0.000000
0.750977 0.312775 0.000000
0.513092 0.087067 0.296661
0.760376 0.368500 0.000000
0.829285 0.509796 0.000000
0.849518 0.542969 0.000000
0.809113 0.478638 0.000000
0.844360 0.549377 0.000000
0.843140 0.546112 0.000000
0.809998 0.445923 0.000000
0.861328 0.546326 0.000000
0.859497 0.542236 0.000000
0.773163 0.215363 0.000000
0.863525 0.286926 0.000000
0.881195 0.297546 0.000000
0.844421 0.235443 0.000000
0.872253 0.559204 0.000000
0.779114 0.388428 0.000000
0.864716 0.555634 0.000000
0.859772 0.544708 0.000000
0.850677 0.530212 0.000000
0.783081 0.386963 0.000000
0.844574 0.501465 0.000000
0.870483 0.565308 0.000000
0.853180 0.515747 0.000000
0.915710 0.624420 0.000000
0.793610 0.404541 0.000000
0.854736 0.542358 0.000000
0.858826 0.550812 0.000000
0.858887 0.544556 0.000000
0.796295 0.399902 0.000000
0.791870 0.406189 0.000000
0.867798 0.549591 0.000000
0.666870 0.270172 0.311920
0.667267 0.269989 0.313934
0.670715 0.262573 0.298950
0.662964 0.266205 0.299225
0.663391 0.266022 0.309967
0.663208 0.266357 0.310638
0.661194 0.261322 0.295288
0.659424 0.262146 0.300079
0.663391 0.266022 0.310547
0.664948 0.262665 0.303131
0.659241 0.262207 0.295349
0.659424 0.262146 0.306671
0.659424 0.262146 0.306091
0.655914 0.257965 0.291290
0.655548 0.258179 0.291077
0.655548 0.258179 0.302124
0.811859 0.401306 0.525299
0.741638 0.338928 0.459656
0.622772 0.205933 0.330902
0.735718 0.328003 0.450226
0.841797 0.435577 0.557373
0.624817 0.205811 0.331421
0.489532 0.081818 0.204041
0.913788 0.505829 0.628723
0.781708 0.399628 0.000000
0.848267 0.531189 0.000000
0.850037 0.544556 0.000000
0.834442 0.540070 0.000000
0.839722 0.536316 0.000000
0.796204 0.441437 0.000000
0.861237 0.550903 0.000000
0.869202 0.553436 0.000000
0.581787 0.173309 0.295776
0.571838 0.164215 0.286407
0.524841 0.116791 0.239136
0.793488 0.436462 0.000000
0.854828 0.555145 0.000000
0.789398 0.434204 0.000000
0.844360 0.549377 0.000000
0.844055 0.553925 0.000000
0.810242 0.446869 0.000000
0.860718 0.545319 0.000000
0.859344 0.538361 0.000000
0.767761 0.288300 0.000000
0.845642 0.262207 0.000000
0.858673 0.287628 0.000000
0.829468 0.228210 0.000000
0.872253 0.559204 0.000000
0.779053 0.386871 0.000000
0.862885 0.553619 0.000000
0.859467 0.544525 0.000000
0.850555 0.529938 0.000000
0.778351 0.371307 0.000000
0.844971 0.502319 0.000000
0.870483 0.565308 0.000000
0.852325 0.515228 0.000000
0.895020 0.604187 0.000000
0.798889 0.414276 0.000000
0.855286 0.549377 0.000000
0.858826 0.549133 0.000000
0.858704 0.544037 0.000000
0.794373 0.404755 0.000000
0.794708 0.410156 0.000000
0.861328 0.538971 0.000000
0.666870 0.270172 0.305908
0.667267 0.269989 0.313934
0.670715 0.262573 0.298950
0.662964 0.266205 0.299225
0.663391 0.266022 0.309967
0.663208 0.266357 0.310638
0.661194 0.261322 0.295288
0.659424 0.262146 0.294556
0.663391 0.266022 0.309967
0.667206 0.257813 0.293304
0.659363 0.262177 0.294769
0.659424 0.262146 0.306091
0.659119 0.262756 0.307373
0.655487 0.258209 0.291382
0.655548 0.258179 0.300171
0.655548 0.258179 0.302124
0.957336 0.550537 0.662567
0.805054 0.401337 0.522369
0.761902 0.354950 0.473572
0.847229 0.433746 0.633514
1.000000 0.476257 0.408051
0.601624 0.171600 0.362579
0.886353 0.339233 0.273224
0.947632 0.412048 0.351654
0.772278 0.389526 0.000000
0.843109 0.520569 0.000000
0.848663 0.543060 0.000000
0.835541 0.539154 0.000000
0.839783 0.537781 0.000000
0.819092 0.486938 0.000000
0.841217 0.535004 0.000000
0.869476 0.553192 0.000000
0.634064 0.225098 0.347809
0.617065 0.207672 0.330414
0.545990 0.138947 0.262360
0.524841 0.116119 0.238159
0.577301 0.168335 0.290955
0.576111 0.167480 0.293793
0.576202 0.167389 0.292755
0.584015 0.175049 0.297363
0.809326 0.445374 0.000000
0.860718 0.551605 0.000000
0.859100 0.537567 0.000000
0.770416 0.352112 0.000000
0.828918 0.247314 0.000000
0.860352 0.288391 0.000000
0.833832 0.249573 0.000000
0.870758 0.555908 0.000000
0.779297 0.386414 0.000000
0.862549 0.551941 0.000000
0.859467 0.544525 0.000000
0.850800 0.530518 0.000000
0.778595 0.372009 0.000000
0.838562 0.495453 0.000000
0.870483 0.565308 0.000000
0.873718 0.563141 0.000000
0.889709 0.597107 0.000000
0.800629 0.417511 0.000000
0.855042 0.543182 0.000000
0.858826 0.549133 0.000000
0.860931 0.553009 0.000000
0.798676 0.414551 0.000000
0.793365 0.410431 0.000000
0.863434 0.543030 0.000000
0.666870 0.270172 0.303009
0.667267 0.269989 0.313934
0.670715 0.262573 0.298950
0.662964 0.266205 0.299225
0.663391 0.266022 0.309967
0.663208 0.266357 0.310638
0.661194 0.261322 0.295288
0.659424 0.262146 0.294556
0.663361 0.266083 0.310028
0.667694 0.258301 0.295197
0.659424 0.262146 0.296387
0.659424 0.262146 0.306091
0.661438 0.258820 0.300018
0.655548 0.258179 0.291351
0.655548 0.258179 0.302795
0.655548 0.258179 0.302124
0.799408 0.270416 0.225739
0.757355 0.411774 0.000000
0.824402 0.535583 0.000000
0.779755 0.253967 0.044464
0.815765 0.458679 0.000000
0.516663 0.073669 0.357239
0.840576 0.504028 0.000000
0.839478 0.501709 0.000000
0.793640 0.430328 0.000000
0.850647 0.536011 0.000000
0.831177 0.530853 0.000000
0.835541 0.534851 0.000000
0.840820 0.540283 0.000000
0.820526 0.492798 0.000000
0.843628 0.540863 0.000000
0.873108 0.553162 0.000000
0.672455 0.263062 0.385803
0.619751 0.209198 0.332275
0.626648 0.220184 0.341949
0.525848 0.117218 0.239716
0.633026 0.223633 0.346375
0.712036 0.303986 0.426331
0.689606 0.281708 0.403992
0.730804 0.332184 0.451691
0.792908 0.409027 0.000000
0.860718 0.544891 0.000000
0.850098 0.525909 0.000000
0.780670 0.373566 0.000000
0.828552 0.246796 0.000000
0.867493 0.297974 0.000000
0.830109 0.235504 0.000000
0.874420 0.563812 0.000000
0.796753 0.419189 0.000000
0.862610 0.551971 0.000000
0.859467 0.544525 0.000000
0.847473 0.513123 0.000000
0.777985 0.371338 0.000000
0.837494 0.492981 0.000000
0.870483 0.565308 0.000000
0.873444 0.562531 0.000000
0.913513 0.628937 0.000000
0.802704 0.432312 0.000000
0.855042 0.543182 0.000000
0.858826 0.549133 0.000000
0.860931 0.549866 0.000000
0.805634 0.427979 0.000000
0.793884 0.412048 0.000000
0.869934 0.557739 0.000000
0.666870 0.270172 0.303009
0.667267 0.269989 0.313934
0.670715 0.262573 0.298950
0.662964 0.266205 0.299225
0.663391 0.266022 0.309967
0.663208 0.266357 0.310638
0.661194 0.261322 0.295288
0.659424 0.262146 0.294556
0.663544 0.265686 0.309296
0.662903 0.260529 0.295319
0.659424 0.262146 0.306183
0.659424 0.262146 0.306091
0.659760 0.255798 0.290222
0.655548 0.258179 0.291077
0.655548 0.258179 0.302124
0.655579 0.258148 0.302094
0.827698 0.513885 0.000000
0.818298 0.413147 0.000000
0.824219 0.313507 0.000000
0.854034 0.549835 0.000000
0.673645 0.143799 0.061096
0.866333 0.560486 0.000000
0.832550 0.491272 0.000000
0.837341 0.499023 0.000000
0.776764 0.388397 0.000000
0.855377 0.546509 0.000000
0.847565 0.542358 0.000000
0.835236 0.533844 0.000000
0.839417 0.536713 0.000000
0.787964 0.426880 0.000000
0.834412 0.521912 0.000000
0.841248 0.541382 0.000000
0.693024 0.285797 0.407898
0.629211 0.223511 0.341675
0.665863 0.262909 0.382233
0.571655 0.163269 0.285706
0.557434 0.149963 0.272125
0.705933 0.297974 0.420288
0.706116 0.297882 0.420258
0.740814 0.337433 0.458374
0.789490 0.401093 0.000000
0.862091 0.548492 0.000000
0.861298 0.545868 0.000000
0.769623 0.361145 0.000000
0.830719 0.249451 0.000000
0.868958 0.299774 0.000000
0.830658 0.412292 0.000000
0.877167 0.570068 0.000000
0.790680 0.411926 0.000000
0.845154 0.518738 0.000000
0.859589 0.544373 0.000000
0.846527 0.514191 0.000000
0.777374 0.368958 0.000000
0.837494 0.492981 0.000000
0.870605 0.565186 0.000000
0.872650 0.560974 0.000000
0.915894 0.632355 0.000000
0.800568 0.425110 0.000000
0.855164 0.542816 0.000000
0.858978 0.549011 0.000000
0.863068 0.550171 0.000000
0.805634 0.427979 0.000000
0.770508 0.348389 0.000000
0.870239 0.557922 0.000000
0.668793 0.269257 0.303009
0.667267 0.269989 0.313934
0.670715 0.262573 0.298950
0.662964 0.266205 0.299225
0.663391 0.266022 0.309967
0.663208 0.266357 0.310638
0.661194 0.261322 0.295288
0.659424 0.262146 0.298035
0.666748 0.258850 0.295502
0.659241 0.262207 0.294769
0.659424 0.262146 0.306091
0.659302 0.262360 0.306549
0.654907 0.258484 0.291382
0.655548 0.258179 0.299133
0.655548 0.258179 0.302124
0.653259 0.259918 0.303894
0.851349 0.475555 0.000000
0.799866 0.465363 0.000000
0.843384 0.539276 0.000000
0.563995 0.143250 0.322693
0.777039 0.341278 0.000000
0.855377 0.540466 0.000000
0.841553 0.506439 0.000000
0.849213 0.517273 0.000000
0.776947 0.389435 0.000000
0.843628 0.539215 0.000000
0.852722 0.544617 0.000000
0.835754 0.534180 0.000000
0.839539 0.537018 0.000000
0.789795 0.430389 0.000000
0.839508 0.537201 0.000000
0.843445 0.542175 0.000000
0.687866 0.279144 0.401672
0.651917 0.235413 0.360291
0.622528 0.213715 0.337067
0.560638 0.150330 0.273346
0.508423 0.100372 0.222717
0.738037 0.329987 0.452332
0.761902 0.356201 0.477844
0.715271 0.313080 0.433655
0.790253 0.403046 0.000000
0.861664 0.547180 0.000000
0.861389 0.545929 0.000000
0.768768 0.359802 0.000000
0.842010 0.262726 0.000000
0.865540 0.293518 0.000000
0.831116 0.480499 0.000000
0.876892 0.569458 0.000000
0.788452 0.405975 0.000000
0.844788 0.522003 0.000000
0.859497 0.544525 0.000000
0.859009 0.551971 0.000000
0.772858 0.367004 0.000000
0.837494 0.493988 0.000000
0.870605 0.565186 0.000000
0.877625 0.563934 0.000000
0.905396 0.619141 0.000000
0.794769 0.412720 0.000000
0.855255 0.548309 0.000000
0.859070 0.548859 0.000000
0.865509 0.551514 0.000000
0.800903 0.418060 0.000000
0.764771 0.341309 0.000000
0.870178 0.557892 0.000000
0.668671 0.269318 0.302948
0.667267 0.269989 0.313934
0.670715 0.262573 0.298950
0.662964 0.266205 0.299225
0.663391 0.266022 0.309967
0.663208 0.266357 0.310638
0.661194 0.261322 0.295288
0.659424 0.262146 0.299988
0.666901 0.258667 0.295135
0.659424 0.262146 0.300934
0.659424 0.262146 0.306091
0.662079 0.256531 0.294861
0.655548 0.258179 0.291443
0.655060 0.257629 0.301880
0.666840 0.269409 0.307831
0.660461 0.268280 0.297485
0.830353 0.515320 0.000000
0.665314 0.237457 0.494415
0.843567 0.486053 0.000000
0.829163 0.417419 0.000000
0.863922 0.566101 0.000000
0.861877 0.540985 0.000000
0.832428 0.483063 0.000000
0.865997 0.544006 0.000000
0.771240 0.378845 0.000000
0.853638 0.542694 0.000000
0.803101 0.481354 0.000000
0.835754 0.534180 0.000000
0.839050 0.536896 0.000000
0.785828 0.420166 0.000000
0.838501 0.534088 0.000000
0.843201 0.542236 0.000000
0.700043 0.290894 0.413544
0.665680 0.254944 0.378082
0.669128 0.261902 0.384094
0.598267 0.191956 0.313782
0.603058 0.195007 0.317352
0.739990 0.324341 0.448944
0.805603 0.409180 0.528015
0.804352 0.406982 0.526123
0.790253 0.403229 0.000000
0.861664 0.550323 0.000000
0.861694 0.545288 0.000000
0.769073 0.356171 0.000000
0.813629 0.227631 0.000000
0.865631 0.326935 0.000000
0.814606 0.440521 0.000000
0.876892 0.569458 0.000000
0.788361 0.405914 0.000000
0.842712 0.514771 0.000000
0.859497 0.544525 0.000000
0.859222 0.552338 0.000000
0.773346 0.367615 0.000000
0.838715 0.501465 0.000000
0.872253 0.566254 0.000000
0.874512 0.557037 0.000000
0.903534 0.617859 0.000000
0.780396 0.388306 0.000000
0.855103 0.548004 0.000000
0.859070 0.548859 0.000000
0.865021 0.550781 0.000000
0.850555 0.525146 0.000000
0.764771 0.341309 0.000000
0.868591 0.560669 0.000000
0.668671 0.269318 0.302948
0.667267 0.269989 0.313934
0.670715 0.262573 0.298950
0.662964 0.266205 0.299225
0.663391 0.266022 0.309967
0.663208 0.266357 0.310638
0.661194 0.261322 0.295288
0.659424 0.262146 0.299988
0.505371 0.096405 0.221497
0.505432 0.096466 0.221375
0.504425 0.096954 0.221313
0.499420 0.098724 0.221405
0.499268 0.098816 0.221405
0.498566 0.098969 0.221100
0.502563 0.105286 0.224396
0.502563 0.105286 0.224396
0.874695 0.325012 0.000000
0.744446 0.170319 0.064209
0.606171 0.190430 0.348572
0.858154 0.562103 0.000000
0.850494 0.545685 0.000000
0.858795 0.538635 0.000000
0.826477 0.479614 0.000000
0.866425 0.547424 0.000000
0.772583 0.379120 0.000000
0.840179 0.517731 0.000000
0.804077 0.483521 0.000000
0.835602 0.534088 0.000000
0.840210 0.540527 0.000000
0.787659 0.423828 0.000000
0.838745 0.534668 0.000000
0.843140 0.541992 0.000000
0.705627 0.295807 0.418671
0.688019 0.281219 0.403168
0.618408 0.212097 0.333801
0.665985 0.263611 0.384155
0.716309 0.314514 0.434967
0.694336 0.286285 0.408630
0.692780 0.284485 0.406891
0.793793 0.391174 0.511871
0.790222 0.403992 0.000000
0.861145 0.551239 0.000000
0.861694 0.545074 0.000000
0.774841 0.361694 0.000000
0.816742 0.231689 0.000000
0.864136 0.446625 0.000000
0.811890 0.436066 0.000000
0.876892 0.569458 0.000000
0.785370 0.402649 0.000000
0.842743 0.514374 0.000000
0.859497 0.544525 0.000000
0.859192 0.552307 0.000000
0.773865 0.368042 0.000000
0.807465 0.434692 0.000000
0.872559 0.566864 0.000000
0.874512 0.556824 0.000000
0.919067 0.635895 0.000000
0.772736 0.381287 0.000000
0.855133 0.548035 0.000000
0.859070 0.543213 0.000000
0.860321 0.551147 0.000000
0.853851 0.527618 0.000000
0.764771 0.341309 0.000000
0.832703 0.479767 0.000000
0.668671 0.269318 0.302948
0.667267 0.269989 0.313934
0.670715 0.262573 0.298950
0.662964 0.266205 0.299225
0.663391 0.266022 0.309967
0.663208 0.266357 0.310638
0.661194 0.261322 0.295288
0.659424 0.262146 0.299988
0.502563 0.105286 0.224396
0.502563 0.105286 0.224396
0.502563 0.105286 0.224396
0.502899 0.105133 0.224396
0.503021 0.105072 0.224365
0.497864 0.107452 0.224487
0.497650 0.107971 0.224792
0.494202 0.109558 0.224884
