res/LUTs/Gladeiator_Cool.CUBE
#Created by: Adobe Photoshop Export Color Lookup Plugin
TITLE "Cool"
#LUT size
LUT_3D_SIZE 32
#data domain
DOMAIN_MIN 0.0 0.0 0.0
DOMAIN_MAX 1.0 1.0 1.0
#LUT data points
0.346771 0.488708 0.386963
0.359131 0.500763 0.399231
0.358917 0.500092 0.398895
0.324615 0.466248 0.364716
0.317993 0.457916 0.357605
0.342865 0.480530 0.381866
0.334625 0.472809 0.373749
0.297119 0.435791 0.336395
0.295013 0.433563 0.334259
0.396820 0.535431 0.436066
0.397522 0.536041 0.436737
0.389557 0.528168 0.428802
0.388031 0.527130 0.427429
0.391724 0.531036 0.431183
0.411957 0.550964 0.451324
0.298431 0.439880 0.338501
0.338989 0.478546 0.378510
0.396118 0.534363 0.435272
0.348755 0.490051 0.388763
0.520630 0.658142 0.559570
0.452911 0.588531 0.491333
0.283966 0.421875 0.323029
0.471771 0.607086 0.510101
0.348969 0.486023 0.387787
0.240845 0.379456 0.280090
0.220093 0.358948 0.259430
0.393036 0.529449 0.431671
0.516846 0.651489 0.554962
0.496002 0.630951 0.534210
0.495972 0.630951 0.534210
0.496307 0.630951 0.534424
0.495453 0.631226 0.533905
0.174774 0.539795 0.615570
0.163452 0.553711 0.609589
0.252167 0.503601 0.452911
0.283966 0.432526 0.292206
0.290344 0.434875 0.307953
0.288757 0.430389 0.312561
0.234070 0.511932 0.492676
0.145905 0.532837 0.639313
0.146759 0.530182 0.638458
0.150208 0.529633 0.634644
0.152985 0.527893 0.634674
0.153320 0.532562 0.637695
0.153168 0.534088 0.638489
0.153168 0.533661 0.638245
0.153168 0.533905 0.638245
0.153168 0.531219 0.637970
0.153168 0.532623 0.639923
0.153168 0.536743 0.642151
0.153168 0.535858 0.641632
0.153168 0.537872 0.642700
0.153168 0.542023 0.645508
0.153625 0.538788 0.645874
0.152893 0.539246 0.645416
0.141052 0.552521 0.639526
0.128937 0.558289 0.631989
0.125885 0.558655 0.629913
0.135681 0.550171 0.634583
0.149078 0.544220 0.644470
0.153992 0.545502 0.649994
0.153168 0.543945 0.649170
0.153168 0.541504 0.649170
0.153168 0.540802 0.649170
0.129059 0.549194 0.619202
0.113770 0.565186 0.612549
0.110321 0.565979 0.611511
0.120148 0.558319 0.616089
0.133301 0.546997 0.623596
0.143768 0.535034 0.630737
0.149933 0.529358 0.635010
0.150421 0.529938 0.634399
0.153198 0.532349 0.635193
0.153229 0.536774 0.638123
0.153168 0.534241 0.638367
0.153168 0.533539 0.638214
0.153168 0.532532 0.638153
0.153168 0.534973 0.640808
0.153168 0.536652 0.642181
0.153168 0.536530 0.641876
0.153168 0.534149 0.641602
0.153168 0.534607 0.643250
0.153168 0.539093 0.645752
0.153809 0.539032 0.645966
0.151581 0.538422 0.644287
0.143372 0.537842 0.639160
0.140991 0.544373 0.640930
0.126984 0.563141 0.635956
0.131195 0.563965 0.636932
0.134918 0.561951 0.638123
0.143341 0.552124 0.642242
0.152466 0.542175 0.647888
0.153473 0.541473 0.649475
0.153168 0.540100 0.649078
0.153168 0.538055 0.649384
0.153168 0.540985 0.650970
0.122162 0.555756 0.616180
0.111481 0.567596 0.608368
0.122406 0.551514 0.615997
0.126495 0.542297 0.619568
0.137360 0.533203 0.624420
0.152649 0.522705 0.632782
0.153381 0.531067 0.636078
0.153168 0.538361 0.638611
0.153168 0.537720 0.638275
0.153168 0.536743 0.638245
0.153168 0.531891 0.638245
0.153168 0.529968 0.638214
0.153168 0.529846 0.638184
0.153168 0.532593 0.639740
0.153168 0.535461 0.641296
0.153168 0.537933 0.643982
0.153168 0.538666 0.645538
0.153168 0.541321 0.646912
0.153442 0.545776 0.649597
0.153870 0.543030 0.649048
0.145813 0.544464 0.643951
0.124298 0.562286 0.634521
0.124054 0.563080 0.634766
0.146515 0.549500 0.647461
0.151550 0.546692 0.650330
0.149231 0.546448 0.648926
0.151733 0.544769 0.651398
0.153473 0.542114 0.653137
0.153168 0.540009 0.652863
0.153168 0.542084 0.652863
0.153168 0.543304 0.652863
0.153168 0.540863 0.652863
0.113495 0.566010 0.614319
0.102661 0.572021 0.606873
0.121185 0.558350 0.620117
0.144043 0.540161 0.632751
0.153259 0.532410 0.637360
0.153381 0.533691 0.638519
0.153168 0.533661 0.638245
0.153168 0.533905 0.638245
0.153320 0.533478 0.638702
0.152893 0.529663 0.637421
0.150330 0.522858 0.629730
0.149506 0.517670 0.626709
0.149536 0.517609 0.627106
0.149536 0.517822 0.627350
0.149536 0.517426 0.627289
0.149536 0.517090 0.627014
0.149536 0.520599 0.628998
0.149536 0.523193 0.631287
0.151611 0.518433 0.631805
0.143066 0.527618 0.628601
0.120056 0.551880 0.619843
0.119141 0.552582 0.619385
0.121307 0.553925 0.623016
0.135681 0.551422 0.639038
0.147949 0.544952 0.651550
0.152802 0.538727 0.653656
0.153473 0.536377 0.652649
0.153168 0.542816 0.655060
0.153168 0.544769 0.655212
0.153168 0.540436 0.652618
0.153168 0.539520 0.652863
0.153168 0.536560 0.652649
0.117157 0.561523 0.615417
0.110535 0.573181 0.613983
0.128723 0.550964 0.622711
0.146606 0.540253 0.634155
0.150421 0.538544 0.639130
0.150848 0.531006 0.639282
0.145477 0.536835 0.636139
0.132660 0.539703 0.622589
0.133179 0.525208 0.613800
0.145508 0.517487 0.622833
0.149689 0.518311 0.624207
0.149719 0.520630 0.626740
0.149536 0.521118 0.627258
0.149536 0.523010 0.629822
0.149536 0.523987 0.631256
0.150116 0.522827 0.630951
0.146179 0.529510 0.630951
0.141754 0.537201 0.630951
0.143768 0.535217 0.631714
0.137451 0.539612 0.628571
0.119659 0.552582 0.619720
0.121429 0.549530 0.620422
0.136597 0.527954 0.626373
0.139130 0.523865 0.627319
0.143921 0.528229 0.632782
0.148956 0.527466 0.635132
0.149841 0.526428 0.634583
0.149536 0.524445 0.634583
0.149536 0.522430 0.634583
0.149536 0.522675 0.634583
0.149536 0.522430 0.634583
0.149536 0.523376 0.634583
0.107910 0.582153 0.618286
0.127380 0.554871 0.627808
0.147156 0.546234 0.639526
0.151245 0.547455 0.643158
0.149780 0.541046 0.642151
0.150574 0.536591 0.641754
0.135162 0.546600 0.631836
0.110992 0.566437 0.619873
0.115326 0.563995 0.624390
0.127960 0.551544 0.629852
0.132660 0.552673 0.635101
0.150085 0.546906 0.647461
0.154541 0.545532 0.650513
0.150635 0.530182 0.636292
0.149261 0.521729 0.629303
0.150116 0.526703 0.633209
0.146179 0.533447 0.633209
0.143433 0.536316 0.631836
0.135925 0.537537 0.626678
0.119720 0.542114 0.616028
0.117096 0.547760 0.615540
0.117371 0.550598 0.616669
0.135864 0.528564 0.625946
0.139709 0.524048 0.627838
0.146973 0.526337 0.632874
0.150330 0.523743 0.635132
0.149536 0.522308 0.634583
0.149536 0.522675 0.634583
0.149536 0.522675 0.634583
0.149536 0.522675 0.634583
0.149078 0.521454 0.633148
0.150909 0.526154 0.638672
0.107574 0.579437 0.619141
0.127716 0.561462 0.630432
0.143555 0.547211 0.640228
0.150940 0.541656 0.644562
0.156128 0.537842 0.647034
0.141541 0.545959 0.639740
0.123444 0.555908 0.630707
0.119934 0.564178 0.629791
0.109222 0.577606 0.621216
0.111847 0.559601 0.611572
0.114594 0.556580 0.613190
0.137878 0.536713 0.628296
0.145660 0.530151 0.632019
0.148224 0.523010 0.630798
0.150177 0.523315 0.633240
0.147858 0.525604 0.634888
0.143768 0.530060 0.634521
0.144867 0.533905 0.636230
0.136261 0.539581 0.631165
0.114716 0.556610 0.619171
0.119629 0.552612 0.620911
0.137390 0.530426 0.626862
0.139374 0.528015 0.627533
0.141846 0.528107 0.629242
0.148132 0.525787 0.634552
0.150055 0.525116 0.636353
0.149536 0.525238 0.635895
0.149536 0.525238 0.635895
0.149445 0.524963 0.635712
0.150085 0.526825 0.637024
0.150574 0.529663 0.637939
0.149536 0.529144 0.635895
0.148682 0.549744 0.549438
0.205505 0.450958 0.389954
0.217438 0.359406 0.232758
0.219360 0.360321 0.248016
0.206757 0.351410 0.219940
0.215088 0.357635 0.237457
0.191010 0.482452 0.462524
0.123413 0.558716 0.635468
0.102142 0.570892 0.605011
0.102814 0.568726 0.604095
0.123047 0.551025 0.616028
0.127136 0.547333 0.618317
0.142792 0.532410 0.628448
0.150452 0.524536 0.630493
0.147034 0.524780 0.632080
0.147919 0.527008 0.637115
0.150238 0.531036 0.639801
0.136078 0.541473 0.632782
0.118591 0.552002 0.622925
0.121368 0.548004 0.623383
0.128540 0.537476 0.623962
0.134308 0.536316 0.627319
0.135742 0.540314 0.630981
0.147125 0.526215 0.634186
0.150452 0.521667 0.634827
0.149536 0.522675 0.634583
0.149536 0.522675 0.634583
0.149536 0.522675 0.634583
0.149536 0.522675 0.634583
0.149536 0.522675 0.634583
0.149780 0.522919 0.634827
0.148834 0.521973 0.633881
0.398682 0.536591 0.437744
0.473389 0.609558 0.511963
0.418579 0.557617 0.457947
0.428772 0.568420 0.468323
0.420898 0.557343 0.459534
0.402924 0.538330 0.441284
0.454803 0.590729 0.493286
0.350891 0.489868 0.390259
0.298157 0.439331 0.338135
0.363464 0.501007 0.402405
0.448242 0.583435 0.486542
0.286194 0.424072 0.325256
0.225220 0.364075 0.264557
0.253662 0.391937 0.292816
0.420990 0.556824 0.459473
0.518951 0.653473 0.557037
0.499268 0.634674 0.537628
0.505310 0.640594 0.543610
0.472626 0.608307 0.511047
0.437103 0.575531 0.476318
0.465210 0.603302 0.504303
0.392639 0.528076 0.431000
0.381714 0.519928 0.420868
0.395721 0.534698 0.435089
0.391541 0.530304 0.430847
0.663300 0.802277 0.702667
0.673889 0.810486 0.712585
0.548462 0.683258 0.586639
0.564758 0.699677 0.602966
0.562897 0.697876 0.601135
0.560913 0.695862 0.599121
0.561005 0.695923 0.599213
0.139435 0.550812 0.638397
0.148651 0.542450 0.643280
0.150574 0.545258 0.646606
0.153778 0.545532 0.649780
0.153168 0.543610 0.649048
0.155060 0.537750 0.649841
0.146149 0.544647 0.645020
0.128235 0.561768 0.637329
0.121368 0.568604 0.636536
0.108368 0.588806 0.627197
0.098602 0.603973 0.620422
0.098083 0.604095 0.619629
0.109802 0.567810 0.617096
0.112427 0.556030 0.615204
0.133575 0.539795 0.627747
0.148834 0.526978 0.636353
0.144226 0.527222 0.632935
0.143341 0.523560 0.631531
0.143402 0.553131 0.651947
0.105499 0.472656 0.544830
0.036407 0.219849 0.274872
0.035095 0.208679 0.266327
0.042938 0.210541 0.288574
0.044098 0.210693 0.293152
0.046539 0.208954 0.300079
0.047302 0.207153 0.302460
0.051819 0.222137 0.313416
0.055298 0.232239 0.324310
0.054718 0.229828 0.324890
0.054718 0.229919 0.324585
0.048004 0.210724 0.304443
0.074585 0.285522 0.383820
0.129272 0.559875 0.631775
0.136108 0.558899 0.637756
0.146912 0.549042 0.645905
0.154663 0.538574 0.649323
0.153168 0.540375 0.649872
0.153473 0.541321 0.652100
0.152802 0.544983 0.652283
0.148834 0.550110 0.651611
0.133087 0.560364 0.643036
0.106964 0.590820 0.628113
0.104218 0.588806 0.625031
0.099487 0.591461 0.620728
0.103424 0.588531 0.622345
0.112823 0.579102 0.627350
0.131165 0.555084 0.640076
0.139221 0.640961 0.646271
0.145325 0.648621 0.585571
0.155609 0.655853 0.620544
0.153900 0.676239 0.633514
0.115692 0.567444 0.510101
0.047150 0.300140 0.228546
0.041931 0.287842 0.208527
0.043427 0.295135 0.224884
0.043732 0.254486 0.295410
0.052124 0.225433 0.318909
0.055511 0.228516 0.318848
0.054718 0.226715 0.321594
0.054718 0.228058 0.325195
0.054718 0.230225 0.324585
0.055176 0.231323 0.325714
0.045990 0.204590 0.299652
0.069122 0.270020 0.370972
0.124756 0.561279 0.628571
0.127686 0.557709 0.631226
0.141815 0.542877 0.637970
0.153412 0.535156 0.644653
0.153473 0.540222 0.647583
0.153168 0.541840 0.649445
0.153168 0.540070 0.649170
0.154083 0.536591 0.649414
0.150757 0.542114 0.648590
0.140167 0.558228 0.646332
0.136932 0.555939 0.644714
0.113312 0.580048 0.629730
0.098785 0.620270 0.548096
0.105469 0.624664 0.526550
0.107758 0.626343 0.542145
0.128754 0.638763 0.574768
0.150452 0.652649 0.610107
0.149811 0.653198 0.609924
0.150909 0.652863 0.611694
0.154755 0.653687 0.618103
0.153259 0.666290 0.625580
0.119141 0.599518 0.536652
0.053986 0.339996 0.268982
0.104736 0.534851 0.465118
0.133820 0.651520 0.579987
0.130737 0.618164 0.643829
0.144470 0.545105 0.650635
0.154663 0.545319 0.657684
0.154755 0.544037 0.656494
0.157074 0.540161 0.656494
0.156830 0.540039 0.656219
0.156830 0.541779 0.657227
0.112854 0.581696 0.627563
0.110840 0.579620 0.626312
0.139160 0.553558 0.641479
0.156525 0.540497 0.653595
0.153168 0.543243 0.651520
0.153168 0.541290 0.648895
0.153381 0.541321 0.649170
0.152527 0.541992 0.649170
0.150116 0.543518 0.648987
0.150818 0.543823 0.650574
0.148621 0.550568 0.651794
0.120483 0.571564 0.630737
0.108826 0.579651 0.622803
0.103851 0.586548 0.620880
0.100067 0.618744 0.562531
0.113098 0.627472 0.535919
0.127106 0.636108 0.572357
0.140076 0.643982 0.580750
0.154297 0.644196 0.653595
0.153290 0.535583 0.652924
0.153198 0.546112 0.652863
0.153046 0.548615 0.653442
0.148926 0.551208 0.652191
0.128021 0.570221 0.637512
0.121948 0.572815 0.633087
0.134003 0.563202 0.642090
0.139771 0.559479 0.646423
0.136871 0.562103 0.644531
0.146149 0.552032 0.650085
0.158020 0.539215 0.657196
0.156830 0.540039 0.656250
0.156830 0.541870 0.657196
0.107544 0.579010 0.618835
0.133179 0.559052 0.634583
0.146454 0.548676 0.642242
0.150360 0.544403 0.646210
0.153778 0.540924 0.649780
0.153168 0.541504 0.649170
0.153168 0.541504 0.649170
0.153168 0.541748 0.649170
0.153717 0.540009 0.649261
0.152222 0.539734 0.649170
0.143890 0.553070 0.647644
0.138184 0.558533 0.642212
0.106842 0.583313 0.621521
0.095490 0.592255 0.614410
0.100983 0.590027 0.618866
0.101624 0.590881 0.619995
0.101837 0.590393 0.619446
0.125031 0.569824 0.633514
0.151337 0.546448 0.650238
0.150360 0.545715 0.649841
0.153809 0.541718 0.653931
0.154022 0.546783 0.655670
0.146820 0.544708 0.646759
0.145660 0.543793 0.645142
0.147980 0.547424 0.649689
0.131561 0.561035 0.639679
0.120789 0.573120 0.635010
0.133606 0.563080 0.642029
0.142273 0.556824 0.647034
0.149139 0.553680 0.652191
0.162415 0.539398 0.657013
0.160767 0.542938 0.657227
0.103302 0.579803 0.615295
0.129913 0.556427 0.629761
0.140137 0.547394 0.635284
0.146912 0.543274 0.640839
0.154327 0.538422 0.646423
0.153168 0.537476 0.645538
0.153168 0.535065 0.645538
0.153168 0.535156 0.645355
0.153351 0.535553 0.646118
0.152802 0.537750 0.648773
0.150421 0.540222 0.649506
0.149261 0.545959 0.649994
0.129608 0.561951 0.636139
0.123352 0.564362 0.630768
0.110291 0.582550 0.621490
0.099121 0.603180 0.616821
0.111053 0.587982 0.623901
0.119415 0.569702 0.626099
0.129974 0.558350 0.633453
0.154022 0.538422 0.650543
0.153381 0.543884 0.653076
0.153503 0.544159 0.652924
0.156677 0.541473 0.652924
0.157074 0.538391 0.652893
0.148529 0.547211 0.650055
0.146332 0.550018 0.649536
0.132721 0.563934 0.642609
0.122253 0.574768 0.637390
0.122528 0.574158 0.637390
0.130310 0.567322 0.642029
0.141815 0.556580 0.648926
0.145844 0.555084 0.651337
0.109955 0.573486 0.614655
0.121094 0.564880 0.621429
0.123230 0.571808 0.627716
0.140747 0.556854 0.642029
0.155426 0.537506 0.648804
0.153168 0.538727 0.645294
0.153168 0.538879 0.645508
0.153168 0.538818 0.645416
0.153107 0.539673 0.646515
0.153168 0.542023 0.649353
0.153381 0.541626 0.649414
0.153351 0.541168 0.649139
0.147675 0.541168 0.643463
0.147217 0.544312 0.645081
0.123108 0.568756 0.632141
0.107086 0.579590 0.622223
0.106171 0.582306 0.622101
0.098846 0.593414 0.618134
0.112793 0.580505 0.626404
0.138489 0.557770 0.641815
0.141724 0.555023 0.643768
0.155945 0.542389 0.652313
0.157471 0.540802 0.653229
0.156830 0.538513 0.652832
0.156830 0.537476 0.652740
0.157043 0.541840 0.655334
0.154633 0.548645 0.656769
0.154694 0.547424 0.657684
0.143433 0.555054 0.650024
0.129425 0.567932 0.640717
0.131287 0.566589 0.641876
0.131287 0.566437 0.641693
0.128906 0.558289 0.626160
0.111115 0.569794 0.618469
0.126801 0.560181 0.628265
0.140839 0.552032 0.636047
0.145233 0.543457 0.638031
0.154266 0.531219 0.642426
0.153168 0.532166 0.641632
0.153168 0.534058 0.642548
0.153168 0.539642 0.646332
0.153168 0.540955 0.648743
0.153168 0.535675 0.645874
0.153351 0.534668 0.645416
0.153564 0.534851 0.645752
0.142883 0.549530 0.640381
0.139709 0.552368 0.639191
0.121338 0.566010 0.626434
0.101654 0.588104 0.614655
0.101868 0.590485 0.616364
0.102112 0.587250 0.616364
0.100006 0.589630 0.614899
0.107513 0.581909 0.620087
0.136261 0.552521 0.640411
0.140503 0.548645 0.643890
0.153839 0.542999 0.651184
0.157959 0.538300 0.653473
0.156830 0.537292 0.652649
0.156830 0.541656 0.655029
0.156830 0.544586 0.656769
0.156830 0.544617 0.656494
0.158478 0.541595 0.657288
0.151062 0.545258 0.653595
0.134613 0.559601 0.645386
0.117126 0.566833 0.619049
0.110474 0.574860 0.614868
0.120026 0.566376 0.621063
0.124847 0.558197 0.623993
0.140167 0.546783 0.633514
0.155060 0.539551 0.643097
0.153168 0.537598 0.641876
0.153168 0.532074 0.641663
0.153168 0.533783 0.642487
0.153168 0.538330 0.645416
0.153168 0.535767 0.645660
0.153168 0.535034 0.645508
0.153168 0.535126 0.645447
0.153168 0.539825 0.648102
0.154419 0.538544 0.650452
0.143372 0.546387 0.641052
0.136169 0.556946 0.636597
0.122345 0.572479 0.631683
0.101013 0.592560 0.618591
0.107330 0.588745 0.621521
0.112274 0.580902 0.626740
0.114014 0.579224 0.628174
0.129547 0.565247 0.638123
0.150696 0.547241 0.648010
0.154633 0.544189 0.649689
0.155670 0.539886 0.651489
0.157135 0.541107 0.655304
0.156830 0.544708 0.656769
0.156830 0.544495 0.656494
0.156830 0.542938 0.656494
0.156830 0.539917 0.656250
0.157043 0.541443 0.657379
0.142548 0.551544 0.632233
0.128418 0.556732 0.626099
0.116974 0.571136 0.620148
0.104858 0.581146 0.613831
0.126801 0.557098 0.626953
0.149689 0.537292 0.639557
0.150909 0.537781 0.639404
0.153320 0.532074 0.641785
0.153198 0.533844 0.642548
0.153168 0.538330 0.645416
0.153168 0.535645 0.645660
0.153168 0.535065 0.645538
0.153168 0.535309 0.645538
0.153168 0.535309 0.645538
0.153168 0.534027 0.645294
0.153168 0.542725 0.647491
0.156128 0.545837 0.651550
0.139496 0.556213 0.639618
0.116119 0.573486 0.622864
0.112610 0.576996 0.622009
0.097565 0.598297 0.615753
0.099976 0.596008 0.617493
0.117523 0.576782 0.629120
0.121307 0.570679 0.631592
0.145416 0.547699 0.644867
0.155487 0.536255 0.650299
0.153625 0.540222 0.651093
0.155670 0.543701 0.654999
0.157043 0.544281 0.656769
0.156830 0.544495 0.656494
0.156799 0.543152 0.656494
0.156708 0.540039 0.656281
0.197205 0.533325 0.654449
0.194427 0.532074 0.653595
0.147400 0.555359 0.630890
0.118530 0.573578 0.619446
0.117523 0.573914 0.620575
0.129303 0.555481 0.627045
0.151123 0.534454 0.639038
0.150482 0.536560 0.639160
0.153198 0.535461 0.641724
0.153229 0.533783 0.642334
0.153168 0.538208 0.645233
0.153168 0.536285 0.645721
0.153168 0.535065 0.645538
0.153168 0.535309 0.645538
0.153168 0.535309 0.645538
0.153168 0.534698 0.645538
0.153229 0.538574 0.645538
0.156342 0.540344 0.647247
0.141418 0.552399 0.638885
0.112091 0.579865 0.623993
0.113190 0.583557 0.627380
0.110291 0.586609 0.625488
0.096039 0.602478 0.617096
0.093658 0.604828 0.615784
0.111603 0.575592 0.624847
0.116577 0.565399 0.626953
0.136444 0.550415 0.640198
0.151611 0.541870 0.652557
0.152374 0.546051 0.654694
0.158539 0.544342 0.656708
0.160614 0.545471 0.656494
0.160706 0.544525 0.656494
0.198547 0.530457 0.655823
0.168335 0.535431 0.644012
0.157379 0.536133 0.640076
0.127411 0.556671 0.625488
0.104736 0.575012 0.614044
0.115234 0.566223 0.619263
0.122742 0.559875 0.622742
0.130920 0.552521 0.628021
0.153320 0.532562 0.641968
0.153748 0.531952 0.642120
0.153168 0.532959 0.642059
0.153168 0.538025 0.645020
0.153168 0.539459 0.645782
0.153168 0.536377 0.645538
0.153137 0.534943 0.645538
0.153473 0.535370 0.645538
0.155426 0.535706 0.645264
0.157318 0.537170 0.646912
0.155762 0.539825 0.649353
0.154999 0.539764 0.650452
0.148285 0.545685 0.645782
0.122650 0.569794 0.629150
0.118439 0.578674 0.629303
0.101959 0.594635 0.618866
0.095795 0.599335 0.614410
0.110168 0.582458 0.622620
0.122589 0.568817 0.630005
0.122284 0.568878 0.629578
0.136536 0.557556 0.640350
0.154755 0.542694 0.653961
0.154175 0.544159 0.653809
0.156769 0.544312 0.656555
0.241028 0.545959 0.682678
0.216614 0.536682 0.663147
0.208221 0.535706 0.660461
0.182922 0.535858 0.649719
0.164154 0.533051 0.641876
0.146698 0.548859 0.634613
0.117004 0.571381 0.622070
0.122742 0.565338 0.625488
0.129913 0.556427 0.630493
0.132233 0.554321 0.631470
0.151093 0.537689 0.640747
0.154266 0.532074 0.642456
0.153168 0.537201 0.644745
0.153168 0.542389 0.645813
0.153168 0.540955 0.645538
0.153168 0.536621 0.645538
0.153168 0.534943 0.645538
0.153168 0.534851 0.645264
0.153168 0.537354 0.646637
0.153625 0.540680 0.649689
0.152100 0.538788 0.648163
0.147278 0.539612 0.642822
0.144470 0.539520 0.640991
0.118622 0.570557 0.626770
0.111420 0.579437 0.622772
0.105591 0.589355 0.618683
0.099396 0.597992 0.614471
0.115295 0.580780 0.625763
0.128571 0.566467 0.635254
0.131134 0.564423 0.637054
0.144348 0.552399 0.646545
0.153076 0.543915 0.652863
0.247375 0.545380 0.688660
0.245575 0.546387 0.686890
0.246429 0.546722 0.686981
0.223358 0.540192 0.670563
0.209717 0.536194 0.665955
0.197998 0.534454 0.659821
0.146454 0.555359 0.633911
0.106323 0.582031 0.610718
0.111328 0.577057 0.614258
0.122437 0.564026 0.622650
0.125885 0.560425 0.624878
0.148865 0.536926 0.639160
0.154877 0.530762 0.642853
0.153168 0.537109 0.644470
0.153168 0.539398 0.645844
0.153168 0.539154 0.645538
0.153168 0.537231 0.645538
0.153168 0.534943 0.645538
0.153168 0.534882 0.645294
0.153168 0.536774 0.646332
0.153168 0.540527 0.649139
0.153168 0.538818 0.649261
0.153900 0.543701 0.649597
0.153320 0.545380 0.649261
0.124268 0.568024 0.631836
0.113861 0.573456 0.625702
0.114441 0.571808 0.624481
0.104218 0.585419 0.618561
0.095490 0.597260 0.614502
0.107300 0.584290 0.622650
0.123199 0.566925 0.634155
0.129700 0.562073 0.638153
0.368378 0.503082 0.432739
0.368378 0.503296 0.431854
0.368378 0.503296 0.432129
0.368378 0.503296 0.432129
0.368378 0.503296 0.432129
0.368713 0.503296 0.432007
0.367279 0.503296 0.432404
0.364594 0.503296 0.433167
0.364685 0.503296 0.433136
0.364716 0.503448 0.433167
0.364716 0.503113 0.433075
0.364716 0.500214 0.432251
0.364716 0.499451 0.432037
0.364716 0.499664 0.432281
0.364716 0.499664 0.429810
0.364716 0.499664 0.428192
0.364716 0.499664 0.428467
0.364716 0.499664 0.428467
0.364716 0.499664 0.428467
0.364716 0.499664 0.428467
0.364868 0.499664 0.428436
0.364380 0.499664 0.428589
0.361450 0.499725 0.429413
0.360901 0.499695 0.429565
0.361084 0.496887 0.428711
0.361084 0.495758 0.428375
0.361084 0.496002 0.428467
0.361084 0.496002 0.428772
0.361084 0.496002 0.426849
0.361084 0.496002 0.424500
0.361084 0.496002 0.424835
0.361084 0.496002 0.424835
0.368378 0.503998 0.436035
0.368378 0.503052 0.432983
0.368378 0.503296 0.431824
0.368378 0.503296 0.432129
0.368378 0.503296 0.432129
0.368652 0.503296 0.432037
0.367218 0.503296 0.432434
0.364594 0.503296 0.433167
0.364685 0.503296 0.433136
0.364716 0.503448 0.433167
0.364716 0.503113 0.433075
0.364716 0.500214 0.432251
0.364716 0.499451 0.432037
0.364716 0.499664 0.432281
0.364716 0.499664 0.429810
0.364716 0.499664 0.428192
0.364716 0.499664 0.428467
0.364716 0.499664 0.428467
0.364716 0.499664 0.428467
0.364716 0.499664 0.428467
0.364868 0.499664 0.428436
0.364380 0.499664 0.428589
0.361450 0.499725 0.429413
0.360901 0.499695 0.429565
0.361084 0.496887 0.428711
0.361084 0.495758 0.428375
0.361084 0.496002 0.428467
0.361084 0.496002 0.428741
0.361084 0.496002 0.426910
0.361084 0.496002 0.424561
0.361084 0.496002 0.424835
0.361084 0.496002 0.424835
0.368378 0.503296 0.432800
0.368378 0.503296 0.431854
0.368378 0.503296 0.432129
0.368347 0.503296 0.432098
0.368835 0.503296 0.431976
0.367096 0.503296 0.432465
0.364471 0.503296 0.433197
0.364716 0.503510 0.433197
0.364716 0.502716 0.432983
0.364716 0.499817 0.432159
0.364716 0.499542 0.432159
0.364716 0.499664 0.432098
0.364716 0.499664 0.429260
0.364716 0.499664 0.428192
0.364716 0.499664 0.428467
0.364716 0.499664 0.428467
0.364716 0.499664 0.428467
0.364990 0.499664 0.428406
0.363647 0.499664 0.428772
0.360992 0.499878 0.429596
0.361053 0.499146 0.429352
0.361084 0.496185 0.428528
0.361084 0.495850 0.428436
0.361084 0.496002 0.428497
0.361084 0.496002 0.428589
0.361084 0.496002 0.425964
0.361084 0.496002 0.424530
0.361084 0.496002 0.424835
0.361084 0.496002 0.424835
0.361084 0.496002 0.424835
0.361084 0.496002 0.424835
0.361084 0.496002 0.424835
0.365234 0.503296 0.432983
0.364380 0.503296 0.433228
0.364746 0.503296 0.433136
0.364716 0.503632 0.433228
0.364716 0.501587 0.432648
0.364716 0.499390 0.432312
0.364716 0.499664 0.430969
0.364716 0.499664 0.428375
0.364716 0.499664 0.428436
0.364716 0.499664 0.428467
0.364716 0.499664 0.428467
0.364746 0.499664 0.428497
0.364777 0.499664 0.428467
0.362152 0.499664 0.429199
0.360779 0.499908 0.429657
0.361084 0.497528 0.428894
0.361084 0.495575 0.428375
0.361084 0.496033 0.428497
