res/LUTs/Gladeiator_Warm.CUBE
#Created by: Adobe Photoshop Export Color Lookup Plugin
TITLE "Gladeiator_Warm"
#LUT size
LUT_3D_SIZE 32
#data domain
DOMAIN_MIN 0.0 0.0 0.0
DOMAIN_MAX 1.0 1.0 1.0
#LUT data points
0.658112 0.240204 0.365509
0.670746 0.253845 0.378845
0.669647 0.253998 0.378601
0.633636 0.216736 0.341736
0.623138 0.211151 0.334656
0.645355 0.239990 0.361511
0.637543 0.230652 0.352631
0.598145 0.189911 0.312286
0.595673 0.187714 0.310028
0.705231 0.297180 0.419525
0.705841 0.297943 0.420227
0.697418 0.289368 0.411713
0.696777 0.287231 0.410004
0.701141 0.291016 0.413971
0.722351 0.313049 0.435760
0.605133 0.188721 0.313568
0.644958 0.234070 0.357269
0.703735 0.296692 0.418732
0.658936 0.242950 0.367676
0.836182 0.431305 0.552704
0.759552 0.360260 0.479980
0.582489 0.176453 0.298187
0.779236 0.380798 0.500244
0.650665 0.247131 0.368103
0.537506 0.129456 0.251801
0.515717 0.106842 0.229431
0.696747 0.295135 0.415527
0.826324 0.429901 0.548737
0.804565 0.407196 0.526337
0.804565 0.407135 0.526276
0.804260 0.407837 0.526672
0.805573 0.405884 0.525726
0.849823 0.500427 0.000000
0.831207 0.450714 0.000000
0.776459 0.195587 0.036163
0.603882 0.166504 0.397369
0.602631 0.177124 0.373260
0.595123 0.178131 0.351196
0.802124 0.279053 0.000000
0.844299 0.534271 0.000000
0.844299 0.537994 0.000000
0.843903 0.534851 0.000000
0.846924 0.540710 0.000000
0.850555 0.539063 0.000000
0.851227 0.538055 0.000000
0.850983 0.538300 0.000000
0.850983 0.537903 0.000000
0.850677 0.542053 0.000000
0.852783 0.543610 0.000000
0.855164 0.540955 0.000000
0.854614 0.541443 0.000000
0.855743 0.540070 0.000000
0.858795 0.538635 0.000000
0.859650 0.545471 0.000000
0.858398 0.542786 0.000000
0.839294 0.496490 0.000000
0.818176 0.461212 0.000000
0.812653 0.453735 0.000000
0.828247 0.485504 0.000000
0.853241 0.528473 0.000000
0.864502 0.542633 0.000000
0.862732 0.542786 0.000000
0.862732 0.546997 0.000000
0.862732 0.548279 0.000000
0.804565 0.450409 0.000000
0.780945 0.399811 0.000000
0.776154 0.394135 0.000000
0.791626 0.422302 0.000000
0.813843 0.466522 0.000000
0.832764 0.510925 0.000000
0.843994 0.535736 0.000000
0.843872 0.534027 0.000000
0.847717 0.534576 0.000000
0.850891 0.532623 0.000000
0.851105 0.537537 0.000000
0.850952 0.538483 0.000000
0.850891 0.540131 0.000000
0.853729 0.541077 0.000000
0.855194 0.541168 0.000000
0.854889 0.540771 0.000000
0.854584 0.544342 0.000000
0.856354 0.546936 0.000000
0.859039 0.544250 0.000000
0.859955 0.545441 0.000000
0.855743 0.540466 0.000000
0.841400 0.522797 0.000000
0.840759 0.512939 0.000000
0.820343 0.459442 0.000000
0.825928 0.463562 0.000000
0.831207 0.472626 0.000000
0.844666 0.504822 0.000000
0.860565 0.542480 0.000000
0.863342 0.548035 0.000000
0.862640 0.549255 0.000000
0.862946 0.553467 0.000000
0.864655 0.551605 0.000000
0.793884 0.428162 0.000000
0.774017 0.386261 0.000000
0.793976 0.434784 0.000000
0.802216 0.460266 0.000000
0.819092 0.494934 0.000000
0.844513 0.545746 0.000000
0.848846 0.538605 0.000000
0.851379 0.530853 0.000000
0.851013 0.531250 0.000000
0.850983 0.532898 0.000000
0.850983 0.541412 0.000000
0.850952 0.544739 0.000000
0.850922 0.544922 0.000000
0.852600 0.543274 0.000000
0.854248 0.541412 0.000000
0.857147 0.542633 0.000000
0.858826 0.544525 0.000000
0.860291 0.542725 0.000000
0.863464 0.540710 0.000000
0.863342 0.544861 0.000000
0.849182 0.523682 0.000000
0.815918 0.455780 0.000000
0.815918 0.454773 0.000000
0.853729 0.522949 0.000000
0.862183 0.538666 0.000000
0.858215 0.533875 0.000000
0.863556 0.544373 0.000000
0.867279 0.554321 0.000000
0.866669 0.557129 0.000000
0.866669 0.553528 0.000000
0.866669 0.551392 0.000000
0.866669 0.555634 0.000000
0.782562 0.401794 0.000000
0.762909 0.370850 0.000000
0.797089 0.430847 0.000000
0.835236 0.506531 0.000000
0.850098 0.538788 0.000000
0.851471 0.539032 0.000000
0.850983 0.538300 0.000000
0.850983 0.537903 0.000000
0.851624 0.539764 0.000000
0.849762 0.543335 0.000000
0.838745 0.536713 0.000000
0.834595 0.538727 0.000000
0.835052 0.539642 0.000000
0.835358 0.539856 0.000000
0.835297 0.540405 0.000000
0.834991 0.540619 0.000000
0.837128 0.538330 0.000000
0.839569 0.538666 0.000000
0.842346 0.550110 0.000000
0.829742 0.518585 0.000000
0.795563 0.439941 0.000000
0.794098 0.437195 0.000000
0.800323 0.443939 0.000000
0.832977 0.492340 0.000000
0.859619 0.540405 0.000000
0.867157 0.560608 0.000000
0.866760 0.563324 0.000000
0.869049 0.556732 0.000000
0.869232 0.553680 0.000000
0.866425 0.555908 0.000000
0.866669 0.557953 0.000000
0.866455 0.562469 0.000000
0.787689 0.413666 0.000000
0.779053 0.388000 0.000000
0.807983 0.454285 0.000000
0.839539 0.511810 0.000000
0.848969 0.528534 0.000000
0.849579 0.542603 0.000000
0.840454 0.520569 0.000000
0.812073 0.476013 0.000000
0.803192 0.482971 0.000000
0.826172 0.526855 0.000000
0.832123 0.532684 0.000000
0.834869 0.533813 0.000000
0.835266 0.533875 0.000000
0.838013 0.535828 0.000000
0.839539 0.537018 0.000000
0.839844 0.539063 0.000000
0.835632 0.523285 0.000000
0.830841 0.505676 0.000000
0.833801 0.512573 0.000000
0.823669 0.492676 0.000000
0.795013 0.438263 0.000000
0.797668 0.445953 0.000000
0.820374 0.506927 0.000000
0.824127 0.518311 0.000000
0.835144 0.526855 0.000000
0.843079 0.538239 0.000000
0.843445 0.539917 0.000000
0.843140 0.543030 0.000000
0.843140 0.546509 0.000000
0.843140 0.546112 0.000000
0.843140 0.546509 0.000000
0.843140 0.544861 0.000000
0.780823 0.380890 0.000000
0.812012 0.456940 0.000000
0.845856 0.512970 0.000000
0.854187 0.522400 0.000000
0.851501 0.529907 0.000000
0.851929 0.537659 0.000000
0.824707 0.485443 0.000000
0.785858 0.410187 0.000000
0.795349 0.426025 0.000000
0.814819 0.467102 0.000000
0.825531 0.479675 0.000000
0.857544 0.530945 0.000000
0.865631 0.544189 0.000000
0.846130 0.537720 0.000000
0.837128 0.536682 0.000000
0.842255 0.536896 0.000000
0.838043 0.521118 0.000000
0.833618 0.510620 0.000000
0.819977 0.490875 0.000000
0.791107 0.447693 0.000000
0.787781 0.435638 0.000000
0.789246 0.433533 0.000000
0.819122 0.504547 0.000000
0.825287 0.519623 0.000000
0.838501 0.533478 0.000000
0.844574 0.546204 0.000000
0.843140 0.546722 0.000000
0.843140 0.545898 0.000000
0.843140 0.546112 0.000000
0.843140 0.546112 0.000000
0.841064 0.544769 0.000000
0.848999 0.549896 0.000000
0.781403 0.386505 0.000000
0.815186 0.451782 0.000000
0.842773 0.509247 0.000000
0.855347 0.535004 0.000000
0.863586 0.552185 0.000000
0.840057 0.508423 0.000000
0.810913 0.457733 0.000000
0.806152 0.439880 0.000000
0.785400 0.394440 0.000000
0.777832 0.405243 0.000000
0.782532 0.415161 0.000000
0.823822 0.497375 0.000000
0.836182 0.523834 0.000000
0.837646 0.536407 0.000000
0.842346 0.542908 0.000000
0.841614 0.539764 0.000000
0.836823 0.527313 0.000000
0.839874 0.525116 0.000000
0.825165 0.496796 0.000000
0.789124 0.426727 0.000000
0.796265 0.440521 0.000000
0.821777 0.504578 0.000000
0.824615 0.511963 0.000000
0.829102 0.517792 0.000000
0.841583 0.539154 0.000000
0.845581 0.546021 0.000000
0.844543 0.544342 0.000000
0.844543 0.544342 0.000000
0.844208 0.544312 0.000000
0.846313 0.544434 0.000000
0.847839 0.541901 0.000000
0.844513 0.537506 0.000000
0.750977 0.312775 0.000000
0.705872 0.118896 0.000000
0.519104 0.101105 0.299683
0.519135 0.104156 0.261688
0.513092 0.087067 0.296661
0.517761 0.098022 0.276855
0.724152 0.252472 0.000000
0.815979 0.462585 0.000000
0.760376 0.368500 0.000000
0.760132 0.370605 0.000000
0.794678 0.436127 0.000000
0.801514 0.450073 0.000000
0.829285 0.509796 0.000000
0.839722 0.535492 0.000000
0.837769 0.534637 0.000000
0.844086 0.541992 0.000000
0.849518 0.542969 0.000000
0.826691 0.496704 0.000000
0.797302 0.444397 0.000000
0.800812 0.454163 0.000000
0.809113 0.478638 0.000000
0.818939 0.492645 0.000000
0.824432 0.494537 0.000000
0.840118 0.536560 0.000000
0.844360 0.549377 0.000000
0.843140 0.546112 0.000000
0.843140 0.546112 0.000000
0.843140 0.546112 0.000000
0.843140 0.546112 0.000000
0.843140 0.546112 0.000000
0.843628 0.546417 0.000000
0.841614 0.545105 0.000000
0.705841 0.299805 0.421539
0.782684 0.381744 0.501953
0.729523 0.320129 0.442871
0.741669 0.330536 0.453796
0.726776 0.325073 0.445496
0.705353 0.306732 0.426239
0.762238 0.361969 0.481964
0.656616 0.247406 0.370087
0.604309 0.188660 0.313263
0.667267 0.262238 0.383667
0.753693 0.355591 0.474945
0.584869 0.178833 0.300568
0.521210 0.112396 0.234955
0.550629 0.143494 0.265564
0.725647 0.325714 0.445618
0.828339 0.432312 0.551056
0.808960 0.410278 0.529816
0.815186 0.416901 0.536316
0.780884 0.381348 0.501129
0.748199 0.340637 0.462830
0.777710 0.371155 0.493042
0.694366 0.295593 0.415161
0.688202 0.281250 0.403259
0.704773 0.295624 0.418274
0.699921 0.291290 0.413788
0.992523 0.583313 0.705994
0.999146 0.596954 0.717529
0.860565 0.463806 0.582764
0.878418 0.481140 0.600250
0.876495 0.479126 0.598267
0.874359 0.476990 0.596130
0.874390 0.477112 0.596222
0.836365 0.495575 0.000000
0.851532 0.528687 0.000000
0.857147 0.532593 0.000000
0.864014 0.541901 0.000000
0.862579 0.543121 0.000000
0.865448 0.556976 0.000000
0.850708 0.525879 0.000000
0.823151 0.465424 0.000000
0.814911 0.447235 0.000000
0.790894 0.388306 0.000000
0.773102 0.346741 0.000000
0.771729 0.344788 0.000000
0.781616 0.401886 0.000000
0.782379 0.418304 0.000000
0.818604 0.487030 0.000000
0.844269 0.541473 0.000000
0.835602 0.529175 0.000000
0.833160 0.531708 0.000000
0.855194 0.522797 0.000000
0.699280 0.406311 0.000000
0.334717 0.216797 0.000000
0.324097 0.215851 0.000000
0.356476 0.261963 0.000000
0.362640 0.271362 0.000000
0.372711 0.289368 0.000000
0.376068 0.297302 0.000000
0.392731 0.300873 0.000000
0.408173 0.309906 0.000000
0.408173 0.313812 0.000000
0.407867 0.313171 0.000000
0.378967 0.296539 0.000000
0.492889 0.362213 0.000000
0.818298 0.458282 0.000000
0.832092 0.477814 0.000000
0.852478 0.520935 0.000000
0.864471 0.554016 0.000000
0.863464 0.550415 0.000000
0.866180 0.553619 0.000000
0.865662 0.546967 0.000000
0.860687 0.532684 0.000000
0.834503 0.483276 0.000000
0.790375 0.386108 0.000000
0.784119 0.381531 0.000000
0.774414 0.366211 0.000000
0.780365 0.376282 0.000000
0.795868 0.406281 0.000000
0.829285 0.484497 0.000000
0.844574 0.361053 0.000000
0.853668 0.249054 0.000000
0.872498 0.302277 0.000000
0.892609 0.299194 0.000000
0.734558 0.213043 0.000000
0.373413 0.050049 0.000000
0.354614 0.033508 0.000000
0.364044 0.050201 0.000000
0.364624 0.211334 0.000000
0.398987 0.306152 0.000000
0.402527 0.305939 0.000000
0.404633 0.312469 0.000000
0.408508 0.317139 0.000000
0.407867 0.312775 0.000000
0.409546 0.313660 0.000000
0.371643 0.294342 0.000000
0.473206 0.355469 0.000000
0.809998 0.445923 0.000000
0.816010 0.459412 0.000000
0.838470 0.510315 0.000000
0.858093 0.549072 0.000000
0.861328 0.546326 0.000000
0.863007 0.546967 0.000000
0.862732 0.549530 0.000000
0.863953 0.557068 0.000000
0.859497 0.542236 0.000000
0.845673 0.499634 0.000000
0.840454 0.497589 0.000000
0.798920 0.410004 0.000000
0.773163 0.215363 0.000000
0.785065 0.179199 0.000000
0.789337 0.200989 0.000000
0.825256 0.240570 0.000000
0.863525 0.286926 0.000000
0.863434 0.285858 0.000000
0.864227 0.289703 0.000000
0.869263 0.300507 0.000000
0.881195 0.297546 0.000000
0.772736 0.221100 0.000000
0.423615 0.071472 0.000000
0.687683 0.175293 0.000000
0.844421 0.235443 0.000000
0.832855 0.388977 0.000000
0.854919 0.534729 0.000000
0.873444 0.559326 0.000000
0.872253 0.559204 0.000000
0.874756 0.568512 0.000000
0.874237 0.567963 0.000000
0.875305 0.566925 0.000000
0.796112 0.402924 0.000000
0.792603 0.402313 0.000000
0.839355 0.496918 0.000000
0.871094 0.561462 0.000000
0.865234 0.548798 0.000000
0.862427 0.546814 0.000000
0.862946 0.547546 0.000000
0.862030 0.545502 0.000000
0.859222 0.539948 0.000000
0.861694 0.543396 0.000000
0.860626 0.532013 0.000000
0.807739 0.430481 0.000000
0.786682 0.394104 0.000000
0.779266 0.376709 0.000000
0.772888 0.238495 0.000000
0.796295 0.190338 0.000000
0.820648 0.239410 0.000000
0.843048 0.245758 0.000000
0.868652 0.378754 0.000000
0.866852 0.565063 0.000000
0.866699 0.546539 0.000000
0.867157 0.543243 0.000000
0.861389 0.532074 0.000000
0.823151 0.451965 0.000000
0.811859 0.434265 0.000000
0.834473 0.477539 0.000000
0.845367 0.497589 0.000000
0.840210 0.486786 0.000000
0.856171 0.523621 0.000000
0.876556 0.572662 0.000000
0.874268 0.567963 0.000000
0.875275 0.566711 0.000000
0.781006 0.386505 0.000000
0.825531 0.468597 0.000000
0.848022 0.513855 0.000000
0.856506 0.533020 0.000000
0.864014 0.549927 0.000000
0.862732 0.546997 0.000000
0.862732 0.546997 0.000000
0.862732 0.546570 0.000000
0.863403 0.550385 0.000000
0.861694 0.549072 0.000000
0.851105 0.514679 0.000000
0.839111 0.489197 0.000000
0.783173 0.384705 0.000000
0.763336 0.350922 0.000000
0.774017 0.365845 0.000000
0.775909 0.367126 0.000000
0.775543 0.366943 0.000000
0.815613 0.442261 0.000000
0.861877 0.538666 0.000000
0.860413 0.538177 0.000000
0.868500 0.556793 0.000000
0.870636 0.551788 0.000000
0.853271 0.529968 0.000000
0.850281 0.527069 0.000000
0.857697 0.532501 0.000000
0.829254 0.474152 0.000000
0.812683 0.436707 0.000000
0.833984 0.477264 0.000000
0.848663 0.505554 0.000000
0.861633 0.528015 0.000000
0.881073 0.576904 0.000000
0.879517 0.569244 0.000000
0.772675 0.375763 0.000000
0.816833 0.460266 0.000000
0.833740 0.495636 0.000000
0.847015 0.520508 0.000000
0.861023 0.548004 0.000000
0.858826 0.546631 0.000000
0.858826 0.550812 0.000000
0.858612 0.550262 0.000000
0.859619 0.551331 0.000000
0.861877 0.552338 0.000000
0.860138 0.547028 0.000000
0.859406 0.536926 0.000000
0.823395 0.463959 0.000000
0.810852 0.444214 0.000000
0.786835 0.388031 0.000000
0.769806 0.341309 0.000000
0.790253 0.384888 0.000000
0.801575 0.423492 0.000000
0.820862 0.464752 0.000000
0.865112 0.556122 0.000000
0.867126 0.551056 0.000000
0.867096 0.550415 0.000000
0.870483 0.558502 0.000000
0.870880 0.564301 0.000000
0.858673 0.534149 0.000000
0.855774 0.526093 0.000000
0.833649 0.476257 0.000000
0.816772 0.440094 0.000000
0.817078 0.441040 0.000000
0.830444 0.467529 0.000000
0.850250 0.509399 0.000000
0.857147 0.520660 0.000000
0.779114 0.388428 0.000000
0.798370 0.423157 0.000000
0.807465 0.426208 0.000000
0.841675 0.493988 0.000000
0.864716 0.555634 0.000000
0.858551 0.543945 0.000000
0.858795 0.544098 0.000000
0.858643 0.543976 0.000000
0.859772 0.544708 0.000000
0.862885 0.546478 0.000000
0.863190 0.547516 0.000000
0.862885 0.547729 0.000000
0.850677 0.530212 0.000000
0.851898 0.527649 0.000000
0.812073 0.439728 0.000000
0.784180 0.391907 0.000000
0.783081 0.386963 0.000000
0.770935 0.358185 0.000000
0.794830 0.402466 0.000000
0.839020 0.489960 0.000000
0.844574 0.501465 0.000000
0.869080 0.554840 0.000000
0.871735 0.561218 0.000000
0.870575 0.563660 0.000000
0.870483 0.565308 0.000000
0.873505 0.563202 0.000000
0.872437 0.551666 0.000000
0.873474 0.555725 0.000000
0.853180 0.515747 0.000000
0.828094 0.463165 0.000000
0.831360 0.469269 0.000000
0.831146 0.469147 0.000000
0.811890 0.449341 0.000000
0.784485 0.402191 0.000000
0.811859 0.448730 0.000000
0.835327 0.489868 0.000000
0.842194 0.512787 0.000000
0.856628 0.552338 0.000000
0.854614 0.547699 0.000000
0.855591 0.546448 0.000000
0.859680 0.544434 0.000000
0.862244 0.547119 0.000000
0.859192 0.550415 0.000000
0.858887 0.551483 0.000000
0.859436 0.552032 0.000000
0.842194 0.505188 0.000000
0.837494 0.494812 0.000000
0.804047 0.431458 0.000000
0.770203 0.361023 0.000000
0.772278 0.360870 0.000000
0.772552 0.365906 0.000000
0.768677 0.358246 0.000000
0.782349 0.384491 0.000000
0.835114 0.493805 0.000000
0.843445 0.511292 0.000000
0.865601 0.549255 0.000000
0.872498 0.566620 0.000000
0.870392 0.565460 0.000000
0.872955 0.562653 0.000000
0.874817 0.561066 0.000000
0.874512 0.560455 0.000000
0.877167 0.569214 0.000000
0.865173 0.547272 0.000000
0.838684 0.490601 0.000000
0.791565 0.412415 0.000000
0.779907 0.387085 0.000000
0.796844 0.419250 0.000000
0.805176 0.441895 0.000000
0.831879 0.493103 0.000000
0.858185 0.539917 0.000000
0.854889 0.538910 0.000000
0.854645 0.548126 0.000000
0.855530 0.546814 0.000000
0.858673 0.544861 0.000000
0.858948 0.549835 0.000000
0.858795 0.550781 0.000000
0.858734 0.550537 0.000000
0.861572 0.547729 0.000000
0.865448 0.556122 0.000000
0.843414 0.512115 0.000000
0.830933 0.478546 0.000000
0.810760 0.432312 0.000000
0.773743 0.361572 0.000000
0.783691 0.376740 0.000000
0.794617 0.402161 0.000000
0.798004 0.408752 0.000000
0.825439 0.462494 0.000000
0.858826 0.532166 0.000000
0.864838 0.544952 0.000000
0.867859 0.557251 0.000000
0.873566 0.564545 0.000000
0.874817 0.561066 0.000000
0.874512 0.560669 0.000000
0.874512 0.563446 0.000000
0.874268 0.568176 0.000000
0.875702 0.568054 0.000000
0.833099 0.484680 0.000000
0.811249 0.451385 0.000000
0.792572 0.407715 0.000000
0.772766 0.371857 0.000000
0.810455 0.451141 0.000000
0.848633 0.531006 0.000000
0.849762 0.531311 0.000000
0.854919 0.548523 0.000000
0.855621 0.546875 0.000000
0.858673 0.544861 0.000000
0.858948 0.550049 0.000000
0.858826 0.550812 0.000000
0.858826 0.550385 0.000000
0.858826 0.550385 0.000000
0.858551 0.552094 0.000000
0.860931 0.541443 0.000000
0.868439 0.547424 0.000000
0.837738 0.489014 0.000000
0.794586 0.408752 0.000000
0.789886 0.399200 0.000000
0.766998 0.345673 0.000000
0.771423 0.353699 0.000000
0.802795 0.416870 0.000000
0.809540 0.434204 0.000000
0.849731 0.519684 0.000000
0.866394 0.560944 0.000000
0.865265 0.553680 0.000000
0.871643 0.557770 0.000000
0.875031 0.561859 0.000000
0.874512 0.560669 0.000000
0.874451 0.562958 0.000000
0.874146 0.567902 0.000000
0.915710 0.624420 0.000000
0.911835 0.621552 0.000000
0.836823 0.479706 0.000000
0.793488 0.403534 0.000000
0.793610 0.404541 0.000000
0.813263 0.456085 0.000000
0.849609 0.536407 0.000000
0.849060 0.532318 0.000000
0.854736 0.542358 0.000000
0.855438 0.546539 0.000000
0.858490 0.544739 0.000000
0.859009 0.549042 0.000000
0.858826 0.550812 0.000000
0.858826 0.550385 0.000000
0.858826 0.550385 0.000000
0.858826 0.551453 0.000000
0.858887 0.544556 0.000000
0.864075 0.548492 0.000000
0.839020 0.495697 0.000000
0.791473 0.398254 0.000000
0.796295 0.399902 0.000000
0.791138 0.389771 0.000000
0.766815 0.341278 0.000000
0.762817 0.334106 0.000000
0.791870 0.406189 0.000000
0.799469 0.429779 0.000000
0.835052 0.497040 0.000000
0.864685 0.551605 0.000000
0.867798 0.549591 0.000000
0.876587 0.563263 0.000000
0.878571 0.563049 0.000000
0.878662 0.564819 0.000000
0.918640 0.634918 0.000000
0.873474 0.563629 0.000000
0.857452 0.542175 0.000000
0.809540 0.449432 0.000000
0.772858 0.381531 0.000000
0.789764 0.412415 0.000000
0.801575 0.435028 0.000000
0.816040 0.464203 0.000000
0.855133 0.548035 0.000000
0.855743 0.549896 0.000000
0.855072 0.547363 0.000000
0.858246 0.544586 0.000000
0.859070 0.543640 0.000000
0.858826 0.548523 0.000000
0.858765 0.550995 0.000000
0.859131 0.550598 0.000000
0.860931 0.551544 0.000000
0.864746 0.554413 0.000000
0.865692 0.553101 0.000000
0.866058 0.554596 0.000000
0.853821 0.527802 0.000000
0.808350 0.431793 0.000000
0.804016 0.414978 0.000000
0.775055 0.359711 0.000000
0.763641 0.340607 0.000000
0.787933 0.390320 0.000000
0.809204 0.435028 0.000000
0.808411 0.433807 0.000000
0.835327 0.485565 0.000000
0.869568 0.556427 0.000000
0.868774 0.552948 0.000000
0.874481 0.561066 0.000000
0.993195 0.721619 0.000000
0.945953 0.662354 0.000000
0.934052 0.647186 0.000000
0.895294 0.591675 0.000000
0.866699 0.558838 0.000000
0.840118 0.497986 0.000000
0.794678 0.411102 0.000000
0.804535 0.431732 0.000000
0.817627 0.461914 0.000000
0.821167 0.469330 0.000000
0.851410 0.534210 0.000000
0.856659 0.550903 0.000000
0.857971 0.545441 0.000000
0.859100 0.538605 0.000000
0.858826 0.540527 0.000000
0.858826 0.548096 0.000000
0.858826 0.551025 0.000000
0.858521 0.550842 0.000000
0.859985 0.549042 0.000000
0.863739 0.549957 0.000000
0.860474 0.548706 0.000000
0.849548 0.531189 0.000000
0.844543 0.524750 0.000000
0.801453 0.422852 0.000000
0.789459 0.396088 0.000000
0.778748 0.369232 0.000000
0.767578 0.344635 0.000000
0.796814 0.402496 0.000000
0.821289 0.453949 0.000000
0.825989 0.463013 0.000000
0.850403 0.514069 0.000000
0.866547 0.550262 0.000000
1.000000 0.743378 0.006470
1.000000 0.736053 0.002625
1.000000 0.736298 0.003632
0.961182 0.681000 0.000000
0.941559 0.660645 0.000000
0.922363 0.634796 0.000000
0.839081 0.485107 0.000000
0.770996 0.365356 0.000000
0.780151 0.383026 0.000000
0.801147 0.427948 0.000000
0.807251 0.440887 0.000000
0.847321 0.529999 0.000000
0.857758 0.554749 0.000000
0.857666 0.545044 0.000000
0.859131 0.543884 0.000000
0.858826 0.543488 0.000000
0.858826 0.547028 0.000000
0.858826 0.550812 0.000000
0.858551 0.550629 0.000000
0.859680 0.549255 0.000000
0.862701 0.548676 0.000000
0.862823 0.551910 0.000000
0.863983 0.544830 0.000000
0.862976 0.540619 0.000000
0.812988 0.441223 0.000000
0.795197 0.412750 0.000000
0.794495 0.413361 0.000000
0.777161 0.374146 0.000000
0.763397 0.343689 0.000000
0.784851 0.385712 0.000000
0.814331 0.446716 0.000000
0.825653 0.467865 0.000000
0.666870 0.270172 0.311920
0.667267 0.269989 0.314606
0.667267 0.269989 0.313934
0.667267 0.269989 0.313934
0.667267 0.269989 0.313934
0.666931 0.270660 0.315369
0.668274 0.267822 0.309570
0.670776 0.262390 0.298584
0.670715 0.262573 0.298950
0.670959 0.262482 0.299072
0.670349 0.262787 0.299103
0.664459 0.265503 0.299194
0.662964 0.266205 0.299225
0.663391 0.266022 0.298706
0.663391 0.266022 0.305908
0.663391 0.266022 0.310730
0.663391 0.266022 0.309967
0.663391 0.266022 0.309967
0.663391 0.266022 0.309967
0.663391 0.266022 0.309967
0.663208 0.266357 0.310638
0.663666 0.265381 0.308655
0.666534 0.259399 0.296661
0.666992 0.258362 0.294464
0.661194 0.261322 0.295288
0.658905 0.262390 0.295410
0.659424 0.262146 0.295319
0.659424 0.262146 0.294434
0.659424 0.262146 0.300079
0.659424 0.262146 0.307068
0.659424 0.262146 0.306091
0.659424 0.262146 0.306091
0.668671 0.269318 0.302948
0.666809 0.270203 0.311157
0.667267 0.269989 0.314789
0.667267 0.269989 0.313934
0.667267 0.269989 0.313934
0.666992 0.270569 0.315094
0.668335 0.267639 0.309204
0.670776 0.262390 0.298584
0.670715 0.262573 0.298950
0.670959 0.262482 0.299072
0.670349 0.262787 0.299103
0.664459 0.265503 0.299194
0.662964 0.266205 0.299225
0.663391 0.266022 0.298706
0.663391 0.266022 0.305908
0.663391 0.266022 0.310730
0.663391 0.266022 0.309967
0.663391 0.266022 0.309967
0.663391 0.266022 0.309967
0.663391 0.266022 0.309967
0.663208 0.266357 0.310638
0.663666 0.265381 0.308655
0.666534 0.259399 0.296661
0.666992 0.258362 0.294464
0.661194 0.261322 0.295288
0.658905 0.262390 0.295410
0.659424 0.262146 0.295319
0.659424 0.262146 0.294556
0.659424 0.262146 0.299988
0.659424 0.262146 0.306763
0.659424 0.262146 0.306091
0.659424 0.262146 0.306091
0.667267 0.269989 0.311890
0.667267 0.269989 0.314606
0.667267 0.269989 0.313934
0.667297 0.269928 0.313873
0.666840 0.270905 0.315857
0.668457 0.267426 0.308746
0.670898 0.262177 0.298096
0.671143 0.262421 0.299042
0.669495 0.263184 0.299103
0.663666 0.265900 0.299194
0.663147 0.266113 0.298981
0.663391 0.266022 0.299286
0.663391 0.266022 0.307648
0.663391 0.266022 0.310638
0.663391 0.266022 0.309967
0.663391 0.266022 0.309967
0.663391 0.266022 0.309967
0.663116 0.266602 0.311127
0.664398 0.263855 0.305511
0.667297 0.258331 0.294769
0.665710 0.259155 0.295074
0.659760 0.261993 0.295288
0.659119 0.262268 0.295319
0.659424 0.262146 0.295227
0.659424 0.262146 0.295013
0.659424 0.262146 0.302673
0.659424 0.262146 0.306946
0.659424 0.262146 0.306091
0.659424 0.262146 0.306091
0.659424 0.262146 0.306091
0.659424 0.262146 0.306091
0.659424 0.262146 0.306091
0.670197 0.263641 0.301147
0.670959 0.261993 0.297729
0.670654 0.262695 0.299164
0.671356 0.262299 0.299042
0.667267 0.264221 0.299164
0.662811 0.266296 0.298431
0.663391 0.266022 0.302582
0.663391 0.266022 0.310272
0.663391 0.266022 0.310059
0.663391 0.266022 0.309967
0.663391 0.266022 0.309967
0.663361 0.266083 0.310028
0.663300 0.266205 0.310303
0.665771 0.260895 0.299530
0.667542 0.257904 0.294006
0.662506 0.260712 0.295227
0.658569 0.262543 0.295319
0.659485 0.262115 0.295288
