res/LUTs/Gladeiator_Cool.CUBE
#Created by: Adobe Photoshop Export Color Lookup Plugin
TITLE "Cool"
#LUT size
LUT_3D_SIZE 5
#data domain
#LUT data points
DOMAIN_MIN 0.000000 0.000000 0.000000
DOMAIN_MAX 0.903226 0.903226 0.903226
0.346771 0.488708 0.386963
0.297119 0.435791 0.336395
0.411957 0.550964 0.451324
0.283966 0.421875 0.323029
0.496002 0.630951 0.534210
0.107574 0.579437 0.619141
0.119934 0.564178 0.629791
0.150177 0.523315 0.633240
0.137390 0.530426 0.626862
0.149445 0.524963 0.635712
0.107544 0.579010 0.618835
0.153168 0.541748 0.649170
0.100983 0.590027 0.618866
0.154022 0.546783 0.655670
0.142273 0.556824 0.647034
0.198547 0.530457 0.655823
0.130920 0.552521 0.628021
0.153137 0.534943 0.645538
0.122650 0.569794 0.629150
0.136536 0.557556 0.640350
0.364716 0.499664 0.428284
0.361084 0.498871 0.429260
0.361084 0.496002 0.424835
0.357422 0.492310 0.424805
0.357422 0.492371 0.421173
0.618591 0.756989 0.661835
0.349854 0.490356 0.389648
0.279449 0.420044 0.308228
0.326813 0.466400 0.367310
0.578308 0.722900 0.590088
0.112518 0.574554 0.621399
0.120819 0.555756 0.625488
0.149841 0.523590 0.633240
0.138031 0.529663 0.627106
0.149536 0.522430 0.634583
0.115692 0.563049 0.621735
0.153168 0.541626 0.648987
0.097107 0.593079 0.616394
0.157166 0.541168 0.653198
0.143738 0.555786 0.647705
0.201202 0.531311 0.655701
0.130920 0.551819 0.630768
0.155487 0.535583 0.645538
0.115417 0.578247 0.624756
0.136536 0.557556 0.640350
0.364746 0.499664 0.428497
0.361084 0.496002 0.428711
0.361084 0.496002 0.424835
0.357422 0.492371 0.424927
0.357422 0.492371 0.421173
0.116669 0.524841 0.644257
0.280823 0.479401 0.411621
0.229736 0.492523 0.464874
0.152039 0.542480 0.649017
0.141388 0.549438 0.637360
0.117340 0.569031 0.622437
0.114777 0.571564 0.623474
0.148163 0.527832 0.634888
0.128754 0.537537 0.624115
0.149536 0.522675 0.634583
0.113556 0.563446 0.619812
0.153168 0.538818 0.647736
0.099091 0.595367 0.619781
0.156555 0.541565 0.652618
0.131836 0.565582 0.642944
0.200287 0.531738 0.655579
0.122375 0.559052 0.626648
0.153046 0.534912 0.645538
0.142883 0.547485 0.643555
0.126190 0.557312 0.631287
0.361603 0.499664 0.429352
0.361084 0.496002 0.424530
0.358643 0.496216 0.425537
0.357422 0.492371 0.421173
0.357422 0.492676 0.421295
0.345612 0.522888 0.441315
0.136047 0.530823 0.649200
0.216705 0.495331 0.478333
0.153168 0.541718 0.645416
0.147156 0.547455 0.643127
0.117889 0.568481 0.622711
0.112091 0.573792 0.621552
0.148163 0.528168 0.634888
0.129211 0.536438 0.624176
0.149536 0.522675 0.634583
0.111450 0.570496 0.618103
0.153320 0.541046 0.649628
0.098572 0.594818 0.616425
0.156860 0.541504 0.652924
0.131836 0.567688 0.642944
0.233490 0.541718 0.678345
0.130310 0.553070 0.626495
0.153168 0.539154 0.645538
0.142883 0.547363 0.643555
0.127533 0.551758 0.630310
0.370148 0.509003 0.440521
0.370148 0.505066 0.435455
0.366455 0.500824 0.435547
0.362610 0.497711 0.427338
0.318787 0.453766 0.379150
0.250366 0.563141 0.548950
0.296417 0.441498 0.316528
0.153168 0.533905 0.638245
0.153168 0.539337 0.645599
0.155212 0.544159 0.650604
0.111359 0.583588 0.624023
0.123962 0.559784 0.630371
0.147522 0.524475 0.634888
0.129547 0.537292 0.624542
0.149536 0.522675 0.634583
0.103455 0.579346 0.615326
0.153168 0.537842 0.649109
0.110291 0.582764 0.621582
0.156342 0.542114 0.652924
0.122314 0.574280 0.637268
0.233185 0.541473 0.678284
0.130310 0.553070 0.626495
0.153168 0.539154 0.645538
0.146088 0.541351 0.642273
0.127533 0.558929 0.632233
0.215179 0.350128 0.253387
0.215179 0.350128 0.253387
0.215179 0.350342 0.253448
0.215210 0.347748 0.252747
0.215454 0.346100 0.252441
