res/LUTs/Gladeiator_Saturated.CUBE
#Created by: Adobe Photoshop Export Color Lookup Plugin
TITLE "Gladeiator_Saturated"
#LUT size
LUT_3D_SIZE 8
#data domain
#LUT data points
DOMAIN_MIN 0.000000 0.000000 0.000000
DOMAIN_MAX 0.903226 0.903226 0.903226
0.898346 0.000000 0.000000
0.834290 0.000000 0.000000
0.783386 0.000000 0.000000
0.984039 0.000000 0.000000
0.879059 0.000000 0.000000
1.000000 0.119812 0.119812
0.666962 0.000000 0.000000
1.000000 0.211761 0.211761
0.782562 0.636414 0.000000
0.850098 0.793640 0.000000
0.851624 0.795074 0.000000
0.835052 0.790009 0.000000
0.837128 0.789307 0.000000
0.795563 0.678436 0.000000
0.859619 0.798126 0.000000
0.869232 0.814270 0.000000
0.750977 0.537933 0.000000
0.600159 0.000000 0.115326
0.760376 0.596466 0.000000
0.829285 0.758423 0.000000
0.849518 0.797668 0.000000
0.809113 0.721222 0.000000
0.844360 0.802521 0.000000
0.843140 0.798889 0.000000
0.809998 0.688782 0.000000
0.861328 0.804565 0.000000
0.859497 0.799896 0.000000
0.773163 0.447174 0.000000
0.863525 0.545807 0.000000
0.881195 0.561707 0.000000
0.844421 0.488586 0.000000
0.872253 0.820709 0.000000
0.779114 0.622009 0.000000
0.864716 0.814880 0.000000
0.859772 0.802460 0.000000
0.850677 0.785248 0.000000
0.783081 0.621735 0.000000
0.844574 0.754669 0.000000
0.870483 0.826294 0.000000
0.853180 0.771515 0.000000
0.915710 0.898956 0.000000
0.793610 0.642487 0.000000
0.854736 0.798615 0.000000
0.858826 0.808289 0.000000
0.858887 0.802063 0.000000
0.796295 0.638641 0.000000
0.791870 0.643585 0.000000
0.867798 0.809753 0.000000
0.937042 0.182343 0.000000
0.937256 0.177338 0.000000
0.933289 0.196625 0.000000
0.929199 0.201233 0.000000
0.929413 0.175842 0.000000
0.929596 0.174988 0.000000
0.922516 0.198212 0.000000
0.921570 0.188324 0.000000
0.929413 0.174500 0.000000
0.927612 0.184784 0.000000
0.921478 0.199310 0.000000
0.921570 0.173004 0.000000
0.921570 0.174377 0.000000
0.913879 0.197449 0.000000
0.913727 0.198303 0.000000
0.913727 0.172882 0.000000
1.000000 0.213165 0.214905
1.000000 0.080597 0.080597
0.828735 0.000000 0.000000
1.000000 0.063751 0.063751
1.000000 0.277374 0.277374
0.830627 0.000000 0.000000
0.571381 0.000000 0.000000
1.000000 0.419617 0.420471
0.781708 0.634003 0.000000
0.848267 0.785522 0.000000
0.850037 0.799408 0.000000
0.834442 0.790222 0.000000
0.839722 0.788055 0.000000
0.796204 0.680145 0.000000
0.861237 0.809082 0.000000
0.869202 0.814026 0.000000
0.755127 0.000000 0.000000
0.736084 0.000000 0.000000
0.641632 0.000000 0.000000
0.793488 0.674347 0.000000
0.854828 0.811432 0.000000
0.789398 0.670868 0.000000
0.844360 0.802521 0.000000
0.844055 0.806976 0.000000
0.810242 0.689789 0.000000
0.860718 0.803345 0.000000
0.859344 0.795990 0.000000
0.767761 0.518463 0.000000
0.845642 0.515717 0.000000
0.858673 0.545044 0.000000
0.829468 0.476898 0.000000
0.872253 0.820709 0.000000
0.779053 0.620422 0.000000
0.862885 0.812317 0.000000
0.859467 0.802185 0.000000
0.850555 0.784943 0.000000
0.778351 0.604675 0.000000
0.844971 0.755646 0.000000
0.870483 0.826294 0.000000
0.852325 0.770752 0.000000
0.895020 0.872528 0.000000
0.798889 0.653778 0.000000
0.855286 0.805786 0.000000
0.858826 0.806610 0.000000
0.858704 0.801483 0.000000
0.794373 0.642914 0.000000
0.794708 0.648407 0.000000
0.861328 0.797180 0.000000
0.937042 0.196503 0.000000
0.937256 0.177338 0.000000
0.933289 0.196625 0.000000
0.929199 0.201233 0.000000
0.929413 0.175842 0.000000
0.929596 0.174988 0.000000
0.922516 0.198212 0.000000
0.921570 0.201141 0.000000
0.929413 0.175842 0.000000
0.925018 0.197144 0.000000
0.921539 0.200684 0.000000
0.921570 0.174377 0.000000
0.921906 0.172638 0.000000
0.913696 0.197632 0.000000
0.913727 0.177338 0.000000
0.913727 0.172882 0.000000
1.000000 0.519897 0.507874
1.000000 0.206390 0.206390
1.000000 0.124207 0.116882
1.000000 0.281006 0.412842
1.000000 0.653748 0.408051
0.773254 0.000000 0.111572
1.000000 0.502014 0.159576
1.000000 0.580383 0.299316
0.772278 0.621063 0.000000
0.843109 0.773315 0.000000
0.848663 0.797485 0.000000
0.835541 0.789642 0.000000
0.839783 0.789551 0.000000
0.819092 0.732513 0.000000
0.841217 0.787201 0.000000
0.869476 0.813873 0.000000
0.859192 0.000000 0.000214
0.824738 0.000000 0.000000
0.684967 0.000000 0.002350
0.640961 0.000793 0.000000
0.745667 0.000000 0.000000
0.743591 0.000000 0.006897
0.743591 0.000000 0.005096
0.759094 0.000549 0.000000
0.809326 0.688019 0.000000
0.860718 0.809662 0.000000
0.859100 0.795135 0.000000
0.770416 0.583069 0.000000
0.828918 0.495819 0.000000
0.860352 0.546326 0.000000
0.833832 0.499573 0.000000
0.870758 0.816986 0.000000
0.779297 0.620056 0.000000
0.862549 0.810547 0.000000
0.859467 0.802185 0.000000
0.850800 0.785583 0.000000
0.778595 0.605438 0.000000
0.838562 0.746857 0.000000
0.870483 0.826294 0.000000
0.873718 0.825073 0.000000
0.889709 0.863861 0.000000
0.800629 0.657562 0.000000
0.855042 0.799500 0.000000
0.858826 0.806610 0.000000
0.860931 0.811127 0.000000
0.798676 0.653992 0.000000
0.793365 0.648285 0.000000
0.863434 0.801880 0.000000
0.937042 0.203369 0.000000
0.937256 0.177338 0.000000
0.933289 0.196625 0.000000
0.929199 0.201233 0.000000
0.929413 0.175842 0.000000
0.929596 0.174988 0.000000
0.922516 0.198212 0.000000
0.921570 0.201141 0.000000
0.929443 0.175873 0.000000
0.925995 0.194183 0.000000
0.921570 0.196869 0.000000
0.921570 0.174377 0.000000
0.920288 0.181763 0.000000
0.913727 0.197632 0.000000
0.913727 0.171326 0.000000
0.913727 0.172882 0.000000
1.000000 0.393341 0.025177
0.757355 0.638824 0.000000
0.824402 0.782745 0.000000
0.824249 0.481964 0.000000
0.815765 0.703247 0.000000
0.590363 0.000000 0.200928
0.840576 0.756012 0.000000
0.839478 0.753387 0.000000
0.793640 0.668274 0.000000
0.850647 0.791046 0.000000
0.831177 0.780029 0.000000
0.835541 0.785370 0.000000
0.840820 0.792389 0.000000
0.820526 0.738800 0.000000
0.843628 0.793793 0.000000
0.873108 0.814911 0.000000
0.935516 0.000000 0.000000
0.828949 0.000000 0.000000
0.846863 0.000214 0.000000
0.643066 0.000000 0.000000
0.856659 0.000000 0.000000
1.000000 0.016022 0.016022
0.971344 0.000000 0.000000
1.000000 0.062988 0.062988
0.792908 0.646759 0.000000
0.860718 0.802917 0.000000
0.850098 0.780792 0.000000
0.780670 0.607605 0.000000
0.828552 0.495178 0.000000
0.867493 0.558075 0.000000
0.830109 0.484375 0.000000
0.874420 0.825958 0.000000
0.796753 0.658051 0.000000
0.862610 0.810577 0.000000
0.859467 0.802185 0.000000
0.847473 0.767181 0.000000
0.777985 0.604584 0.000000
0.837494 0.744049 0.000000
0.870483 0.826294 0.000000
0.873444 0.824402 0.000000
0.913513 0.902802 0.000000
0.802704 0.672974 0.000000
0.855042 0.799500 0.000000
0.858826 0.806610 0.000000
0.860931 0.807953 0.000000
0.805634 0.669525 0.000000
0.793884 0.650085 0.000000
0.869934 0.818542 0.000000
0.937042 0.203369 0.000000
0.937256 0.177338 0.000000
0.933289 0.196625 0.000000
0.929199 0.201233 0.000000
0.929413 0.175842 0.000000
0.929596 0.174988 0.000000
0.922516 0.198212 0.000000
0.921570 0.201141 0.000000
0.929230 0.176727 0.000000
0.923431 0.197052 0.000000
0.921570 0.174133 0.000000
0.921570 0.174377 0.000000
0.915588 0.196472 0.000000
0.913727 0.198303 0.000000
0.913727 0.172882 0.000000
0.913757 0.172882 0.000000
0.827698 0.762024 0.000000
0.818298 0.658478 0.000000
0.824219 0.560608 0.000000
0.854034 0.805878 0.000000
0.734741 0.319489 0.000000
0.866333 0.820221 0.000000
0.832550 0.740875 0.000000
0.837341 0.750061 0.000000
0.776764 0.621246 0.000000
0.855377 0.802948 0.000000
0.847565 0.796448 0.000000
0.835236 0.784271 0.000000
0.839417 0.788391 0.000000
0.787964 0.663116 0.000000
0.834412 0.772064 0.000000
0.841248 0.793610 0.000000
0.978851 0.000000 0.000000
0.852753 0.007294 0.000000
0.928772 0.003387 0.000000
0.734955 0.000000 0.000000
0.707397 0.000000 0.000000
1.000000 0.003906 0.003906
1.000000 0.003998 0.003998
1.000000 0.078278 0.078278
0.789490 0.637787 0.000000
0.862091 0.806946 0.000000
0.861298 0.804108 0.000000
0.769623 0.591858 0.000000
0.830719 0.498505 0.000000
0.868958 0.560272 0.000000
0.830658 0.661316 0.000000
0.877167 0.833038 0.000000
0.790680 0.648987 0.000000
0.845154 0.772125 0.000000
0.859589 0.802094 0.000000
0.846527 0.768005 0.000000
0.777374 0.602020 0.000000
0.837494 0.744049 0.000000
0.870605 0.826172 0.000000
0.872650 0.822571 0.000000
0.915894 0.906952 0.000000
0.800568 0.665131 0.000000
0.855164 0.799225 0.000000
0.858978 0.806549 0.000000
0.863068 0.808929 0.000000
0.805634 0.669525 0.000000
0.770508 0.579376 0.000000
0.870239 0.818817 0.000000
0.938080 0.201996 0.000000
0.937256 0.177338 0.000000
0.933289 0.196625 0.000000
0.929199 0.201233 0.000000
0.929413 0.175842 0.000000
0.929596 0.174988 0.000000
0.922516 0.198212 0.000000
0.921570 0.193054 0.000000
0.925629 0.194336 0.000000
0.921478 0.200684 0.000000
0.921570 0.174377 0.000000
0.921692 0.173706 0.000000
0.913391 0.198029 0.000000
0.913727 0.179810 0.000000
0.913727 0.172882 0.000000
0.913177 0.171661 0.000000
0.851349 0.730804 0.000000
0.799866 0.705170 0.000000
0.843384 0.792114 0.000000
0.707245 0.000000 0.089600
0.777039 0.574249 0.000000
0.855377 0.796906 0.000000
0.841553 0.758759 0.000000
0.849213 0.771881 0.000000
0.776947 0.622345 0.000000
0.843628 0.792145 0.000000
0.852722 0.800262 0.000000
0.835754 0.784729 0.000000
0.839539 0.788696 0.000000
0.789795 0.667175 0.000000
0.839508 0.788879 0.000000
0.843445 0.795044 0.000000
0.967010 0.000000 0.000000
0.887329 0.000000 0.000000
0.836243 0.000000 0.001648
0.710999 0.000000 0.000000
0.608795 0.000000 0.000000
1.000000 0.068024 0.068024
1.000000 0.118134 0.118134
1.000000 0.028351 0.028351
0.790253 0.639954 0.000000
0.861664 0.805481 0.000000
0.861389 0.804199 0.000000
0.768768 0.590271 0.000000
0.842010 0.515167 0.000000
0.865540 0.553009 0.000000
0.831116 0.729675 0.000000
0.876892 0.832367 0.000000
0.788452 0.642365 0.000000
0.844788 0.775269 0.000000
0.859497 0.802216 0.000000
0.859009 0.809509 0.000000
0.772858 0.598694 0.000000
0.837494 0.745087 0.000000
0.870605 0.826172 0.000000
0.877625 0.827057 0.000000
0.905396 0.890594 0.000000
0.794769 0.651001 0.000000
0.855255 0.804718 0.000000
0.859070 0.806427 0.000000
0.865509 0.811005 0.000000
0.800903 0.658173 0.000000
0.764771 0.570587 0.000000
0.870178 0.818756 0.000000
0.938019 0.202209 0.000000
0.937256 0.177338 0.000000
0.933289 0.196625 0.000000
0.929199 0.201233 0.000000
0.929413 0.175842 0.000000
0.929596 0.174988 0.000000
0.922516 0.198212 0.000000
0.921570 0.188538 0.000000
0.925568 0.194794 0.000000
0.921570 0.186279 0.000000
0.921570 0.174377 0.000000
0.918610 0.188599 0.000000
0.913727 0.197418 0.000000
0.912720 0.172028 0.000000
0.936279 0.190186 0.000000
0.928741 0.209290 0.000000
0.830353 0.764252 0.000000
0.902771 0.000000 0.271545
0.843567 0.738953 0.000000
0.829163 0.666016 0.000000
0.863922 0.825104 0.000000
0.861877 0.799377 0.000000
0.832428 0.732635 0.000000
0.865997 0.803619 0.000000
0.771240 0.610077 0.000000
0.853638 0.798615 0.000000
0.803101 0.722137 0.000000
0.835754 0.784729 0.000000
0.839050 0.788452 0.000000
0.785828 0.655762 0.000000
0.838501 0.785492 0.000000
0.843201 0.795044 0.000000
0.990967 0.000000 0.000000
0.920624 0.000000 0.000000
0.931061 0.000000 0.000214
0.790222 0.000000 0.000000
0.798065 0.000000 0.000000
1.000000 0.064331 0.064331
1.000000 0.214783 0.214783
1.000000 0.211334 0.211334
0.790253 0.640137 0.000000
0.861664 0.808655 0.000000
0.861694 0.803619 0.000000
0.769073 0.586761 0.000000
0.813629 0.471558 0.000000
0.865631 0.586456 0.000000
0.814606 0.684723 0.000000
0.876892 0.832367 0.000000
0.788361 0.642273 0.000000
0.842712 0.767426 0.000000
0.859497 0.802216 0.000000
0.859222 0.809937 0.000000
0.773346 0.599457 0.000000
0.838715 0.752930 0.000000
0.872253 0.827759 0.000000
0.874512 0.819214 0.000000
0.903534 0.888763 0.000000
0.780396 0.622253 0.000000
0.855103 0.804382 0.000000
0.859070 0.806427 0.000000
0.865021 0.810120 0.000000
0.850555 0.780151 0.000000
0.764771 0.570587 0.000000
0.868591 0.821075 0.000000
0.938019 0.202209 0.000000
0.937256 0.177338 0.000000
0.933289 0.196625 0.000000
0.929199 0.201233 0.000000
0.929413 0.175842 0.000000
0.929596 0.174988 0.000000
0.922516 0.198212 0.000000
0.921570 0.188538 0.000000
0.601807 0.000000 0.003662
0.601929 0.000000 0.003387
0.601379 0.000000 0.003235
0.598175 0.000000 0.003784
0.598083 0.000000 0.003784
0.597534 0.000000 0.003510
0.607849 0.000000 0.000000
0.607849 0.000000 0.000000
0.874695 0.587250 0.000000
0.808655 0.368591 0.000000
0.796600 0.000000 0.064178
0.858154 0.819397 0.000000
0.850494 0.800659 0.000000
0.858795 0.796112 0.000000
0.826477 0.727417 0.000000
0.866425 0.807190 0.000000
0.772583 0.610748 0.000000
0.840179 0.769623 0.000000
0.804077 0.724579 0.000000
0.835602 0.784607 0.000000
0.840210 0.792419 0.000000
0.787659 0.659973 0.000000
0.838745 0.786133 0.000000
0.843140 0.794769 0.000000
1.000000 0.001465 0.001465
0.969238 0.000000 0.000000
0.830505 0.000214 0.000000
0.929596 0.000214 0.000000
1.000000 0.030823 0.030823
0.980621 0.000000 0.000000
0.977295 0.000000 0.000000
1.000000 0.184998 0.184998
0.790222 0.640900 0.000000
0.861145 0.809418 0.000000
0.861694 0.803406 0.000000
0.774841 0.593994 0.000000
0.816742 0.476563 0.000000
0.864136 0.705688 0.000000
0.811890 0.679474 0.000000
0.876892 0.832367 0.000000
0.785370 0.638123 0.000000
0.842743 0.767029 0.000000
0.859497 0.802216 0.000000
0.859192 0.809906 0.000000
0.773865 0.600037 0.000000
0.807465 0.676758 0.000000
0.872559 0.828461 0.000000
0.874512 0.819000 0.000000
0.919067 0.911438 0.000000
0.772736 0.612946 0.000000
0.855133 0.804413 0.000000
0.859070 0.800751 0.000000
0.860321 0.809082 0.000000
0.853851 0.783600 0.000000
0.764771 0.570587 0.000000
0.832703 0.729431 0.000000
0.938019 0.202209 0.000000
0.937256 0.177338 0.000000
0.933289 0.196625 0.000000
0.929199 0.201233 0.000000
0.929413 0.175842 0.000000
0.929596 0.174988 0.000000
0.922516 0.198212 0.000000
0.921570 0.188538 0.000000
0.607849 0.000000 0.000000
0.607849 0.000000 0.000000
0.607849 0.000000 0.000000
0.608032 0.000000 0.000000
0.608093 0.000000 0.000000
0.605347 0.000000 0.000000
0.605621 0.000000 0.000000
0.603790 0.000000 0.000000
