res/LUTs/ThatsHotBBY.cube
LUT_3D_SIZE 6
-0.018781 -0.011125 0.000101
0.276155 -0.011133 -0.000808
0.538665 -0.011170 -0.001623
0.775041 -0.011245 -0.002436
0.984321 -0.011365 -0.003249
1.000009 -0.011532 -0.004068
-0.018794 0.167495 -0.001342
0.276154 0.167495 -0.001496
0.538664 0.167494 -0.001992
0.775041 0.167492 -0.002665
0.984321 0.167490 -0.003406
1.000009 0.167485 -0.004184
-0.018853 0.341667 -0.002692
0.276149 0.341667 -0.002754
0.538662 0.341667 -0.003000
0.775041 0.341666 -0.003429
0.984320 0.341665 -0.003990
1.000009 0.341664 -0.004640
-0.018969 0.523629 -0.004040
0.276140 0.523629 -0.004075
0.538657 0.523629 -0.004223
0.775039 0.523629 -0.004503
0.984320 0.523628 -0.004905
1.000008 0.523628 -0.005412
-0.019155 0.712158 -0.005387
0.276125 0.712158 -0.005410
0.538649 0.712158 -0.005511
0.775037 0.712158 -0.005708
0.984319 0.712157 -0.006004
1.000007 0.712228 -0.006396
-0.019435 1.011302 -0.013936
0.276121 1.011302 -0.013942
0.538639 1.011302 -0.013969
0.775034 1.011302 -0.014024
0.984318 1.011302 -0.014111
1.000006 1.011301 -0.014235
-0.017646 -0.200867 0.193702
0.276336 -0.200849 0.193852
0.538681 -0.200816 0.193989
0.775024 -0.200812 0.194017
0.984306 -0.200814 0.194033
1.000009 -0.200841 0.194012
-0.012005 0.167476 0.192592
0.276263 0.167403 0.192825
0.552441 0.155439 0.179156
0.799494 0.126985 0.147071
0.990442 0.099947 0.116578
1.000006 0.137950 0.159284
-0.009234 0.341649 0.192725
0.203748 0.349746 0.141983
0.546113 0.346965 0.134758
0.789250 0.336097 0.125474
0.988633 0.328547 0.107278
1.000006 0.332290 0.159988
-0.010074 0.523617 0.192738
0.154482 0.529598 0.107774
0.522271 0.528506 0.107373
0.779027 0.526881 0.103942
0.986521 0.520872 0.096912
1.000007 0.519193 0.160031
-0.011737 0.712224 0.192723
0.127163 0.715756 0.089096
0.511762 0.715273 0.091097
0.768331 0.714691 0.090157
0.984951 0.713767 0.089029
1.000007 0.710444 0.159541
-0.016430 1.011301 0.190935
0.225550 1.011273 0.154593
0.524739 1.011270 0.155185
0.769324 1.011276 0.155186
0.983543 1.011284 0.155185
1.000006 1.011305 0.154362
-0.016618 -0.200869 0.388146
0.277114 -0.200824 0.388278
0.539550 -0.200814 0.388910
0.775425 -0.200812 0.388980
0.984415 -0.200814 0.389020
1.000009 -0.200842 0.389024
-0.010345 0.167529 0.386847
0.251042 0.151723 0.399631
0.555900 0.144087 0.400508
0.798416 0.123182 0.388386
0.990112 0.099670 0.376561
1.000005 0.138595 0.376771
-0.009234 0.341653 0.386977
0.200518 0.348764 0.394728
0.539021 0.341608 0.387100
0.790819 0.330780 0.375116
0.990116 0.308964 0.351146
1.000004 0.300407 0.341700
-0.010135 0.523617 0.387025
0.156338 0.529178 0.374859
0.473796 0.535775 0.337182
0.786724 0.533017 0.325998
0.990202 0.513572 0.319199
1.000004 0.505239 0.342506
-0.011789 0.712224 0.387032
0.132058 0.715540 0.366426
0.390500 0.724221 0.275178
0.742212 0.721780 0.269675
0.986858 0.718453 0.260844
1.000005 0.704641 0.341525
-0.016443 1.011301 0.385476
0.226774 1.011265 0.374611
0.461621 1.011166 0.325885
0.746100 1.011185 0.326421
0.979988 1.011222 0.326499
1.000007 1.011317 0.325222
-0.016239 -0.200865 0.583593
0.277194 -0.200814 0.583597
0.540109 -0.200812 0.584085
0.776129 -0.200812 0.584581
0.984538 -0.200815 0.584612
1.000009 -0.200842 0.584629
-0.009304 0.167553 0.582231
0.239225 0.144368 0.600405
0.545048 0.133087 0.605412
0.796157 0.115741 0.600621
0.989784 0.096849 0.588140
1.000005 0.138344 0.577517
-0.009124 0.341668 0.582313
0.189377 0.339703 0.599662
0.500793 0.314858 0.600846
0.793930 0.311097 0.598652
0.990591 0.300366 0.579255
1.000004 0.298378 0.561603
-0.010242 0.523620 0.582341
0.154413 0.528508 0.587534
0.469127 0.535051 0.594523
0.775373 0.523593 0.582401
0.988619 0.513193 0.571321
1.000004 0.495846 0.552905
-0.011894 0.712225 0.582353
0.131553 0.715298 0.577111
0.388298 0.723395 0.556048
0.723359 0.722171 0.537982
0.987561 0.720123 0.530815
1.000004 0.701244 0.553538
-0.016470 1.011301 0.580838
0.226777 1.011268 0.575908
0.462275 1.011165 0.555801
0.707734 1.011140 0.522977
0.973275 1.011186 0.523354
1.000007 1.011350 0.522719
-0.016113 -0.200865 0.777920
0.277248 -0.200809 0.777910
0.540112 -0.200810 0.778078
0.776303 -0.200812 0.778458
0.984641 -0.200817 0.778620
1.000010 -0.200844 0.778643
-0.008635 0.167563 0.776620
0.207359 0.124590 0.801315
0.535638 0.116093 0.799452
0.786840 0.103751 0.794182
0.989123 0.092962 0.788292
1.000006 0.137953 0.774992
-0.009010 0.341678 0.776671
0.170749 0.333684 0.793388
0.479895 0.300394 0.794383
0.770122 0.296832 0.792339
0.991331 0.283693 0.794491
1.000004 0.294658 0.769224
-0.010261 0.523630 0.776696
0.144039 0.523202 0.784075
0.444135 0.514961 0.794415
0.737599 0.493265 0.790714
0.989661 0.489647 0.788974
1.000004 0.486586 0.763998
-0.012048 0.712225 0.776704
0.130890 0.714891 0.778866
0.383743 0.722212 0.784941
0.721286 0.721643 0.784464
0.984654 0.712216 0.776700
1.000005 0.704624 0.770254
-0.016514 1.011301 0.775544
0.226781 1.011271 0.773983
0.462324 1.011183 0.767545
0.707916 1.011158 0.757276
0.970341 1.011223 0.753513
1.000007 1.011336 0.753390
-0.017195 -0.200864 1.002035
0.277205 -0.200847 1.002042
0.540153 -0.200848 1.002070
0.776346 -0.200849 1.002111
0.984651 -0.200852 1.002123
1.000009 -0.200856 1.002081
-0.015351 0.167540 0.999551
0.225048 0.135557 0.999551
0.524805 0.136473 0.999551
0.769398 0.136471 0.999551
0.983479 0.136468 0.999551
1.000009 0.136464 0.999550
-0.015429 0.341681 0.999551
0.226483 0.331785 0.999551
0.461108 0.287570 0.999551
0.746238 0.288219 0.999551
0.980111 0.288218 0.999551
1.000009 0.288216 0.999550
-0.015583 0.523638 0.999550
0.226468 0.519028 0.999550
0.462004 0.500220 0.999550
0.708233 0.469813 0.999550
0.973515 0.470089 0.999550
1.000010 0.470087 0.999549
-0.015827 0.712163 0.999549
0.226446 0.710453 0.999549
0.462018 0.703017 0.999549
0.708648 0.691710 0.999549
0.970692 0.687728 0.999549
1.000010 0.687664 0.999548
-0.016169 1.002544 0.999548
0.226434 1.002553 0.999548
0.462011 1.002587 0.999548
0.708640 1.002638 0.999547
0.970674 1.002652 0.999547
1.000007 1.002601 0.999547
