res/LUTs/ThatsHotBBY.cube
LUT_3D_SIZE 16
-0.018781 -0.011125 0.000101
0.090786 -0.011126 -0.000254
0.184500 -0.011127 -0.000535
0.276155 -0.011133 -0.000808
0.366380 -0.011142 -0.001080
0.454313 -0.011153 -0.001352
0.538665 -0.011170 -0.001623
0.619820 -0.011190 -0.001894
0.698364 -0.011215 -0.002166
0.775041 -0.011245 -0.002436
0.850848 -0.011279 -0.002707
0.927994 -0.011320 -0.002978
0.984321 -0.011365 -0.003249
0.997115 -0.011414 -0.003521
0.999802 -0.011468 -0.003791
1.000009 -0.011532 -0.004068
-0.018781 0.053690 -0.000434
0.090786 0.053690 -0.000486
0.184500 0.053695 -0.000655
0.276155 0.053694 -0.000882
0.366380 0.053693 -0.001131
0.454313 0.053692 -0.001389
0.538665 0.053690 -0.001652
0.619820 0.053687 -0.001918
0.698364 0.053683 -0.002185
0.775041 0.053679 -0.002453
0.850848 0.053683 -0.002722
0.927994 0.053683 -0.002991
0.984321 0.053676 -0.003260
0.997115 0.053673 -0.003531
0.999802 0.053668 -0.003800
1.000009 0.053665 -0.004076
-0.018785 0.110541 -0.000891
0.090784 0.110541 -0.000911
0.184500 0.110541 -0.000993
0.276155 0.110540 -0.001137
0.366380 0.110540 -0.001325
0.454313 0.110540 -0.001541
0.538665 0.110539 -0.001774
0.619820 0.110539 -0.002018
0.698364 0.110538 -0.002269
0.775041 0.110537 -0.002526
0.850848 0.110536 -0.002784
0.927994 0.110535 -0.003047
0.984321 0.110533 -0.003309
0.997115 0.110532 -0.003575
0.999802 0.110530 -0.003840
1.000009 0.110528 -0.004112
-0.018794 0.167495 -0.001342
0.090780 0.167495 -0.001354
0.184499 0.167495 -0.001403
0.276154 0.167495 -0.001496
0.366379 0.167495 -0.001631
0.454313 0.167495 -0.001799
0.538664 0.167494 -0.001992
0.619820 0.167494 -0.002204
0.698364 0.167493 -0.002429
0.775041 0.167492 -0.002665
0.850848 0.167492 -0.002907
0.927994 0.167491 -0.003155
0.984321 0.167490 -0.003406
0.997115 0.167488 -0.003662
0.999802 0.167487 -0.003919
1.000009 0.167485 -0.004184
-0.018807 0.224950 -0.001793
0.090773 0.224950 -0.001800
0.184497 0.224950 -0.001834
0.276153 0.224950 -0.001899
0.366379 0.224949 -0.001998
0.454312 0.224949 -0.002128
0.538664 0.224949 -0.002284
0.619820 0.224949 -0.002462
0.698363 0.224948 -0.002658
0.775041 0.224968 -0.002868
0.850848 0.224967 -0.003089
0.927994 0.224967 -0.003318
0.984320 0.224966 -0.003554
0.997115 0.224965 -0.003796
0.999802 0.224964 -0.004041
1.000009 0.224963 -0.004296
-0.018827 0.282995 -0.002242
0.090763 0.282995 -0.002248
0.184495 0.282995 -0.002272
0.276152 0.282995 -0.002322
0.366378 0.282995 -0.002397
0.454312 0.282995 -0.002499
0.538663 0.282995 -0.002626
0.619819 0.282995 -0.002775
0.698363 0.282994 -0.002943
0.775041 0.282994 -0.003127
0.850882 0.282994 -0.003324
0.927993 0.283001 -0.003533
0.984320 0.283000 -0.003750
0.997115 0.283000 -0.003976
0.999802 0.282999 -0.004207
1.000009 0.282999 -0.004449
-0.018853 0.341667 -0.002692
0.090764 0.341667 -0.002696
0.184492 0.341667 -0.002715
0.276149 0.341667 -0.002754
0.366376 0.341667 -0.002814
0.454311 0.341667 -0.002896
0.538662 0.341667 -0.003000
0.619819 0.341667 -0.003125
0.698363 0.341666 -0.003269
0.775041 0.341666 -0.003429
0.850882 0.341666 -0.003604
0.927993 0.341665 -0.003792
0.984320 0.341665 -0.003990
0.997115 0.341665 -0.004198
0.999802 0.341664 -0.004413
1.000009 0.341664 -0.004640
-0.018884 0.401281 -0.003141
0.090755 0.401281 -0.003144
0.184489 0.401281 -0.003160
0.276147 0.401281 -0.003191
0.366374 0.401281 -0.003240
0.454310 0.401281 -0.003308
0.538661 0.401281 -0.003395
0.619819 0.401281 -0.003501
0.698362 0.401280 -0.003624
0.775040 0.401280 -0.003764
0.850881 0.401280 -0.003919
0.927993 0.401279 -0.004087
0.984320 0.401279 -0.004266
0.997115 0.401279 -0.004456
0.999802 0.401278 -0.004655
1.000008 0.401278 -0.004867
-0.018923 0.461979 -0.003590
0.090732 0.461979 -0.003593
0.184485 0.461979 -0.003606
0.276144 0.461979 -0.003632
0.366372 0.461979 -0.003673
0.454320 0.461979 -0.003730
0.538659 0.461979 -0.003804
0.619818 0.461979 -0.003895
0.698361 0.461979 -0.004002
0.775040 0.461978 -0.004124
0.850881 0.461978 -0.004261
0.927992 0.461978 -0.004411
0.984320 0.461978 -0.004573
0.997115 0.461977 -0.004747
0.999802 0.461977 -0.004929
1.000008 0.461976 -0.005125
-0.018969 0.523629 -0.004040
0.090724 0.523629 -0.004042
0.184479 0.523629 -0.004053
0.276140 0.523629 -0.004075
0.366369 0.523629 -0.004110
0.454319 0.523629 -0.004159
0.538657 0.523629 -0.004223
0.619817 0.523629 -0.004301
0.698361 0.523629 -0.004395
0.775039 0.523629 -0.004503
0.850880 0.523629 -0.004624
0.927991 0.523629 -0.004758
0.984320 0.523628 -0.004905
0.997115 0.523628 -0.005062
0.999802 0.523628 -0.005230
1.000008 0.523628 -0.005412
-0.019023 0.585964 -0.004489
0.090724 0.585964 -0.004491
0.184473 0.585964 -0.004500
0.276136 0.585964 -0.004519
0.366367 0.585964 -0.004550
0.454317 0.585964 -0.004592
0.538654 0.585964 -0.004648
0.619816 0.585964 -0.004717
0.698360 0.585964 -0.004799
0.775039 0.585964 -0.004895
0.850880 0.585964 -0.005003
0.927990 0.585964 -0.005124
0.984320 0.585963 -0.005256
0.997115 0.585963 -0.005400
0.999802 0.585963 -0.005554
1.000008 0.585963 -0.005721
-0.019085 0.648980 -0.004938
0.090705 0.648980 -0.004940
0.184466 0.648980 -0.004948
0.276130 0.648980 -0.004965
0.366363 0.648980 -0.004992
0.454315 0.648980 -0.005029
0.538652 0.648980 -0.005078
0.619815 0.648980 -0.005139
0.698359 0.648979 -0.005212
0.775038 0.648979 -0.005297
0.850879 0.648979 -0.005395
0.927989 0.648979 -0.005504
0.984319 0.648979 -0.005624
0.997115 0.648978 -0.005755
0.999802 0.648978 -0.005896
1.000008 0.648978 -0.006050
-0.019155 0.712158 -0.005387
0.090686 0.712158 -0.005388
0.184458 0.712158 -0.005396
0.276125 0.712158 -0.005410
0.366420 0.712158 -0.005434
0.454314 0.712158 -0.005468
0.538649 0.712158 -0.005511
0.619814 0.712158 -0.005565
0.698357 0.712158 -0.005631
0.775037 0.712158 -0.005708
0.850878 0.712157 -0.005795
0.927988 0.712157 -0.005894
0.984319 0.712157 -0.006004
0.997114 0.712229 -0.006123
0.999802 0.712229 -0.006253
1.000007 0.712228 -0.006396
-0.019233 0.775457 -0.005837
0.090651 0.775457 -0.005838
0.184450 0.775457 -0.005845
0.276118 0.775457 -0.005858
0.366416 0.775457 -0.005879
0.454312 0.775457 -0.005909
0.538646 0.775457 -0.005948
0.619812 0.775457 -0.005997
0.698356 0.775457 -0.006056
0.775036 0.775457 -0.006125
0.850877 0.775457 -0.006205
0.927987 0.775456 -0.006295
0.984319 0.775456 -0.006395
0.997114 0.775456 -0.006506
0.999802 0.775456 -0.006625
1.000007 0.775456 -0.006756
-0.019320 0.834980 -0.006285
0.090632 0.834980 -0.006286
0.184443 0.834980 -0.006292
0.276098 0.834980 -0.006304
0.366380 0.834980 -0.006323
0.454309 0.834980 -0.006350
0.538643 0.834980 -0.006386
0.619811 0.834980 -0.006430
0.698355 0.834980 -0.006484
0.775035 0.834980 -0.006547
0.850877 0.834980 -0.006619
0.927985 0.834980 -0.006702
0.984318 0.834980 -0.006793
0.997114 0.834979 -0.006894
0.999802 0.834979 -0.007005
1.000007 0.834979 -0.007126
-0.019435 1.011302 -0.013936
0.090598 1.011302 -0.013937
0.184431 1.011302 -0.013939
0.276121 1.011302 -0.013942
0.366373 1.011302 -0.013949
0.454306 1.011302 -0.013958
0.538639 1.011302 -0.013969
0.619809 1.011302 -0.013984
0.698353 1.011302 -0.014002
0.775034 1.011302 -0.014024
0.850875 1.011302 -0.014049
0.927983 1.011302 -0.014079
0.984318 1.011302 -0.014111
0.997114 1.011302 -0.014148
0.999802 1.011301 -0.014189
1.000006 1.011301 -0.014235
-0.018762 -0.200871 0.064463
0.090725 -0.200869 0.064475
0.184381 -0.200872 0.064533
0.275966 -0.200848 0.064660
0.366207 -0.200837 0.064780
0.454150 -0.200824 0.064853
0.538519 -0.200817 0.064887
0.619698 -0.200814 0.064905
0.698303 -0.200812 0.064916
0.774967 -0.200812 0.064915
0.850802 -0.200812 0.064923
0.927932 -0.200813 0.064919
0.984291 -0.200814 0.064917
0.997107 -0.200815 0.064908
0.999801 -0.200829 0.064842
1.000009 -0.200841 0.064714
-0.018064 0.053670 0.063950
0.090812 0.053657 0.064084
0.188071 0.051760 0.062065
0.285853 0.043209 0.052789
0.376847 0.033741 0.042864
0.462942 0.027613 0.036755
0.545554 0.023775 0.033140
0.625322 0.021124 0.030782
0.702821 0.019357 0.029291
0.778606 0.018264 0.028402
0.853854 0.017708 0.027953
0.930609 0.017562 0.027822
0.985017 0.017737 0.027936
0.997287 0.018159 0.028242
0.999828 0.018022 0.028129
1.000009 0.042513 0.051739
-0.015743 0.110506 0.064093
0.073371 0.112107 0.052831
0.185552 0.111207 0.050354
0.281856 0.109233 0.045190
0.373434 0.107154 0.039394
0.460793 0.105643 0.035600
0.544176 0.104656 0.033199
0.624527 0.104002 0.031526
0.702351 0.103556 0.030433
0.778307 0.103258 0.029772
0.853689 0.103072 0.029448
0.930344 0.102947 0.029379
0.984947 0.102877 0.029511
0.997279 0.102843 0.029803
0.999825 0.102760 0.029523
1.000009 0.107006 0.052112
-0.012575 0.167465 0.064247
0.051471 0.169300 0.039299
0.178872 0.168929 0.039224
0.277461 0.168356 0.037960
0.370007 0.167163 0.035359
0.458424 0.166124 0.033273
0.542647 0.165364 0.031908
0.623452 0.164798 0.030871
0.701585 0.164378 0.030162
0.777872 0.164062 0.029729
0.853329 0.163858 0.029545
0.930122 0.163688 0.029552
0.984842 0.163579 0.029731
0.997262 0.163499 0.030056
0.999823 0.163416 0.029806
1.000009 0.165526 0.052110
-0.010338 0.224923 0.064326
0.039311 0.226528 0.032370
0.175312 0.226358 0.033247
0.274050 0.226140 0.032855
0.367738 0.225820 0.032364
0.456577 0.224968 0.031520
0.541211 0.224326 0.030919
0.622396 0.223833 0.030388
0.700846 0.223451 0.030013
0.777306 0.223175 0.029812
0.852948 0.222944 0.029770
0.929767 0.222777 0.029871
0.984777 0.222630 0.030110
0.997248 0.222519 0.030463
0.999822 0.222428 0.030250
1.000009 0.223655 0.052105
-0.009437 0.282965 0.064347
0.034228 0.284251 0.029681
0.173651 0.284109 0.030930
0.272136 0.284041 0.030826
0.365540 0.283873 0.030698
0.455338 0.283683 0.030579
0.540109 0.283063 0.030416
0.621502 0.282684 0.030270
0.700107 0.282337 0.030138
0.776759 0.282075 0.030111
0.852450 0.281848 0.030191
0.929427 0.281672 0.030381
0.984739 0.281522 0.030670
0.997228 0.281421 0.031052
0.999818 0.281320 0.030889
1.000008 0.282082 0.052099
-0.009233 0.341648 0.064356
0.032901 0.342606 0.028968
0.172867 0.342576 0.030343
0.271081 0.342495 0.030349
0.364343 0.342385 0.030367
0.453971 0.342326 0.030413
0.539395 0.342166 0.030506
0.620862 0.341725 0.030513
0.699489 0.341473 0.030588
0.776182 0.341237 0.030678
0.852121 0.341001 0.030847
0.929203 0.340809 0.031096
0.984607 0.340718 0.031426
0.997206 0.340567 0.031826
0.999816 0.340551 0.031707
1.000008 0.340916 0.052078
-0.009350 0.401257 0.064347
0.033384 0.402059 0.029156
0.172538 0.402041 0.030539
0.270531 0.401977 0.030590
0.363612 0.401914 0.030670
0.453151 0.401847 0.030788
0.538535 0.401774 0.030958
0.620327 0.401689 0.031193
0.699092 0.401414 0.031318
0.775873 0.401158 0.031513
0.851768 0.401018 0.031741
0.928825 0.400808 0.032031
0.984618 0.400740 0.032380
0.997185 0.400601 0.032795
0.999814 0.400453 0.032728
1.000008 0.400741 0.052062
-0.009646 0.461980 0.064334
0.035025 0.462583 0.029933
0.172464 0.462552 0.031265
0.270243 0.462519 0.031333
0.363210 0.462520 0.031438
0.452642 0.462451 0.031588
0.537960 0.462465 0.031785
0.619776 0.462390 0.032055
0.698784 0.462348 0.032381
0.775530 0.462114 0.032586
0.851462 0.461915 0.032857
0.928662 0.461732 0.033177
0.984503 0.461651 0.033530
0.997170 0.461567 0.033955
0.999811 0.461413 0.033927
1.000008 0.461575 0.052040
-0.010062 0.523617 0.064319
0.037373 0.524086 0.031108
0.172558 0.524065 0.032354
0.270152 0.524047 0.032426
0.362928 0.524021 0.032539
0.452336 0.523985 0.032699
0.537583 0.524001 0.032915
0.619353 0.523976 0.033185
0.698394 0.523922 0.033512
0.775409 0.523908 0.033913
0.851275 0.523690 0.034177
0.928443 0.523567 0.034497
0.984399 0.523416 0.034871
0.997150 0.523357 0.035280
0.999810 0.523200 0.035299
1.000008 0.523303 0.052017
-0.010560 0.585957 0.064295
0.040153 0.586303 0.032559
0.172756 0.586322 0.033706
0.270153 0.586312 0.033778
0.362875 0.586299 0.033892
0.452136 0.586280 0.034055
0.537340 0.586257 0.034267
0.619107 0.586239 0.034529
0.698089 0.586209 0.034857
0.775033 0.586118 0.035242
0.851139 0.586192 0.035693
0.928302 0.585990 0.035999
0.984331 0.585895 0.036351
0.997140 0.585787 0.036766
0.999807 0.585691 0.036826
1.000008 0.585688 0.051985
-0.011119 0.648973 0.064274
0.043225 0.649317 0.034224
0.173083 0.649343 0.035264
0.270216 0.649333 0.035333
0.362832 0.649317 0.035439
0.452048 0.649296 0.035599
0.537177 0.649269 0.035802
0.618920 0.649236 0.036061
0.697882 0.649199 0.036371
0.774880 0.649126 0.036740
0.850873 0.649106 0.037168
0.928186 0.649139 0.037659
0.984425 0.648942 0.037996
0.997135 0.648975 0.038381
0.999807 0.648910 0.038486
1.000008 0.648806 0.051941
-0.011724 0.712224 0.064247
0.046445 0.712418 0.036032
0.173482 0.712408 0.036967
0.270392 0.712401 0.037033
0.362866 0.712389 0.037140
0.452013 0.712374 0.037284
0.537111 0.712353 0.037482
0.618807 0.712403 0.037732
0.697801 0.712375 0.038032
0.774734 0.712418 0.038380
0.850708 0.712386 0.038789
0.927963 0.712354 0.039242
0.984380 0.712323 0.039764
0.997125 0.712173 0.040120
0.999805 0.712207 0.040259
1.000007 0.712159 0.051885
-0.012366 0.775453 0.064212
0.049801 0.775617 0.037968
0.173993 0.775612 0.038802
0.270595 0.775608 0.038861
0.362938 0.775603 0.038963
0.452031 0.775595 0.039102
0.537127 0.775600 0.039281
0.618731 0.775587 0.039518
0.697684 0.775572 0.039801
0.774540 0.775557 0.040125
0.850587 0.775540 0.040508
0.927829 0.775523 0.040947
0.984308 0.775506 0.041437
0.997119 0.775491 0.041982
0.999804 0.775434 0.042150
1.000007 0.775423 0.051813
-0.013723 0.834978 0.064144
0.052926 0.835091 0.039804
0.174477 0.835087 0.040483
0.270801 0.835084 0.040546
0.363066 0.835080 0.040642
0.452075 0.835074 0.040777
0.537134 0.835067 0.040957
0.618722 0.835058 0.041186
0.697647 0.835048 0.041457
0.774477 0.835106 0.041781
0.850515 0.835094 0.042160
0.927733 0.835081 0.042578
0.984235 0.835068 0.043052
0.997110 0.835055 0.043578
0.999803 0.835045 0.044025
1.000007 0.834910 0.051740
-0.016426 1.011301 0.061489
0.071387 1.011300 0.047781
0.178500 1.011300 0.048085
0.272877 1.011300 0.048082
0.364364 1.011300 0.048078
0.452926 1.011300 0.048074
0.537606 1.011300 0.048072
0.619089 1.011300 0.048065
0.697816 1.011300 0.048061
0.774687 1.011300 0.048049
0.850560 1.011300 0.048034
0.927766 1.011300 0.048029
0.984214 1.011300 0.048011
0.997101 1.011300 0.047995
0.999801 1.011301 0.047937
1.000006 1.011302 0.047856
-0.017853 -0.200870 0.129028
0.091000 -0.200865 0.129045
0.184498 -0.200867 0.129055
0.276039 -0.200845 0.129094
0.366279 -0.200836 0.129151
0.454190 -0.200823 0.129202
0.538552 -0.200817 0.129235
0.619693 -0.200814 0.129262
0.698272 -0.200812 0.129265
0.774978 -0.200812 0.129275
0.850811 -0.200812 0.129281
0.927938 -0.200813 0.129283
0.984293 -0.200814 0.129284
0.997108 -0.200815 0.129283
0.999801 -0.200829 0.129262
1.000009 -0.200841 0.129206
-0.017776 0.053690 0.128075
0.088420 0.052242 0.131180
0.188549 0.050357 0.131010
0.285507 0.042058 0.129369
0.376284 0.033592 0.125871
0.462499 0.028656 0.123504
0.545148 0.026165 0.122126
0.624969 0.024817 0.121294
0.702476 0.024147 0.120786
0.778382 0.023887 0.120455
0.853641 0.023903 0.120261
0.930468 0.024102 0.120156
0.984891 0.024439 0.120096
0.997257 0.024884 0.120080
0.999823 0.024115 0.119894
1.000008 0.044035 0.124493
-0.015448 0.110514 0.128101
0.071951 0.111792 0.129616
0.184499 0.110487 0.128257
0.281662 0.108471 0.126019
0.376175 0.103464 0.120357
0.470124 0.094681 0.110474
0.557106 0.085456 0.100107
0.638172 0.076997 0.090618
0.715410 0.069729 0.082502
0.790493 0.063591 0.075682
0.864707 0.058423 0.069973
0.940625 0.054042 0.065174
0.987562 0.050300 0.061111
0.997709 0.047065 0.057629
0.999812 0.042864 0.053178
1.000007 0.089677 0.104591
-0.012435 0.167468 0.128176
0.052447 0.169138 0.124596
0.169411 0.170504 0.117917
0.279861 0.169746 0.114786
0.376485 0.166143 0.110363
0.468241 0.162002 0.101146
0.553983 0.158177 0.093367
0.635062 0.154816 0.086284
0.712709 0.151965 0.080026
0.788287 0.149617 0.074591
0.863077 0.147714 0.069915
0.939272 0.146188 0.065891
0.987234 0.144927 0.062453
0.997742 0.143901 0.059470
0.999801 0.142740 0.055141
1.000007 0.157010 0.105205
-0.010302 0.224925 0.128233
0.043669 0.226402 0.122127
0.138011 0.230147 0.096497
0.266276 0.229366 0.094859
0.371682 0.228347 0.091792
0.463470 0.224653 0.090464
0.549647 0.221884 0.085569
0.631431 0.219498 0.080519
0.709914 0.217465 0.075866
0.786016 0.215735 0.071637
0.861208 0.214289 0.067850
0.937769 0.213071 0.064475
0.986964 0.212060 0.061496
0.997670 0.211213 0.058852
0.999793 0.210337 0.054749
1.000007 0.218180 0.105207
-0.009428 0.282966 0.128259
0.041612 0.284132 0.121081
0.117064 0.288030 0.082299
0.255555 0.287523 0.082213
0.361787 0.286881 0.080600
0.458874 0.286111 0.078572
0.545365 0.283269 0.077528
0.627843 0.281286 0.075148
0.706850 0.279585 0.071783
0.783560 0.278165 0.068608
0.859249 0.276927 0.065652
0.936188 0.275860 0.062923
0.986596 0.274955 0.060437
0.997585 0.274188 0.058164
0.999782 0.273404 0.054320
1.000007 0.278172 0.105209
-0.009233 0.341649 0.128275
0.041774 0.342522 0.120606
0.103887 0.345980 0.073423
0.248830 0.345600 0.074235
0.355298 0.345221 0.073385
0.452237 0.344714 0.072261
0.542139 0.344149 0.070962
0.624838 0.342142 0.069629
0.704228 0.340609 0.068266
0.781278 0.339342 0.065892
0.857263 0.338257 0.063620
0.934477 0.337327 0.061462
0.986261 0.336466 0.059424
0.997599 0.335793 0.057518
0.999769 0.335064 0.053933
1.000007 0.338033 0.105209
-0.009353 0.401257 0.128280
0.042777 0.401992 0.120423
0.094411 0.404913 0.067096
0.244419 0.404742 0.068495
0.351036 0.404445 0.068028
0.447846 0.404117 0.067410
0.537640 0.403748 0.066685
0.622503 0.403328 0.065874
0.702072 0.401810 0.064596
0.779381 0.400646 0.063594
0.855588 0.399633 0.061948
0.932913 0.398750 0.060234
0.985785 0.397998 0.058585
0.997500 0.397309 0.056989
0.999758 0.396686 0.053658
1.000008 0.398477 0.105208
-0.009651 0.461980 0.128279
0.044364 0.462516 0.120404
0.087618 0.465070 0.062602
0.241447 0.464860 0.064417
0.348167 0.464739 0.064162
0.444880 0.464520 0.063824
0.534638 0.464257 0.063423
0.619330 0.463967 0.062969
0.700442 0.463657 0.062496
0.777873 0.462434 0.061360
0.854193 0.461544 0.060524
0.931651 0.460726 0.059329
0.985499 0.460005 0.057976
0.997416 0.459371 0.056659
0.999745 0.458777 0.053544
1.000008 0.459787 0.105204
-0.010066 0.523617 0.128272
0.046348 0.524026 0.120496
0.082761 0.526147 0.059416
0.239467 0.526058 0.061529
0.346168 0.525944 0.061400
0.442824 0.525813 0.061227
0.532455 0.525639 0.061021
0.617133 0.525389 0.060786
0.698097 0.525158 0.060547
0.776735 0.524974 0.060312
0.853010 0.524009 0.059350
0.930538 0.523183 0.058577
0.985196 0.522541 0.057656
0.997337 0.521955 0.056547
0.999734 0.521385 0.053633
1.000008 0.521881 0.105198
-0.010564 0.585957 0.128263
0.048629 0.586267 0.120661
0.079366 0.588046 0.057205
0.238087 0.588008 0.059533
0.344776 0.587941 0.059475
0.441329 0.587860 0.059403
0.530873 0.587697 0.059311
0.615504 0.587548 0.059216
0.696438 0.587387 0.059116
0.774875 0.587213 0.059028
0.852196 0.587069 0.058970
0.929623 0.586230 0.058143
0.984922 0.585603 0.057425
0.997314 0.585022 0.056641
0.999836 0.584463 0.053935
1.000007 0.584639 0.105195
-0.011124 0.648974 0.128252
0.051147 0.649322 0.120906
0.077059 0.650675 0.055707
0.237149 0.650670 0.058192
0.343800 0.650671 0.058179
0.440262 0.650566 0.058161
0.529764 0.650427 0.058150
0.614282 0.650269 0.058136
0.695188 0.650171 0.058136
0.773598 0.650112 0.058145
0.850697 0.649975 0.058184
0.928955 0.649742 0.058259
0.984717 0.649106 0.057525
0.997260 0.648609 0.056852
0.999828 0.648015 0.054394
1.000007 0.647940 0.105194
-0.011729 0.712224 0.128250
0.053833 0.712377 0.121198
0.075604 0.713656 0.054757
0.236517 0.713566 0.057354
0.343085 0.713494 0.057370
0.439479 0.713468 0.057392
0.528851 0.713339 0.057425
0.613359 0.713296 0.057465
0.694286 0.713205 0.057528
0.772528 0.713075 0.057604
0.849716 0.712982 0.057707
0.927823 0.712900 0.057840
0.984601 0.712788 0.058014
0.997206 0.712278 0.057345
0.999820 0.711756 0.054997
1.000007 0.711501 0.105026
-0.012368 0.775453 0.128233
0.056674 0.775594 0.121544
0.074806 0.776528 0.054237
0.236055 0.776497 0.056906
0.342568 0.776457 0.056937
0.438864 0.776402 0.056985
0.528218 0.776406 0.057043
0.612662 0.776387 0.057127
0.693477 0.776287 0.057224
0.771727 0.776174 0.057344
0.848857 0.776112 0.057495
0.926813 0.776077 0.057672
0.984221 0.775940 0.057879
0.997167 0.775895 0.058146
0.999814 0.775480 0.055875
1.000007 0.775003 0.104790
-0.013725 0.834978 0.128210
0.058498 0.835077 0.121784
0.072408 0.835792 0.052672
0.235253 0.835757 0.055095
0.341911 0.835747 0.055140
0.438250 0.835772 0.055200
0.527607 0.835715 0.055286
0.612039 0.835688 0.055397
0.692825 0.835604 0.055526
0.771026 0.835602 0.055689
0.848051 0.835532 0.055879
0.926024 0.835421 0.056102
0.984017 0.835345 0.056356
0.997087 0.835359 0.056648
0.999809 0.835240 0.055765
1.000007 0.834742 0.104526
-0.016428 1.011301 0.126249
0.073477 1.011298 0.122295
0.148975 1.011292 0.101021
0.258764 1.011289 0.101564
0.355511 1.011289 0.101563
0.446945 1.011289 0.101561
0.533426 1.011290 0.101560
0.615969 1.011291 0.101557
0.695476 1.011292 0.101555
0.772893 1.011292 0.101552
0.849275 1.011293 0.101548
0.926650 1.011294 0.101544
0.983978 1.011295 0.101538
0.997166 1.011296 0.101537
0.999797 1.011298 0.101361
1.000006 1.011303 0.100998
-0.017646 -0.200867 0.193702
0.091400 -0.200870 0.193714
0.184910 -0.200854 0.193772
0.276336 -0.200849 0.193852
0.366442 -0.200832 0.193886
0.454306 -0.200822 0.193942
0.538681 -0.200816 0.193989
0.619791 -0.200813 0.194010
0.698331 -0.200812 0.194029
0.775024 -0.200812 0.194017
0.850849 -0.200812 0.194025
0.927966 -0.200813 0.194030
0.984306 -0.200814 0.194033
0.997111 -0.200815 0.194034
0.999801 -0.200829 0.194019
1.000009 -0.200841 0.194012
-0.017139 0.053730 0.192570
0.084033 0.049643 0.197986
0.187811 0.046205 0.199797
0.284751 0.039983 0.198780
0.375515 0.032679 0.195532
0.462001 0.028298 0.192982
0.544865 0.026030 0.191349
0.624832 0.024766 0.190290
0.702437 0.024137 0.189658
0.778334 0.023899 0.189190
0.853586 0.023922 0.188901
0.930401 0.024130 0.188687
0.984881 0.024469 0.188563
0.997264 0.024909 0.188462
0.999822 0.024145 0.188325
1.000008 0.044035 0.190619
-0.014639 0.110533 0.192555
0.066178 0.110598 0.198469
0.177322 0.106128 0.197919
0.282616 0.105043 0.197271
0.377105 0.101243 0.193747
0.470301 0.093052 0.189893
0.556807 0.084537 0.185104
0.637788 0.076747 0.180515
0.714926 0.070126 0.176664
0.789988 0.064662 0.173590
0.864250 0.060167 0.171195
0.940198 0.056431 0.169306
0.987485 0.053324 0.167810
0.997776 0.050690 0.166607
0.999804 0.046648 0.165198
1.000007 0.090699 0.181044
-0.012005 0.167476 0.192592
0.051870 0.168898 0.194259
0.168005 0.170328 0.195981
0.276263 0.167403 0.192825
0.374191 0.165136 0.190275
0.466027 0.160461 0.184902
0.552441 0.155439 0.179156
0.638567 0.147164 0.169837
0.720985 0.137166 0.158555
0.799494 0.126985 0.147071
0.875913 0.117261 0.136102
0.952858 0.108226 0.125903
0.990442 0.099947 0.116578
0.998362 0.092343 0.108032
0.999927 0.083944 0.098597
1.000006 0.137950 0.159284
-0.010232 0.224929 0.192668
0.043529 0.226320 0.191451
0.137489 0.229885 0.186448
0.254610 0.230243 0.177630
0.373897 0.229568 0.175111
0.464850 0.224296 0.179145
0.553870 0.219658 0.170011
0.638509 0.214541 0.160282
0.719184 0.209290 0.150406
0.796796 0.204211 0.140748
0.872945 0.199471 0.131536
0.950246 0.195175 0.122877
0.989906 0.191382 0.114837
0.998202 0.188031 0.107366
0.999907 0.184578 0.098542
1.000005 0.207027 0.159939
-0.009413 0.282967 0.192703
0.041608 0.284060 0.190034
0.118025 0.287811 0.178581
0.227231 0.290760 0.158428
0.354680 0.289874 0.155755
0.462923 0.288742 0.151586
0.550916 0.283006 0.155081
0.635129 0.279166 0.149075
0.715629 0.275284 0.140969
0.793284 0.271679 0.133077
0.869560 0.268328 0.125446
0.947058 0.265257 0.118117
0.989313 0.262468 0.111174
0.998161 0.259984 0.104581
0.999890 0.257495 0.096370
1.000006 0.270442 0.159954
-0.009234 0.341649 0.192725
0.041801 0.342526 0.189318
0.106252 0.345792 0.173729
0.203748 0.349746 0.141983
0.339090 0.348978 0.140699
0.448448 0.348048 0.138033
0.546113 0.346965 0.134758
0.630502 0.342281 0.134187
0.711218 0.339109 0.131834
0.789250 0.336097 0.125474
